obsidian/Clippings/写真家活動/技法探求/デジタルネガ探究/QTR/プロファイル作成/QTR-DN/QTR-DN/古い/QUAD1/PtPd-K30-xf1lux-start-20260414-v8.cube
#Color Lookup Table 
TITLE "QuadToneProfiler Color Lookup Table for 256-step Linearity Correction
LUT_1D_SIZE 256
DOMAIN_MIN 0.0 0.0 0.0
DOMAIN_MAX 1.0 1.0 1.0
0.0 0.0 0.0
0.012731205814327603 0.012731205814327603 0.012731205814327603
0.015490940731628811 0.015490940731628811 0.015490940731628811
0.01859730323603962 0.01859730323603962 0.01859730323603962
0.02183906029262918 0.02183906029262918 0.02183906029262918
0.025495709023753324 0.025495709023753324 0.025495709023753324
0.029554643865445228 0.029554643865445228 0.029554643865445228
0.033206877353505256 0.033206877353505256 0.033206877353505256
0.036377486539626656 0.036377486539626656 0.036377486539626656
0.03929833839040408 0.03929833839040408 0.03929833839040408
0.04187288341046715 0.04187288341046715 0.04187288341046715
0.04436451227981761 0.04436451227981761 0.04436451227981761
0.046776123643960416 0.046776123643960416 0.046776123643960416
0.04918461956495704 0.04918461956495704 0.04918461956495704
0.051598392762642505 0.051598392762642505 0.051598392762642505
0.05402885637888441 0.05402885637888441 0.05402885637888441
0.056554195996733 0.056554195996733 0.056554195996733
0.05915037696828355 0.05915037696828355 0.05915037696828355
0.06187610577901652 0.06187610577901652 0.06187610577901652
0.0647710157424914 0.0647710157424914 0.0647710157424914
0.06780980943141332 0.06780980943141332 0.06780980943141332
0.07096323928182338 0.07096323928182338 0.07096323928182338
0.07412337134689576 0.07412337134689576 0.07412337134689576
0.0773346427934038 0.0773346427934038 0.0773346427934038
0.0805919989107533 0.0805919989107533 0.0805919989107533
0.08390442804293029 0.08390442804293029 0.08390442804293029
0.08729195659094097 0.08729195659094097 0.08729195659094097
0.09078001964893138 0.09078001964893138 0.09078001964893138
0.09436420608615664 0.09436420608615664 0.09436420608615664
0.09805594544675846 0.09805594544675846 0.09805594544675846
0.10180673013185991 0.10180673013185991 0.10180673013185991
0.10547382677283451 0.10547382677283451 0.10547382677283451
0.10906535156627017 0.10906535156627017 0.10906535156627017
0.1125096970538182 0.1125096970538182 0.1125096970538182
0.11584928301587505 0.11584928301587505 0.11584928301587505
0.11914327994238973 0.11914327994238973 0.11914327994238973
0.1224263056003554 0.1224263056003554 0.1224263056003554
0.12570919499840694 0.12570919499840694 0.12570919499840694
0.12907649583306768 0.12907649583306768 0.12907649583306768
0.13249433694424564 0.13249433694424564 0.13249433694424564
0.13590751296465434 0.13590751296465434 0.13590751296465434
0.13931944718216602 0.13931944718216602 0.13931944718216602
0.14274340713811162 0.14274340713811162 0.14274340713811162
0.14618629864304622 0.14618629864304622 0.14618629864304622
0.14964566748137695 0.14964566748137695 0.14964566748137695
0.15311937996649447 0.15311937996649447 0.15311937996649447
0.15660894443961243 0.15660894443961243 0.15660894443961243
0.1601127974432642 0.1601127974432642 0.1601127974432642
0.1636301159538012 0.1636301159538012 0.1636301159538012
0.1671591925721196 0.1671591925721196 0.1671591925721196
0.17069969793628048 0.17069969793628048 0.17069969793628048
0.1742510229864383 0.1742510229864383 0.1742510229864383
0.17781215104170606 0.17781215104170606 0.17781215104170606
0.18138074716705294 0.18138074716705294 0.18138074716705294
0.18495266729416232 0.18495266729416232 0.18495266729416232
0.1885262636740902 0.1885262636740902 0.1885262636740902
0.19209162009343506 0.19209162009343506 0.19209162009343506
0.19564867278441903 0.19564867278441903 0.19564867278441903
0.19919153807859322 0.19919153807859322 0.19919153807859322
0.20272062343185715 0.20272062343185715 0.20272062343185715
0.20623375718680947 0.20623375718680947 0.20623375718680947
0.20973084619882926 0.20973084619882926 0.20973084619882926
0.21321456819456622 0.21321456819456622 0.21321456819456622
0.21668754980319205 0.21668754980319205 0.21668754980319205
0.22015176220393814 0.22015176220393814 0.22015176220393814
0.22361450046981182 0.22361450046981182 0.22361450046981182
0.22707524627762218 0.22707524627762218 0.22707524627762218
0.23054241440281792 0.23054241440281792 0.23054241440281792
0.23401566331596485 0.23401566331596485 0.23401566331596485
0.2374992683507097 0.2374992683507097 0.2374992683507097
0.24099483044471812 0.24099483044471812 0.24099483044471812
0.24450463450675972 0.24450463450675972 0.24450463450675972
0.24803175740804315 0.24803175740804315 0.24803175740804315
0.2515765384337722 0.2515765384337722 0.2515765384337722
0.2551394910578519 0.2551394910578519 0.2551394910578519
0.25872160045938947 0.25872160045938947 0.25872160045938947
0.2623179029414453 0.2623179029414453 0.2623179029414453
0.26592785574153266 0.26592785574153266 0.26592785574153266
0.269542902775773 0.269542902775773 0.269542902775773
0.2731618356337589 0.2731618356337589 0.2731618356337589
0.27677586206506394 0.27677586206506394 0.27677586206506394
0.2803808210313068 0.2803808210313068 0.2803808210313068
0.2839720703718877 0.2839720703718877 0.2839720703718877
0.287544930551873 0.287544930551873 0.287544930551873
0.2910992127939208 0.2910992127939208 0.2910992127939208
0.2946347341174565 0.2946347341174565 0.2946347341174565
0.29815140428531983 0.29815140428531983 0.29815140428531983
0.30165710652087496 0.30165710652087496 0.30165710652087496
0.3051525261897215 0.3051525261897215 0.3051525261897215
0.3086459686827586 0.3086459686827586 0.3086459686827586
0.3121390862110252 0.3121390862110252 0.3121390862110252
0.31563143366745555 0.31563143366745555 0.31563143366745555
0.319122707119142 0.319122707119142 0.319122707119142
0.32261232886977853 0.32261232886977853 0.32261232886977853
0.3260987778938538 0.3260987778938538 0.3260987778938538
0.3295816090702815 0.3295816090702815 0.3295816090702815
0.3330648678613013 0.3330648678613013 0.3330648678613013
0.33654746288453713 0.33654746288453713 0.33654746288453713
0.34003963325152947 0.34003963325152947 0.34003963325152947
0.3435432078575545 0.3435432078575545 0.3435432078575545
0.34706387384057164 0.34706387384057164 0.34706387384057164
0.35060587680786365 0.35060587680786365 0.35060587680786365
0.3541712413440443 0.3541712413440443 0.3541712413440443
0.35776215858561705 0.35776215858561705 0.35776215858561705
0.3613795698028355 0.3613795698028355 0.3613795698028355
0.36502099295432716 0.36502099295432716 0.36502099295432716
0.3686883226082584 0.3686883226082584 0.3686883226082584
0.37236952514669835 0.37236952514669835 0.37236952514669835
0.37606386460409863 0.37606386460409863 0.37606386460409863
0.37975527956092797 0.37975527956092797 0.37975527956092797
0.38343908183400083 0.38343908183400083 0.38343908183400083
0.38711032330228384 0.38711032330228384 0.38711032330228384
0.39076628428891214 0.39076628428891214 0.39076628428891214
0.3944056327657568 0.3944056327657568 0.3944056327657568
0.3980272268214128 0.3980272268214128 0.3980272268214128
0.4016321247836575 0.4016321247836575 0.4016321247836575
0.40522188158488354 0.40522188158488354 0.40522188158488354
0.40879818933189627 0.40879818933189627 0.40879818933189627
0.41236561338030797 0.41236561338030797 0.41236561338030797
0.41592603236944603 0.41592603236944603 0.41592603236944603
0.41947997927262703 0.41947997927262703 0.41947997927262703
0.4230274863393964 0.4230274863393964 0.4230274863393964
0.4265709550357646 0.4265709550357646 0.4265709550357646
0.430111771758144 0.430111771758144 0.430111771758144
0.4336489327519628 0.4336489327519628 0.4336489327519628
0.43718238877362553 0.43718238877362553 0.43718238877362553
0.4407105951131524 0.4407105951131524 0.4407105951131524
0.44423066205273665 0.44423066205273665 0.44423066205273665
0.44774153558651014 0.44774153558651014 0.44774153558651014
0.4512452702239766 0.4512452702239766 0.4512452702239766
0.4547416614670038 0.4547416614670038 0.4547416614670038
0.45823300338717615 0.45823300338717615 0.45823300338717615
0.4617196817669737 0.4617196817669737 0.4617196817669737
0.46520546009418934 0.46520546009418934 0.46520546009418934
0.46869257297606526 0.46869257297606526 0.46869257297606526
0.4721840316830515 0.4721840316830515 0.4721840316830515
0.47568359172741415 0.47568359172741415 0.47568359172741415
0.4791939592262237 0.4791939592262237 0.4791939592262237
0.48271568718869795 0.48271568718869795 0.48271568718869795
0.486251196458759 0.486251196458759 0.486251196458759
0.4897988952423303 0.4897988952423303 0.4897988952423303
0.4933564801727733 0.4933564801727733 0.4933564801727733
0.4969226252027154 0.4969226252027154 0.4969226252027154
0.5004974257680745 0.5004974257680745 0.5004974257680745
0.5040768320464604 0.5040768320464604 0.5040768320464604
0.5076560783268773 0.5076560783268773 0.5076560783268773
0.5112312362745323 0.5112312362745323 0.5112312362745323
0.514797422169337 0.514797422169337 0.514797422169337
0.5183506311390487 0.5183506311390487 0.5183506311390487
0.5218948586595473 0.5218948586595473 0.5218948586595473
0.5254302752957735 0.5254302752957735 0.5254302752957735
0.5289637352136364 0.5289637352136364 0.5289637352136364
0.5325031112746852 0.5325031112746852 0.5325031112746852
0.5360508376517845 0.5360508376517845 0.5360508376517845
0.539613641143495 0.539613641143495 0.539613641143495
0.5431915879723695 0.5431915879723695 0.5431915879723695
0.5467836525499082 0.5467836525499082 0.5467836525499082
0.5503877941742986 0.5503877941742986 0.5503877941742986
0.5539982274262448 0.5539982274262448 0.5539982274262448
0.5576091311407042 0.5576091311407042 0.5576091311407042
0.5612175003195269 0.5612175003195269 0.5612175003195269
0.5648168282685617 0.5648168282685617 0.5648168282685617
0.5684062271924568 0.5684062271924568 0.5684062271924568
0.5719798861467603 0.5719798861467603 0.5719798861467603
0.5755428407620717 0.5755428407620717 0.5755428407620717
0.5790979303685989 0.5790979303685989 0.5790979303685989
0.5826503000988155 0.5826503000988155 0.5826503000988155
0.586209490403955 0.586209490403955 0.586209490403955
0.589782839444085 0.589782839444085 0.589782839444085
0.5933785562581039 0.5933785562581039 0.5933785562581039
0.5970074793972486 0.5970074793972486 0.5970074793972486
0.6006739073869503 0.6006739073869503 0.6006739073869503
0.6043891405889263 0.6043891405889263 0.6043891405889263
0.608156158237688 0.608156158237688 0.608156158237688
0.6119852090739125 0.6119852090739125 0.6119852090739125
0.615878850280838 0.615878850280838 0.615878850280838
0.6198446412887312 0.6198446412887312 0.6198446412887312
0.6238846198061333 0.6238846198061333 0.6238846198061333
0.6280001608030882 0.6280001608030882 0.6280001608030882
0.6321927817279235 0.6321927817279235 0.6321927817279235
0.6364606621532372 0.6364606621532372 0.6364606621532372
0.6408053289655407 0.6408053289655407 0.6408053289655407
0.6452258486929214 0.6452258486929214 0.6452258486929214
0.6497196956772752 0.6497196956772752 0.6497196956772752
0.654283514662064 0.654283514662064 0.654283514662064
0.6589057573602295 0.6589057573602295 0.6589057573602295
0.6635811243787785 0.6635811243787785 0.6635811243787785
0.668276178837827 0.668276178837827 0.668276178837827
0.6729762426791472 0.6729762426791472 0.6729762426791472
0.677664559110789 0.677664559110789 0.677664559110789
0.6823334841597776 0.6823334841597776 0.6823334841597776
0.686977625298432 0.686977625298432 0.686977625298432
0.6915979996034052 0.6915979996034052 0.6915979996034052
0.6961966160857219 0.6961966160857219 0.6961966160857219
0.7007762761920169 0.7007762761920169 0.7007762761920169
0.7053494564200621 0.7053494564200621 0.7053494564200621
0.7099231459498625 0.7099231459498625 0.7099231459498625
0.714518938531707 0.714518938531707 0.714518938531707
0.7191416699406148 0.7191416699406148 0.7191416699406148
0.7238042084822933 0.7238042084822933 0.7238042084822933
0.7285114970264239 0.7285114970264239 0.7285114970264239
0.7332680740458367 0.7332680740458367 0.7332680740458367
0.7380805272274251 0.7380805272274251 0.7380805272274251
0.7429434975144272 0.7429434975144272 0.7429434975144272
0.7478570706712343 0.7478570706712343 0.7478570706712343
0.7528202693369559 0.7528202693369559 0.7528202693369559
0.7578370925489214 0.7578370925489214 0.7578370925489214
0.7628798094409981 0.7628798094409981 0.7628798094409981
0.7679306845655022 0.7679306845655022 0.7679306845655022
0.7729717640328181 0.7729717640328181 0.7729717640328181
0.7779818596891624 0.7779818596891624 0.7779818596891624
0.782951976726596 0.782951976726596 0.782951976726596
0.7878689299798155 0.7878689299798155 0.7878689299798155
0.792707458285847 0.792707458285847 0.792707458285847
0.7974648315795378 0.7974648315795378 0.7974648315795378
0.8021414393636678 0.8021414393636678 0.8021414393636678
0.80674504290177 0.80674504290177 0.80674504290177
0.81128269728496 0.81128269728496 0.81128269728496
0.8157678451754026 0.8157678451754026 0.8157678451754026
0.8202038736491243 0.8202038736491243 0.8202038736491243
0.8246099205413404 0.8246099205413404 0.8246099205413404
0.8289936193720205 0.8289936193720205 0.8289936193720205
0.8333717808325747 0.8333717808325747 0.8333717808325747
0.8377605640773875 0.8377605640773875 0.8377605640773875
0.8421778715290565 0.8421778715290565 0.8421778715290565
0.8466426345779756 0.8466426345779756 0.8466426345779756
0.8511697161531958 0.8511697161531958 0.8511697161531958
0.8557785493719139 0.8557785493719139 0.8557785493719139
0.860471575504889 0.860471575504889 0.860471575504889
0.8652615180517965 0.8652615180517965 0.8652615180517965
0.870123573228799 0.870123573228799 0.870123573228799
0.875028445401839 0.875028445401839 0.875028445401839
0.879947031596833 0.879947031596833 0.879947031596833
0.8848908494515161 0.8848908494515161 0.8848908494515161
0.8899246348706125 0.8899246348706125 0.8899246348706125
0.895015550378035 0.895015550378035 0.895015550378035
0.9001328560719988 0.9001328560719988 0.9001328560719988
0.9052939245765904 0.9052939245765904 0.9052939245765904
0.9104998888504658 0.9104998888504658 0.9104998888504658
0.9157449846149683 0.9157449846149683 0.9157449846149683
0.9210196189974864 0.9210196189974864 0.9210196189974864
0.9263077466237754 0.9263077466237754 0.9263077466237754
0.9316118818109045 0.9316118818109045 0.9316118818109045
0.9370353626256224 0.9370353626256224 0.9370353626256224
0.9428973824251387 0.9428973824251387 0.9428973824251387
0.9495597039126007 0.9495597039126007 0.9495597039126007
0.9578772670243656 0.9578772670243656 0.9578772670243656
0.9659456489279232 0.9659456489279232 0.9659456489279232
0.9714408261197137 0.9714408261197137 0.9714408261197137
0.9755731499386873 0.9755731499386873 0.9755731499386873
0.9791934338541014 0.9791934338541014 0.9791934338541014
0.9825578662962664 0.9825578662962664 0.9825578662962664
0.9859826734438767 0.9859826734438767 0.9859826734438767
0.9903191465444517 0.9903191465444517 0.9903191465444517
0.9961183998203148 0.9961183998203148 0.9961183998203148
1.0 1.0 1.0
0.0 0.0 0.0
0.012731205814327603 0.012731205814327603 0.012731205814327603
0.015490940731628811 0.015490940731628811 0.015490940731628811
0.01859730323603962 0.01859730323603962 0.01859730323603962
0.02183906029262918 0.02183906029262918 0.02183906029262918
0.025495709023753324 0.025495709023753324 0.025495709023753324
0.029554643865445228 0.029554643865445228 0.029554643865445228
0.033206877353505256 0.033206877353505256 0.033206877353505256
0.036377486539626656 0.036377486539626656 0.036377486539626656
0.03929833839040408 0.03929833839040408 0.03929833839040408
0.04187288341046715 0.04187288341046715 0.04187288341046715
0.04436451227981761 0.04436451227981761 0.04436451227981761
0.046776123643960416 0.046776123643960416 0.046776123643960416
0.04918461956495704 0.04918461956495704 0.04918461956495704
0.051598392762642505 0.051598392762642505 0.051598392762642505
0.05402885637888441 0.05402885637888441 0.05402885637888441
0.056554195996733 0.056554195996733 0.056554195996733
0.05915037696828355 0.05915037696828355 0.05915037696828355
0.06187610577901652 0.06187610577901652 0.06187610577901652
0.0647710157424914 0.0647710157424914 0.0647710157424914
0.06780980943141332 0.06780980943141332 0.06780980943141332
0.07096323928182338 0.07096323928182338 0.07096323928182338
0.07412337134689576 0.07412337134689576 0.07412337134689576
0.0773346427934038 0.0773346427934038 0.0773346427934038
0.0805919989107533 0.0805919989107533 0.0805919989107533
0.08390442804293029 0.08390442804293029 0.08390442804293029
0.08729195659094097 0.08729195659094097 0.08729195659094097
0.09078001964893138 0.09078001964893138 0.09078001964893138
0.09436420608615664 0.09436420608615664 0.09436420608615664
0.09805594544675846 0.09805594544675846 0.09805594544675846
0.10180673013185991 0.10180673013185991 0.10180673013185991
0.10547382677283451 0.10547382677283451 0.10547382677283451
0.10906535156627017 0.10906535156627017 0.10906535156627017
0.1125096970538182 0.1125096970538182 0.1125096970538182
0.11584928301587505 0.11584928301587505 0.11584928301587505
0.11914327994238973 0.11914327994238973 0.11914327994238973
0.1224263056003554 0.1224263056003554 0.1224263056003554
0.12570919499840694 0.12570919499840694 0.12570919499840694
0.12907649583306768 0.12907649583306768 0.12907649583306768
0.13249433694424564 0.13249433694424564 0.13249433694424564
0.13590751296465434 0.13590751296465434 0.13590751296465434
0.13931944718216602 0.13931944718216602 0.13931944718216602
0.14274340713811162 0.14274340713811162 0.14274340713811162
0.14618629864304622 0.14618629864304622 0.14618629864304622
0.14964566748137695 0.14964566748137695 0.14964566748137695
0.15311937996649447 0.15311937996649447 0.15311937996649447
0.15660894443961243 0.15660894443961243 0.15660894443961243
0.1601127974432642 0.1601127974432642 0.1601127974432642
0.1636301159538012 0.1636301159538012 0.1636301159538012
0.1671591925721196 0.1671591925721196 0.1671591925721196
0.17069969793628048 0.17069969793628048 0.17069969793628048
0.1742510229864383 0.1742510229864383 0.1742510229864383
0.17781215104170606 0.17781215104170606 0.17781215104170606
0.18138074716705294 0.18138074716705294 0.18138074716705294
0.18495266729416232 0.18495266729416232 0.18495266729416232
0.1885262636740902 0.1885262636740902 0.1885262636740902
0.19209162009343506 0.19209162009343506 0.19209162009343506
0.19564867278441903 0.19564867278441903 0.19564867278441903
0.19919153807859322 0.19919153807859322 0.19919153807859322
0.20272062343185715 0.20272062343185715 0.20272062343185715
0.20623375718680947 0.20623375718680947 0.20623375718680947
0.20973084619882926 0.20973084619882926 0.20973084619882926
0.21321456819456622 0.21321456819456622 0.21321456819456622
0.21668754980319205 0.21668754980319205 0.21668754980319205
0.22015176220393814 0.22015176220393814 0.22015176220393814
0.22361450046981182 0.22361450046981182 0.22361450046981182
0.22707524627762218 0.22707524627762218 0.22707524627762218
0.23054241440281792 0.23054241440281792 0.23054241440281792
0.23401566331596485 0.23401566331596485 0.23401566331596485
0.2374992683507097 0.2374992683507097 0.2374992683507097
0.24099483044471812 0.24099483044471812 0.24099483044471812
0.24450463450675972 0.24450463450675972 0.24450463450675972
0.24803175740804315 0.24803175740804315 0.24803175740804315
0.2515765384337722 0.2515765384337722 0.2515765384337722
0.2551394910578519 0.2551394910578519 0.2551394910578519
0.25872160045938947 0.25872160045938947 0.25872160045938947
0.2623179029414453 0.2623179029414453 0.2623179029414453
0.26592785574153266 0.26592785574153266 0.26592785574153266
0.269542902775773 0.269542902775773 0.269542902775773
0.2731618356337589 0.2731618356337589 0.2731618356337589
0.27677586206506394 0.27677586206506394 0.27677586206506394
0.2803808210313068 0.2803808210313068 0.2803808210313068
0.2839720703718877 0.2839720703718877 0.2839720703718877
0.287544930551873 0.287544930551873 0.287544930551873
0.2910992127939208 0.2910992127939208 0.2910992127939208
0.2946347341174565 0.2946347341174565 0.2946347341174565
0.29815140428531983 0.29815140428531983 0.29815140428531983
0.30165710652087496 0.30165710652087496 0.30165710652087496
0.3051525261897215 0.3051525261897215 0.3051525261897215
0.3086459686827586 0.3086459686827586 0.3086459686827586
0.3121390862110252 0.3121390862110252 0.3121390862110252
0.31563143366745555 0.31563143366745555 0.31563143366745555
0.319122707119142 0.319122707119142 0.319122707119142
0.32261232886977853 0.32261232886977853 0.32261232886977853
0.3260987778938538 0.3260987778938538 0.3260987778938538
0.3295816090702815 0.3295816090702815 0.3295816090702815
0.3330648678613013 0.3330648678613013 0.3330648678613013
0.33654746288453713 0.33654746288453713 0.33654746288453713
0.34003963325152947 0.34003963325152947 0.34003963325152947
0.3435432078575545 0.3435432078575545 0.3435432078575545
0.34706387384057164 0.34706387384057164 0.34706387384057164
0.35060587680786365 0.35060587680786365 0.35060587680786365
0.3541712413440443 0.3541712413440443 0.3541712413440443
0.35776215858561705 0.35776215858561705 0.35776215858561705
0.3613795698028355 0.3613795698028355 0.3613795698028355
0.36502099295432716 0.36502099295432716 0.36502099295432716
0.3686883226082584 0.3686883226082584 0.3686883226082584
0.37236952514669835 0.37236952514669835 0.37236952514669835
0.37606386460409863 0.37606386460409863 0.37606386460409863
0.37975527956092797 0.37975527956092797 0.37975527956092797
0.38343908183400083 0.38343908183400083 0.38343908183400083
0.38711032330228384 0.38711032330228384 0.38711032330228384
0.39076628428891214 0.39076628428891214 0.39076628428891214
0.3944056327657568 0.3944056327657568 0.3944056327657568
0.3980272268214128 0.3980272268214128 0.3980272268214128
0.4016321247836575 0.4016321247836575 0.4016321247836575
0.40522188158488354 0.40522188158488354 0.40522188158488354
0.40879818933189627 0.40879818933189627 0.40879818933189627
0.41236561338030797 0.41236561338030797 0.41236561338030797
0.41592603236944603 0.41592603236944603 0.41592603236944603
0.41947997927262703 0.41947997927262703 0.41947997927262703
0.4230274863393964 0.4230274863393964 0.4230274863393964
0.4265709550357646 0.4265709550357646 0.4265709550357646
0.430111771758144 0.430111771758144 0.430111771758144
0.4336489327519628 0.4336489327519628 0.4336489327519628
0.43718238877362553 0.43718238877362553 0.43718238877362553
0.4407105951131524 0.4407105951131524 0.4407105951131524
0.44423066205273665 0.44423066205273665 0.44423066205273665
0.44774153558651014 0.44774153558651014 0.44774153558651014
0.4512452702239766 0.4512452702239766 0.4512452702239766
0.4547416614670038 0.4547416614670038 0.4547416614670038
0.45823300338717615 0.45823300338717615 0.45823300338717615
0.4617196817669737 0.4617196817669737 0.4617196817669737
0.46520546009418934 0.46520546009418934 0.46520546009418934
0.46869257297606526 0.46869257297606526 0.46869257297606526
0.4721840316830515 0.4721840316830515 0.4721840316830515
0.47568359172741415 0.47568359172741415 0.47568359172741415
0.4791939592262237 0.4791939592262237 0.4791939592262237
0.48271568718869795 0.48271568718869795 0.48271568718869795
0.486251196458759 0.486251196458759 0.486251196458759
0.4897988952423303 0.4897988952423303 0.4897988952423303
0.4933564801727733 0.4933564801727733 0.4933564801727733
0.4969226252027154 0.4969226252027154 0.4969226252027154
0.5004974257680745 0.5004974257680745 0.5004974257680745
0.5040768320464604 0.5040768320464604 0.5040768320464604
0.5076560783268773 0.5076560783268773 0.5076560783268773
0.5112312362745323 0.5112312362745323 0.5112312362745323
0.514797422169337 0.514797422169337 0.514797422169337
0.5183506311390487 0.5183506311390487 0.5183506311390487
0.5218948586595473 0.5218948586595473 0.5218948586595473
0.5254302752957735 0.5254302752957735 0.5254302752957735
0.5289637352136364 0.5289637352136364 0.5289637352136364
0.5325031112746852 0.5325031112746852 0.5325031112746852
0.5360508376517845 0.5360508376517845 0.5360508376517845
0.539613641143495 0.539613641143495 0.539613641143495
