obsidian/Clippings/写真家活動/技法探求/デジタルネガ探究/QTR/プロファイル作成/QTR-DN/QTR-DN/古い/QUAD1/PtPd-K30-xf1lux-start-20260414-v7-softproof.cube
#Color Lookup Table 
TITLE "QuadToneProfiler Color Lookup Table for 256-step Soft Proof
LUT_1D_SIZE 256
DOMAIN_MIN 0.0 0.0 0.0
DOMAIN_MAX 1.0 1.0 1.0
0.2387519514825639 0.2564669592978826 0.25035005494756296
0.23998032597355157 0.25926644629327333 0.2551494363079176
0.24380248470287158 0.26121004437296297 0.2571459986598261
0.2467823292496895 0.26339117674914087 0.2592169048896165
0.2492411362698007 0.2657195170893583 0.26137333982241456
0.2516316800363762 0.26807427400373823 0.2635052418035952
0.25391617572601516 0.2704706476392122 0.26556089764285973
0.25622700952374594 0.27287172916295366 0.2675244078452129
0.25867446571104674 0.2752637529221184 0.26917574104270825
0.2611170304878712 0.27767181640463956 0.2707033686453223
0.26341132009966445 0.2801038511819652 0.27251540490656084
0.26580881709953014 0.28249539641545546 0.2745134568889749
0.26830289373596045 0.284867817790784 0.2764594051253376
0.27084846064534807 0.28723224954991006 0.27837545225072297
0.2734231714826914 0.28959272240912465 0.2802907319717488
0.2760191101380638 0.2919497992961631 0.28222602789302814
0.2786186601453668 0.2943093270524208 0.28417206134147505
0.2812094853069059 0.2966752310781143 0.2861245885623563
0.28381273243634547 0.2990404792250698 0.2880942577538847
0.286440695663914 0.3014016342988298 0.2900788655819385
0.2891119875331585 0.3037530936732563 0.2920798241271581
0.29182388455218067 0.30609594811991225 0.29409263540578917
0.2945549909224469 0.3084360932622099 0.2961212618035917
0.297289834988418 0.3107770836200064 0.29817767130810857
0.30001763412736615 0.3131221943988849 0.30026057367676184
0.3027365423516797 0.3154725891820999 0.3023623707573104
0.3054265203960907 0.31783616621587046 0.30445867587110254
0.3081093008364831 0.320205406230967 0.3065632808493792
0.31079151645586856 0.3225777716437938 0.30868328047968574
0.3134717870217836 0.3249537821037343 0.3108172181866595
0.3161499998762062 0.32733366137139985 0.3129626427975766
0.3188254616560148 0.3297177141072151 0.3151182479227046
0.3214996095739326 0.3321057418137692 0.3172810756521508
0.32417249742303245 0.33449784518717834 0.3194495600060068
0.32684513119182074 0.3368938162457442 0.3216224259932239
0.32951834492791904 0.3392934773162826 0.3237986417720349
0.3321923672957641 0.3416967614805143 0.32597804481619946
0.3348683625065714 0.34410336688936627 0.32815989163969145
0.3375459091376105 0.34651332814347935 0.33034517531052127
0.3402263395768508 0.34892632994520584 0.33253266706220813
0.34290935593731553 0.35134246746892056 0.3347221274541224
0.3455949206892113 0.3537618457586045 0.33691221334229465
0.34828280497866976 0.35618459746838527 0.33910195939035587
0.35097152647018215 0.3586112400176733 0.3412903304811576
0.3536611862113823 0.36104177188802405 0.3434768127833315
0.3563506448900422 0.3634764977024666 0.34566176551904165
0.3590390145196127 0.36591557794523094 0.3478464203027939
0.36172499320503115 0.36835931011011147 0.3500318809291056
0.3644065630301635 0.3708080086785869 0.35222179620099314
0.36708299061351046 0.3732617026351089 0.35441852363073767
0.369752663401336 0.37572067179073376 0.35662464241373537
0.37241267067632317 0.3781856095002966 0.35884252260608307
0.375064744462776 0.38065608922123956 0.3610708413742475
0.3777088770023854 0.38313212253697404 0.36330941408207684
0.38034513705889045 0.38561376071610043 0.3655572532467032
0.3829715609054102 0.3881015557035813 0.3678148769581733
0.38559091674002066 0.3905947977691005 0.3700804905570091
0.388204306653304 0.3930931551843464 0.3723539275553427
0.39081358560968904 0.39559606896553545 0.37463497243647736
0.393421731232614 0.3981026963989043 0.37692264036599454
0.3960293519217676 0.4006127903580147 0.3792175625189037
0.3986395480695419 0.40312554522435057 0.3815177818616446
0.40125325577664606 0.405640663919435 0.3838232734790996
0.4038728468170905 0.40815748800606977 0.3861330148627215
0.40649899358594965 0.4106759157553534 0.38844551396787136
0.4091334074709921 0.4131955231736981 0.39075932112957334
0.41177525590618674 0.4157166217792705 0.3930735416386699
0.41442483618933745 0.41823910110464296 0.3953882403502589
0.41708029001869307 0.42076340629992853 0.3977048262362296
0.4197408888523782 0.4232895952259329 0.4000252349212924
0.42240618818078357 0.42581753708728126 0.4023526963301151
0.42507408409278136 0.4283476925356492 0.40468941530185604
0.42774419809832 0.4308799652239292 0.4070379486209761
0.43041455813944335 0.4334149833096406 0.40939788497852675
0.4330844933305293 0.43595287355866397 0.4117701068405344
0.43575246017214453 0.43849405713390127 0.4141551748635895
0.4384187690376516 0.44103859497819525 0.4165509813901879
0.4410814924500313 0.4435869123197639 0.4189595462683182
0.4437426449482258 0.44613870219073465 0.4213767663309693
0.4463994249152861 0.44869457298148413 0.42380576116330226
0.4490555271969147 0.4512537720814324 0.4262415001615992
0.45170809871266454 0.4538169476321336 0.42868680179179114
0.45436096736128145 0.4563832493089129 0.43113734225959605
0.4570119070081669 0.4589532303995469 0.43359468972059884
0.45966416402048466 0.46152603697856626 0.43605683367150816
0.4623176083853668 0.46410156207720193 0.4385255077404187
0.4649731244811344 0.46667966496355057 0.4409988970155499
0.46763148579283714 0.4692599742034855 0.4434785479145966
0.4702927090464423 0.4718425884883995 0.4459630060049116
0.4729574649058144 0.47442729456196425 0.44845221149931297
0.4756260125614999 0.47701401568017404 0.4509459852519356
0.47829830651401867 0.4796028897040954 0.4534426207213262
0.4809755011355881 0.4821935273507721 0.45594239175503476
0.48365600339606135 0.4847865200876788 0.4584439114640411
0.48634157712216103 0.48738146258154275 0.4609452654907195
0.48902992676397133 0.4899789443464629 0.4634478557100548
0.49172052300992236 0.4925795605577749 0.4659460846028339
0.49441345096682005 0.4951828830690959 0.4684449235002521
0.4971067204326523 0.49778990607342827 0.4709394586910138
0.4998013551099419 0.5004000112813108 0.4734333900133873
0.5024962672161281 0.5030136171315186 0.47592556569140404
0.5051916628392368 0.5056305950842045 0.47841668798674913
0.5078880434755053 0.508250601108611 0.4809090300550863
0.5105843879752671 0.5108740349880123 0.48340141961262656
0.5132825485782649 0.5135001230439283 0.48589626671700864
0.5159800799859954 0.5161296606394209 0.48839298621770594
0.5186799955230436 0.5187616733776463 0.490891964731523
0.5213782426735041 0.5213973857547807 0.49339350349111727
0.5240785703933563 0.524035666158347 0.49589708652271575
0.5267766479585481 0.5266778760797334 0.49840237934792914
0.529475186927253 0.5293231488288433 0.5009095881627661
0.5321722295595497 0.5319720462915744 0.5034191829149037
0.5348678027807894 0.5346245420646714 0.5059312823338591
0.537563855384762 0.5372799363861839 0.5084469758622814
0.5402580105420104 0.5399388358222971 0.5109678212133726
0.542954113967623 0.5426001922526836 0.5134918530258994
0.545649586873352 0.5452644444308309 0.5160235544331202
0.5483472992247138 0.5479310796087538 0.5185580114500694
0.5510459361870319 0.5506000179357701 0.5211013070956595
0.5537466811464381 0.5532713037905405 0.5236481053550033
0.5564495533363072 0.5559445554870065 0.5262030620274238
0.5591546592442703 0.5586199390492514 0.5287635421381175
0.5618625592188571 0.5612972333769165 0.5313300327068537
0.5645734756732934 0.5639762652824533 0.5339037448553403
0.5672872097871159 0.5666573445705675 0.5364814248129389
0.5700052174982065 0.569339649477795 0.539067647641781
0.5727258358947392 0.5720241376222124 0.5416567160278
0.5754522696404631 0.5747093239113693 0.5442547229512762
0.5781817477588336 0.5773965008973038 0.5468560933565269
0.5809167237395627 0.5800845865702607 0.549464768214361
0.5836558161271743 0.58277418619073 0.5520784120389803
0.5863991257726378 0.5854652462560208 0.5546971996385655
0.5891468078284064 0.5881576867840034 0.5573214275276113
0.5918977874415122 0.5908519423391687 0.5599497204681675
0.5946529366583361 0.5935475545210404 0.5625843458364275
0.597410887837523 0.5962451909345657 0.5652221328876983
0.60017296014894 0.5989441719219714 0.5678663896030227
0.6029377757721566 0.6016451920788777 0.5705136469373342
0.6057057420780365 0.6043479459061457 0.5731660677100274
0.6084764334571481 0.6070527036428427 0.575821807974785
0.6112499009616699 0.6097593638701593 0.5784818515967647
0.6140260659113898 0.6124679950519033 0.5811455439455009
0.6168045295055726 0.6151786771727694 0.5838133467290396
0.6195851486143664 0.6178914222315429 0.5864855754486629
0.6223680722014735 0.6206062127635138 0.5891617683423347
0.6251532026814307 0.62332297145111 0.5918431917840844
0.6279407301752298 0.6260417337072733 0.5945285540938087
0.6307307880871128 0.6287622455796589 0.5972204446525786
0.6335232601238804 0.6314847362806846 0.5999163297321392
0.6363188893877495 0.6342085856922557 0.602621023213336
0.639116965926272 0.6369343386713389 0.605330341815668
0.6419185022984605 0.6396612480941243 0.6080496397115625
0.6447226198951985 0.6423899271770047 0.6107745366110666
0.6475297780354721 0.6451198151263007 0.6135102084521724
0.6503395312443974 0.6478512873232694 0.6162535748938365
0.653152409556782 0.6505840154722943 0.6190065970568737
0.6559683950932601 0.6533180428587694 0.6217687031640075
0.6587875057644329 0.6560535155271077 0.6245378865511843
0.6616103414705781 0.6587901969149957 0.6273146756649722
0.6644362517768854 0.6615284868607125 0.6300964967922454
0.6672666805695722 0.6642679568216497 0.6328829802791794
0.6701005225773088 0.6670090357399199 0.6356729781328566
0.6729384795723501 0.669751579455594 0.6384654583765277
0.6757799076719079 0.6724957908567198 0.6412603097970149
0.6786247797208694 0.6752417174424028 0.6440569550362217
0.6814728947005452 0.6779894260329171 0.6468552578467623
0.6843239698229558 0.6807390069179872 0.6496551092308114
0.687177903613366 0.6834905108410341 0.6524561864921308
0.6900345326946319 0.6862439525486145 0.655258862983268
0.692894146010178 0.6889991895934042 0.6580637106207199
0.6957565874393228 0.6917562597204602 0.6608707853018787
0.6986209472005824 0.6945153951436671 0.6636806607392091
0.7014873330001302 0.6972765613093903 0.6664932671574907
0.7043542522240758 0.7000401500167198 0.6693094660669064
0.7072214353479569 0.7028062277238173 0.6721294034745592
0.7100881285152559 0.7055749772275967 0.6749536673767654
0.7129536338115942 0.708346569902409 0.6777827707534078
0.715817702137531 0.7111210798356313 0.6806166867118226
0.7186791004313757 0.71389884923252 0.6834558883894677
0.7215382434700095 0.7166797669939289 0.686300067170184
0.7243945735877695 0.7194639839884799 0.689149445662275
0.7272481549723452 0.7222514797179436 0.6920039546798366
0.7300999210789427 0.7250419623030645 0.694863514233573
0.7329500949741588 0.7278353703960156 0.6977279425779392
0.7357991177581598 0.7306316061598734 0.7005966607164636
0.7386470224664238 0.7334306593540846 0.7034695922545947
0.7414939804641972 0.7362325211364109 0.7063461026121948
0.744340023243575 0.7390372130627529 0.7092257254618225
0.7471852720910025 0.7418446904154993 0.7121084710486695
0.7500304376594863 0.7446547348312373 0.7149942127232367
0.7528751208732611 0.7474674510469766 0.7178831299171987
0.7557206264768838 0.7502824667504682 0.720774695295037
0.7585668035346672 0.7530998206397848 0.7236689431036897
0.7614143671324062 0.7559193235346754 0.7265653669132646
0.7642633597254265 0.7587409718846796 0.7294637736166394
0.7671138705663147 0.7615647199839656 0.7323643128832594
0.7699659677340785 0.764390529107223 0.7352671301903212
0.7728196229362073 0.767218405811164 0.7381721834683318
0.7756750495985335 0.7700482780359328 0.7410794669033867
0.7785321448605307 0.7728801806498151 0.7439888776201145
0.7813909564008529 0.7757141215671874 0.7469000620323252
0.7842513421175819 0.7785501642509781 0.7498127159136124
0.7871135739139808 0.7813881921354527 0.752727160618104
0.7899776387631898 0.7842282136318359 0.7556432741104601
0.7928437555907155 0.7870700986883853 0.7585617513872258
0.7957121474571152 0.7899137135182651 0.7614833171754594
0.7985828740081449 0.7927590051717975 0.7644083280075706
0.8014560451680424 0.7956058790573742 0.7673374613316718
0.8043317351362862 0.7984542388409085 0.7702715544351406
0.8072092304773338 0.8013043743795858 0.7732097162744088
0.8100884579099268 0.8041561013852482 0.7761544466214682
0.8129691928075191 0.8070097150101591 0.7791028915504654
0.8158510689643668 0.8098651417016524 0.7820573156114028
0.8187342813591524 0.8127224939731268 0.7850155010679633
0.8216184550451405 0.8155818176955362 0.7879782677502291
0.8245014270580414 0.8184438889526936 0.7909443328412422
0.8273783223877837 0.8213104588354474 0.7939108674428088
0.830244146126721 0.8241831601305469 0.7968769711532709
0.8331115079334726 0.8270579539639265 0.7998436637143118
0.8359795161144707 0.8299351825243277 0.8028101069873267
0.8388512136241552 0.8328138788383708 0.8057764076192616
0.8417301244867513 0.8356932244212706 0.8087389797291725
0.84461630286727 0.8385731832595374 0.8116980027375214
0.847510392705134 0.8414536411267751 0.8146523403291238
0.8504195854827684 0.8443331455584574 0.8175920594414399
0.8533335709013212 0.8472137451260997 0.8205316836499983
0.8562593141998287 0.8500939901315181 0.8234621180870974
0.8591880587005722 0.8529756918495455 0.8263948008882022
0.8621239415245187 0.8558573368884645 0.8293323468662958
0.8650625490002404 0.8587399817267645 0.8322787151411606
0.868007457582928 0.8616205202069971 0.8352583034435576
0.8709568254632235 0.8645005709326141 0.8382581946558334
0.8739127809483334 0.8673786475369912 0.8412883978272406
0.8768786325269416 0.8702522940519793 0.8443662814813034
0.8798478935008824 0.8731268542225192 0.8474509961951566
0.8828335585361431 0.875994855193285 0.8505842639587917
0.8858220792151634 0.8788644987540631 0.8537173510375591
0.8888153185787185 0.8817358349997357 0.8568424101495022
0.8918177065191599 0.8846075631551373 0.8599583048157703
0.894821484055242 0.8874824625812752 0.8630607462964985
0.8978360384058763 0.8903581624997315 0.8661426508072885
0.9008684878473082 0.8932335666259704 0.8691900235706325
0.9039001757589104 0.8961116439412247 0.8722382046253137
0.9069299523658725 0.8989927126201958 0.8752876696670466
0.9099397621958842 0.9018825675172633 0.8783368376721796
0.9129527032334152 0.9047731062941878 0.88139608028097
0.9159688184751922 0.907664285208086 0.884465701427268
0.9189624035931012 0.91055560329933 0.8876505426021827
0.9219490030660582 0.913449706198087 0.8908583584131419
0.9247746433119757 0.9163986024147175 0.8940446000851051
0.9274128561892362 0.9194115962837268 0.8971966884090874
0.9301973865074898 0.922372680570845 0.9004514057761897
0.9331057421984392 0.9252901375739297 0.9037940834578541
0.9359523947782966 0.9282288321224474 0.9071435595828896
0.9381777383177896 0.9313508559067605 0.910662329803503
0.9398652949834891 0.9346080702554698 0.9146089580795213
0.2387519514825639 0.2564669592978826 0.25035005494756296
0.23998032597355157 0.25926644629327333 0.2551494363079176
0.24380248470287158 0.26121004437296297 0.2571459986598261
0.2467823292496895 0.26339117674914087 0.2592169048896165
0.2492411362698007 0.2657195170893583 0.26137333982241456
0.2516316800363762 0.26807427400373823 0.2635052418035952
0.25391617572601516 0.2704706476392122 0.26556089764285973
0.25622700952374594 0.27287172916295366 0.2675244078452129
0.25867446571104674 0.2752637529221184 0.26917574104270825
0.2611170304878712 0.27767181640463956 0.2707033686453223
0.26341132009966445 0.2801038511819652 0.27251540490656084
0.26580881709953014 0.28249539641545546 0.2745134568889749
0.26830289373596045 0.284867817790784 0.2764594051253376
0.27084846064534807 0.28723224954991006 0.27837545225072297
0.2734231714826914 0.28959272240912465 0.2802907319717488
0.2760191101380638 0.2919497992961631 0.28222602789302814
0.2786186601453668 0.2943093270524208 0.28417206134147505
0.2812094853069059 0.2966752310781143 0.2861245885623563
0.28381273243634547 0.2990404792250698 0.2880942577538847
0.286440695663914 0.3014016342988298 0.2900788655819385
0.2891119875331585 0.3037530936732563 0.2920798241271581
0.29182388455218067 0.30609594811991225 0.29409263540578917
0.2945549909224469 0.3084360932622099 0.2961212618035917
0.297289834988418 0.3107770836200064 0.29817767130810857
0.30001763412736615 0.3131221943988849 0.30026057367676184
0.3027365423516797 0.3154725891820999 0.3023623707573104
0.3054265203960907 0.31783616621587046 0.30445867587110254
0.3081093008364831 0.320205406230967 0.3065632808493792
0.31079151645586856 0.3225777716437938 0.30868328047968574
0.3134717870217836 0.3249537821037343 0.3108172181866595
0.3161499998762062 0.32733366137139985 0.3129626427975766
0.3188254616560148 0.3297177141072151 0.3151182479227046
0.3214996095739326 0.3321057418137692 0.3172810756521508
0.32417249742303245 0.33449784518717834 0.3194495600060068
0.32684513119182074 0.3368938162457442 0.3216224259932239
0.32951834492791904 0.3392934773162826 0.3237986417720349
0.3321923672957641 0.3416967614805143 0.32597804481619946
0.3348683625065714 0.34410336688936627 0.32815989163969145
0.3375459091376105 0.34651332814347935 0.33034517531052127
0.3402263395768508 0.34892632994520584 0.33253266706220813
0.34290935593731553 0.35134246746892056 0.3347221274541224
0.3455949206892113 0.3537618457586045 0.33691221334229465
0.34828280497866976 0.35618459746838527 0.33910195939035587
0.35097152647018215 0.3586112400176733 0.3412903304811576
0.3536611862113823 0.36104177188802405 0.3434768127833315
0.3563506448900422 0.3634764977024666 0.34566176551904165
0.3590390145196127 0.36591557794523094 0.3478464203027939
0.36172499320503115 0.36835931011011147 0.3500318809291056
0.3644065630301635 0.3708080086785869 0.35222179620099314
0.36708299061351046 0.3732617026351089 0.35441852363073767
0.369752663401336 0.37572067179073376 0.35662464241373537
0.37241267067632317 0.3781856095002966 0.35884252260608307
0.375064744462776 0.38065608922123956 0.3610708413742475
0.3777088770023854 0.38313212253697404 0.36330941408207684
0.38034513705889045 0.38561376071610043 0.3655572532467032
0.3829715609054102 0.3881015557035813 0.3678148769581733
0.38559091674002066 0.3905947977691005 0.3700804905570091
0.388204306653304 0.3930931551843464 0.3723539275553427
0.39081358560968904 0.39559606896553545 0.37463497243647736
0.393421731232614 0.3981026963989043 0.37692264036599454
0.3960293519217676 0.4006127903580147 0.3792175625189037
0.3986395480695419 0.40312554522435057 0.3815177818616446
0.40125325577664606 0.405640663919435 0.3838232734790996
0.4038728468170905 0.40815748800606977 0.3861330148627215
0.40649899358594965 0.4106759157553534 0.38844551396787136
0.4091334074709921 0.4131955231736981 0.39075932112957334
0.41177525590618674 0.4157166217792705 0.3930735416386699
0.41442483618933745 0.41823910110464296 0.3953882403502589
0.41708029001869307 0.42076340629992853 0.3977048262362296
0.4197408888523782 0.4232895952259329 0.4000252349212924
0.42240618818078357 0.42581753708728126 0.4023526963301151
0.42507408409278136 0.4283476925356492 0.40468941530185604
0.42774419809832 0.4308799652239292 0.4070379486209761
0.43041455813944335 0.4334149833096406 0.40939788497852675
0.4330844933305293 0.43595287355866397 0.4117701068405344
0.43575246017214453 0.43849405713390127 0.4141551748635895
0.4384187690376516 0.44103859497819525 0.4165509813901879
0.4410814924500313 0.4435869123197639 0.4189595462683182
0.4437426449482258 0.44613870219073465 0.4213767663309693
0.4463994249152861 0.44869457298148413 0.42380576116330226
0.4490555271969147 0.4512537720814324 0.4262415001615992
0.45170809871266454 0.4538169476321336 0.42868680179179114
0.45436096736128145 0.4563832493089129 0.43113734225959605
0.4570119070081669 0.4589532303995469 0.43359468972059884
0.45966416402048466 0.46152603697856626 0.43605683367150816
0.4623176083853668 0.46410156207720193 0.4385255077404187
0.4649731244811344 0.46667966496355057 0.4409988970155499
0.46763148579283714 0.4692599742034855 0.4434785479145966
0.4702927090464423 0.4718425884883995 0.4459630060049116
0.4729574649058144 0.47442729456196425 0.44845221149931297
0.4756260125614999 0.47701401568017404 0.4509459852519356
0.47829830651401867 0.4796028897040954 0.4534426207213262
0.4809755011355881 0.4821935273507721 0.45594239175503476
0.48365600339606135 0.4847865200876788 0.4584439114640411
0.48634157712216103 0.48738146258154275 0.4609452654907195
0.48902992676397133 0.4899789443464629 0.4634478557100548
0.49172052300992236 0.4925795605577749 0.4659460846028339
0.49441345096682005 0.4951828830690959 0.4684449235002521
0.4971067204326523 0.49778990607342827 0.4709394586910138
0.4998013551099419 0.5004000112813108 0.4734333900133873
0.5024962672161281 0.5030136171315186 0.47592556569140404
0.5051916628392368 0.5056305950842045 0.47841668798674913
0.5078880434755053 0.508250601108611 0.4809090300550863
0.5105843879752671 0.5108740349880123 0.48340141961262656
0.5132825485782649 0.5135001230439283 0.48589626671700864
0.5159800799859954 0.5161296606394209 0.48839298621770594
0.5186799955230436 0.5187616733776463 0.490891964731523
0.5213782426735041 0.5213973857547807 0.49339350349111727
0.5240785703933563 0.524035666158347 0.49589708652271575
0.5267766479585481 0.5266778760797334 0.49840237934792914
0.529475186927253 0.5293231488288433 0.5009095881627661
0.5321722295595497 0.5319720462915744 0.5034191829149037
0.5348678027807894 0.5346245420646714 0.5059312823338591
0.537563855384762 0.5372799363861839 0.5084469758622814
0.5402580105420104 0.5399388358222971 0.5109678212133726
0.542954113967623 0.5426001922526836 0.5134918530258994
0.545649586873352 0.5452644444308309 0.5160235544331202
0.5483472992247138 0.5479310796087538 0.5185580114500694
0.5510459361870319 0.5506000179357701 0.5211013070956595
0.5537466811464381 0.5532713037905405 0.5236481053550033
0.5564495533363072 0.5559445554870065 0.5262030620274238
0.5591546592442703 0.5586199390492514 0.5287635421381175
0.5618625592188571 0.5612972333769165 0.5313300327068537
0.5645734756732934 0.5639762652824533 0.5339037448553403
0.5672872097871159 0.5666573445705675 0.5364814248129389
0.5700052174982065 0.569339649477795 0.539067647641781
0.5727258358947392 0.5720241376222124 0.5416567160278
0.5754522696404631 0.5747093239113693 0.5442547229512762
0.5781817477588336 0.5773965008973038 0.5468560933565269
0.5809167237395627 0.5800845865702607 0.549464768214361
0.5836558161271743 0.58277418619073 0.5520784120389803
0.5863991257726378 0.5854652462560208 0.5546971996385655
0.5891468078284064 0.5881576867840034 0.5573214275276113
0.5918977874415122 0.5908519423391687 0.5599497204681675
0.5946529366583361 0.5935475545210404 0.5625843458364275
0.597410887837523 0.5962451909345657 0.5652221328876983
0.60017296014894 0.5989441719219714 0.5678663896030227
0.6029377757721566 0.6016451920788777 0.5705136469373342
0.6057057420780365 0.6043479459061457 0.5731660677100274
0.6084764334571481 0.6070527036428427 0.575821807974785
0.6112499009616699 0.6097593638701593 0.5784818515967647
0.6140260659113898 0.6124679950519033 0.5811455439455009
0.6168045295055726 0.6151786771727694 0.5838133467290396
0.6195851486143664 0.6178914222315429 0.5864855754486629
0.6223680722014735 0.6206062127635138 0.5891617683423347
0.6251532026814307 0.62332297145111 0.5918431917840844
0.6279407301752298 0.6260417337072733 0.5945285540938087
0.6307307880871128 0.6287622455796589 0.5972204446525786
0.6335232601238804 0.6314847362806846 0.5999163297321392
0.6363188893877495 0.6342085856922557 0.602621023213336
0.639116965926272 0.6369343386713389 0.605330341815668
0.6419185022984605 0.6396612480941243 0.6080496397115625
0.6447226198951985 0.6423899271770047 0.6107745366110666
0.6475297780354721 0.6451198151263007 0.6135102084521724
0.6503395312443974 0.6478512873232694 0.6162535748938365
0.653152409556782 0.6505840154722943 0.6190065970568737
0.6559683950932601 0.6533180428587694 0.6217687031640075
0.6587875057644329 0.6560535155271077 0.6245378865511843
0.6616103414705781 0.6587901969149957 0.6273146756649722
