obsidian/Clippings/写真家活動/技法探求/デジタルネガ探究/QTR/プロファイル作成/QTR-DN/QTR-DN/古い/QUAD1/Untitled9-2.cube
#Color Lookup Table 
TITLE "QuadToneProfiler Color Lookup Table for 256-step Linearity Correction
LUT_1D_SIZE 256
DOMAIN_MIN 0.0 0.0 0.0
DOMAIN_MAX 1.0 1.0 1.0
0.0 0.0 0.0
0.0018544281591288598 0.0018544281591288598 0.0018544281591288598
0.003708856318257818 0.003708856318257818 0.003708856318257818
0.004734683542248739 0.004734683542248739 0.004734683542248739
0.005653151372517764 0.005653151372517764 0.005653151372517764
0.00657161920278674 0.00657161920278674 0.00657161920278674
0.007490087033055766 0.007490087033055766 0.007490087033055766
0.008302746223697546 0.008302746223697546 0.008302746223697546
0.009049337850936364 0.009049337850936364 0.009049337850936364
0.00979592947817518 0.00979592947817518 0.00979592947817518
0.010542521105414036 0.010542521105414036 0.010542521105414036
0.011289112732652852 0.011289112732652852 0.011289112732652852
0.012022274753411171 0.012022274753411171 0.012022274753411171
0.012731868269640128 0.012731868269640128 0.012731868269640128
0.013441461785869122 0.013441461785869122 0.013441461785869122
0.014151055302098078 0.014151055302098078 0.014151055302098078
0.014860648818327033 0.014860648818327033 0.014860648818327033
0.01557024233455599 0.01557024233455599 0.01557024233455599
0.016449201168345803 0.016449201168345803 0.016449201168345803
0.017361268334588047 0.017361268334588047 0.017361268334588047
0.018273335500830337 0.018273335500830337 0.018273335500830337
0.01918540266707258 0.01918540266707258 0.01918540266707258
0.02015453738026986 0.02015453738026986 0.02015453738026986
0.021172908872347435 0.021172908872347435 0.021172908872347435
0.02219128036442501 0.02219128036442501 0.02219128036442501
0.023209651856502585 0.023209651856502585 0.023209651856502585
0.024227919723146883 0.024227919723146883 0.024227919723146883
0.025246140159631347 0.025246140159631347 0.025246140159631347
0.026264360596115862 0.026264360596115862 0.026264360596115862
0.027282581032600325 0.027282581032600325 0.027282581032600325
0.028367695261443688 0.028367695261443688 0.028367695261443688
0.029466065070899633 0.029466065070899633 0.029466065070899633
0.030564434880355585 0.030564434880355585 0.030564434880355585
0.0317186148885006 0.0317186148885006 0.0317186148885006
0.03302817863348522 0.03302817863348522 0.03302817863348522
0.03433774237846978 0.03433774237846978 0.03433774237846978
0.035681557301129534 0.035681557301129534 0.035681557301129534
0.03711811867911765 0.03711811867911765 0.03711811867911765
0.038554680057105835 0.038554680057105835 0.038554680057105835
0.039967637000821996 0.039967637000821996 0.039967637000821996
0.041360475868345715 0.041360475868345715 0.041360475868345715
0.04275331473586944 0.04275331473586944 0.04275331473586944
0.04416028962272674 0.04416028962272674 0.04416028962272674
0.045572644024497656 0.045572644024497656 0.045572644024497656
0.04698499842626865 0.04698499842626865 0.04698499842626865
0.04842452438413151 0.04842452438413151 0.04842452438413151
0.049865548959120785 0.049865548959120785 0.049865548959120785
0.051317503568327594 0.051317503568327594 0.051317503568327594
0.05280681553496981 0.05280681553496981 0.05280681553496981
0.05429612750161202 0.05429612750161202 0.05429612750161202
0.05584485628648889 0.05584485628648889 0.05584485628648889
0.05743432933231171 0.05743432933231171 0.05743432933231171
0.05903393599779159 0.05903393599779159 0.05903393599779159
0.060703834852416004 0.060703834852416004 0.060703834852416004
0.0623737337070405 0.0623737337070405 0.0623737337070405
0.06409229995432912 0.06409229995432912 0.06409229995432912
0.06582478445597523 0.06582478445597523 0.06582478445597523
0.0675829734172925 0.0675829734172925 0.0675829734172925
0.06936546068499463 0.06936546068499463 0.06936546068499463
0.07114866830360861 0.07114866830360861 0.07114866830360861
0.07293344963471832 0.07293344963471832 0.07293344963471832
0.07471975119555915 0.07471975119555915 0.07471975119555915
0.07651755040375328 0.07651755040375328 0.07651755040375328
0.07831534961194732 0.07831534961194732 0.07831534961194732
0.0801257290276075 0.0801257290276075 0.0801257290276075
0.08193697633077703 0.08193697633077703 0.08193697633077703
0.08375015911969232 0.08375015911969232 0.08375015911969232
0.08556391892011173 0.08556391892011173 0.08556391892011173
0.08735723827628197 0.08735723827628197 0.08735723827628197
0.08913739120514813 0.08913739120514813 0.08913739120514813
0.09091596663952925 0.09091596663952925 0.09091596663952925
0.09269222724001763 0.09269222724001763 0.09269222724001763
0.09447791257892185 0.09447791257892185 0.09447791257892185
0.09630188938685257 0.09630188938685257 0.09630188938685257
0.09812775532267036 0.09812775532267036 0.09812775532267036
0.09999149791515714 0.09999149791515714 0.09999149791515714
0.10185524050764401 0.10185524050764401 0.10185524050764401
0.10376166803409813 0.10376166803409813 0.10376166803409813
0.10567065791608808 0.10567065791608808 0.10567065791608808
0.1076258547911256 0.1076258547911256 0.1076258547911256
0.10958681483130367 0.10958681483130367 0.10958681483130367
0.11161021014478192 0.11161021014478192 0.11161021014478192
0.11364137854241706 0.11364137854241706 0.11364137854241706
0.11574540393028764 0.11574540393028764 0.11574540393028764
0.11786202954739201 0.11786202954739201 0.11786202954739201
0.12006612231389888 0.12006612231389888 0.12006612231389888
0.12230268180394312 0.12230268180394312 0.12230268180394312
0.12460877133820836 0.12460877133820836 0.12460877133820836
0.1269846983664302 0.1269846983664302 0.1269846983664302
0.12940383309882633 0.12940383309882633 0.12940383309882633
0.13193990407753253 0.13193990407753253 0.13193990407753253
0.13452499304680876 0.13452499304680876 0.13452499304680876
0.13716936945446995 0.13716936945446995 0.13716936945446995
0.13991979118629413 0.13991979118629413 0.13991979118629413
0.14271359482191287 0.14271359482191287 0.14271359482191287
0.14555266782215 0.14555266782215 0.14555266782215
0.14845546582479183 0.14845546582479183 0.14845546582479183
0.15138618479194293 0.15138618479194293 0.15138618479194293
0.15434243719484989 0.15434243719484989 0.15434243719484989
0.15732323923413236 0.15732323923413236 0.15732323923413236
0.1603228183106662 0.1603228183106662 0.1603228183106662
0.16334697700661022 0.16334697700661022 0.16334697700661022
0.16639830450884358 0.16639830450884358 0.16639830450884358
0.169481667159382 0.169481667159382 0.169481667159382
0.1726026591505307 0.1726026591505307 0.1726026591505307
0.17582219657362347 0.17582219657362347 0.17582219657362347
0.17912843194479508 0.17912843194479508 0.17912843194479508
0.18256592534389862 0.18256592534389862 0.18256592534389862
0.18616683467514922 0.18616683467514922 0.18616683467514922
0.1899789754513909 0.1899789754513909 0.1899789754513909
0.19406678225066792 0.19406678225066792 0.19406678225066792
0.19845668004677364 0.19845668004677364 0.19845668004677364
0.20317103237746093 0.20317103237746093 0.20317103237746093
0.20809420634134326 0.20809420634134326 0.20809420634134326
0.2131189236700566 0.2131189236700566 0.2131189236700566
0.21800022241654238 0.21800022241654238 0.21800022241654238
0.22266797137419764 0.22266797137419764 0.22266797137419764
0.2270897980590937 0.2270897980590937 0.2270897980590937
0.23126488973559944 0.23126488973559944 0.23126488973559944
0.23522496344363422 0.23522496344363422 0.23522496344363422
0.23901784277061228 0.23901784277061228 0.23901784277061228
0.24266574002621027 0.24266574002621027 0.24266574002621027
0.2462642737682317 0.2462642737682317 0.2462642737682317
0.24982003179392595 0.24982003179392595 0.24982003179392595
0.2534290741739529 0.2534290741739529 0.2534290741739529
0.25712799825946187 0.25712799825946187 0.25712799825946187
0.2609627013680176 0.2609627013680176 0.2609627013680176
0.2649819807954408 0.2649819807954408 0.2649819807954408
0.26922991120128764 0.26922991120128764 0.26922991120128764
0.2737636352925803 0.2737636352925803 0.2737636352925803
0.2785421887064478 0.2785421887064478 0.2785421887064478
0.2835479812554869 0.2835479812554869 0.2835479812554869
0.2885292191344188 0.2885292191344188 0.2885292191344188
0.29339585435969 0.29339585435969 0.29339585435969
0.2980791967716596 0.2980791967716596 0.2980791967716596
0.30256756773825766 0.30256756773825766 0.30256756773825766
0.30690962307005 0.30690962307005 0.30690962307005
0.3111794306562201 0.3111794306562201 0.3111794306562201
0.31541537033039313 0.31541537033039313 0.31541537033039313
0.3196816202104398 0.3196816202104398 0.3196816202104398
0.3240439742278838 0.3240439742278838 0.3240439742278838
0.32857902391477034 0.32857902391477034 0.32857902391477034
0.3334215483340598 0.3334215483340598 0.3334215483340598
0.33880375361514536 0.33880375361514536 0.33880375361514536
0.3447843180976915 0.3447843180976915 0.3447843180976915
0.3514268656344965 0.3514268656344965 0.3514268656344965
0.35835677326327314 0.35835677326327314 0.35835677326327314
0.36516503096250275 0.36516503096250275 0.36516503096250275
0.37164807238066044 0.37164807238066044 0.37164807238066044
0.3778520216591872 0.3778520216591872 0.3778520216591872
0.3838599497530376 0.3838599497530376 0.3838599497530376
0.3897612057311301 0.3897612057311301 0.3897612057311301
0.3956559476806214 0.3956559476806214 0.3956559476806214
0.401668331876274 0.401668331876274 0.401668331876274
0.40780733758894605 0.40780733758894605 0.40780733758894605
0.4139693310112127 0.4139693310112127 0.4139693310112127
0.4200155745605343 0.4200155745605343 0.4200155745605343
0.42582237584854626 0.42582237584854626 0.42582237584854626
0.4314886447738141 0.4314886447738141 0.4314886447738141
0.4370010159836483 0.4370010159836483 0.4370010159836483
0.442380059764488 0.442380059764488 0.442380059764488
0.4475787448261159 0.4475787448261159 0.4475787448261159
0.4525973303383921 0.4525973303383921 0.4525973303383921
0.45746298170378963 0.45746298170378963 0.45746298170378963
0.46218510481537955 0.46218510481537955 0.46218510481537955
0.4667847869114151 0.4667847869114151 0.4667847869114151
0.47128168273344284 0.47128168273344284 0.47128168273344284
0.47567327020562383 0.47567327020562383 0.47567327020562383
0.47996223835371815 0.47996223835371815 0.47996223835371815
0.4841715430802387 0.4841715430802387 0.4841715430802387
0.48832541658489775 0.48832541658489775 0.48832541658489775
0.49246314504063776 0.49246314504063776 0.49246314504063776
0.49661197840965987 0.49661197840965987 0.49661197840965987
0.5007992788023666 0.5007992788023666 0.5007992788023666
0.5050444455017028 0.5050444455017028 0.5050444455017028
0.5093680977554407 0.5093680977554407 0.5093680977554407
0.5137869600526485 0.5137869600526485 0.5137869600526485
0.5183365432063242 0.5183365432063242 0.5183365432063242
0.5230129807541882 0.5230129807541882 0.5230129807541882
0.527819191804466 0.527819191804466 0.527819191804466
0.5327203139676928 0.5327203139676928 0.5327203139676928
0.5376989347240593 0.5376989347240593 0.5376989347240593
0.5427274416107176 0.5427274416107176 0.5427274416107176
0.5478048220504088 0.5478048220504088 0.5478048220504088
0.5529394496927743 0.5529394496927743 0.5529394496927743
0.5581753411917337 0.5581753411917337 0.5581753411917337
0.5635247203191045 0.5635247203191045 0.5635247203191045
0.5690467680940816 0.5690467680940816 0.5690467680940816
0.5748864094630047 0.5748864094630047 0.5748864094630047
0.5812421347478566 0.5812421347478566 0.5812421347478566
0.5884072242596143 0.5884072242596143 0.5884072242596143
0.5964893316176517 0.5964893316176517 0.5964893316176517
0.6048220609116166 0.6048220609116166 0.6048220609116166
0.612651103087871 0.612651103087871 0.612651103087871
0.6197773867032728 0.6197773867032728 0.6197773867032728
0.6262821515354933 0.6262821515354933 0.6262821515354933
0.6324065202655388 0.6324065202655388 0.6324065202655388
0.6382941794943 0.6382941794943 0.6382941794943
0.6440959336274791 0.6440959336274791 0.6440959336274791
0.6498752506315247 0.6498752506315247 0.6498752506315247
0.6556460009520464 0.6556460009520464 0.6556460009520464
0.661321389765277 0.661321389765277 0.661321389765277
0.6667994734850263 0.6667994734850263 0.6667994734850263
0.6719917825703244 0.6719917825703244 0.6719917825703244
0.6769266553168304 0.6769266553168304 0.6769266553168304
0.6816737613559095 0.6816737613559095 0.6816737613559095
0.6862791193912514 0.6862791193912514 0.6862791193912514
0.690851701755135 0.690851701755135 0.690851701755135
0.6954239658605637 0.6954239658605637 0.6954239658605637
0.7000507000365197 0.7000507000365197 0.7000507000365197
0.7047604371219862 0.7047604371219862 0.7047604371219862
0.7095845281683087 0.7095845281683087 0.7095845281683087
0.7145962134432788 0.7145962134432788 0.7145962134432788
0.7198023038629817 0.7198023038629817 0.7198023038629817
0.7252077752345599 0.7252077752345599 0.7252077752345599
0.7307991485295908 0.7307991485295908 0.7307991485295908
0.7365038899513692 0.7365038899513692 0.7365038899513692
0.742254842123354 0.742254842123354 0.742254842123354
0.7479673022109818 0.7479673022109818 0.7479673022109818
0.7536205007613613 0.7536205007613613 0.7536205007613613
0.7592337950803114 0.7592337950803114 0.7592337950803114
0.7648762942447134 0.7648762942447134 0.7648762942447134
0.7706164571300481 0.7706164571300481 0.7706164571300481
0.7764566973615535 0.7764566973615535 0.7764566973615535
0.782430616449536 0.782430616449536 0.782430616449536
0.7885087636722878 0.7885087636722878 0.7885087636722878
0.7946337616631637 0.7946337616631637 0.7946337616631637
0.8007111690921858 0.8007111690921858 0.8007111690921858
0.806667534155125 0.806667534155125 0.806667534155125
0.8124793115496038 0.8124793115496038 0.8124793115496038
0.8181246098365992 0.8181246098365992 0.8181246098365992
0.8236358330479118 0.8236358330479118 0.8236358330479118
0.8290233715292666 0.8290233715292666 0.8290233715292666
0.8344168496511861 0.8344168496511861 0.8344168496511861
0.8399333293523488 0.8399333293523488 0.8399333293523488
0.8456781244504344 0.8456781244504344 0.8456781244504344
0.8517117817747872 0.8517117817747872 0.8517117817747872
0.8580148717566654 0.8580148717566654 0.8580148717566654
0.8644763572928993 0.8644763572928993 0.8644763572928993
0.8710027094684369 0.8710027094684369 0.8710027094684369
0.8775879766371361 0.8775879766371361 0.8775879766371361
0.8843647229701204 0.8843647229701204 0.8843647229701204
0.8915571763989011 0.8915571763989011 0.8915571763989011
0.8993736552799717 0.8993736552799717 0.8993736552799717
0.9080668321515475 0.9080668321515475 0.9080668321515475
0.9175705683197662 0.9175705683197662 0.9175705683197662
0.9267871460277556 0.9267871460277556 0.9267871460277556
0.9359617152255288 0.9359617152255288 0.9359617152255288
0.9477847535583364 0.9477847535583364 0.9477847535583364
0.9694734646447216 0.9694734646447216 0.9694734646447216
0.9772207129616821 0.9772207129616821 0.9772207129616821
0.9808666357609879 0.9808666357609879 0.9808666357609879
0.9833089229907341 0.9833089229907341 0.9833089229907341
0.98572419343883 0.98572419343883 0.98572419343883
0.9881205791439036 0.9881205791439036 0.9881205791439036
1.0 1.0 1.0
0.0 0.0 0.0
0.0018544281591288598 0.0018544281591288598 0.0018544281591288598
0.003708856318257818 0.003708856318257818 0.003708856318257818
0.004734683542248739 0.004734683542248739 0.004734683542248739
0.005653151372517764 0.005653151372517764 0.005653151372517764
0.00657161920278674 0.00657161920278674 0.00657161920278674
0.007490087033055766 0.007490087033055766 0.007490087033055766
0.008302746223697546 0.008302746223697546 0.008302746223697546
0.009049337850936364 0.009049337850936364 0.009049337850936364
0.00979592947817518 0.00979592947817518 0.00979592947817518
0.010542521105414036 0.010542521105414036 0.010542521105414036
0.011289112732652852 0.011289112732652852 0.011289112732652852
0.012022274753411171 0.012022274753411171 0.012022274753411171
0.012731868269640128 0.012731868269640128 0.012731868269640128
0.013441461785869122 0.013441461785869122 0.013441461785869122
0.014151055302098078 0.014151055302098078 0.014151055302098078
0.014860648818327033 0.014860648818327033 0.014860648818327033
0.01557024233455599 0.01557024233455599 0.01557024233455599
0.016449201168345803 0.016449201168345803 0.016449201168345803
0.017361268334588047 0.017361268334588047 0.017361268334588047
0.018273335500830337 0.018273335500830337 0.018273335500830337
0.01918540266707258 0.01918540266707258 0.01918540266707258
0.02015453738026986 0.02015453738026986 0.02015453738026986
0.021172908872347435 0.021172908872347435 0.021172908872347435
0.02219128036442501 0.02219128036442501 0.02219128036442501
0.023209651856502585 0.023209651856502585 0.023209651856502585
0.024227919723146883 0.024227919723146883 0.024227919723146883
0.025246140159631347 0.025246140159631347 0.025246140159631347
0.026264360596115862 0.026264360596115862 0.026264360596115862
0.027282581032600325 0.027282581032600325 0.027282581032600325
0.028367695261443688 0.028367695261443688 0.028367695261443688
0.029466065070899633 0.029466065070899633 0.029466065070899633
0.030564434880355585 0.030564434880355585 0.030564434880355585
0.0317186148885006 0.0317186148885006 0.0317186148885006
0.03302817863348522 0.03302817863348522 0.03302817863348522
0.03433774237846978 0.03433774237846978 0.03433774237846978
0.035681557301129534 0.035681557301129534 0.035681557301129534
0.03711811867911765 0.03711811867911765 0.03711811867911765
0.038554680057105835 0.038554680057105835 0.038554680057105835
0.039967637000821996 0.039967637000821996 0.039967637000821996
0.041360475868345715 0.041360475868345715 0.041360475868345715
0.04275331473586944 0.04275331473586944 0.04275331473586944
0.04416028962272674 0.04416028962272674 0.04416028962272674
0.045572644024497656 0.045572644024497656 0.045572644024497656
0.04698499842626865 0.04698499842626865 0.04698499842626865
0.04842452438413151 0.04842452438413151 0.04842452438413151
0.049865548959120785 0.049865548959120785 0.049865548959120785
0.051317503568327594 0.051317503568327594 0.051317503568327594
0.05280681553496981 0.05280681553496981 0.05280681553496981
0.05429612750161202 0.05429612750161202 0.05429612750161202
0.05584485628648889 0.05584485628648889 0.05584485628648889
0.05743432933231171 0.05743432933231171 0.05743432933231171
0.05903393599779159 0.05903393599779159 0.05903393599779159
0.060703834852416004 0.060703834852416004 0.060703834852416004
0.0623737337070405 0.0623737337070405 0.0623737337070405
0.06409229995432912 0.06409229995432912 0.06409229995432912
0.06582478445597523 0.06582478445597523 0.06582478445597523
0.0675829734172925 0.0675829734172925 0.0675829734172925
0.06936546068499463 0.06936546068499463 0.06936546068499463
0.07114866830360861 0.07114866830360861 0.07114866830360861
0.07293344963471832 0.07293344963471832 0.07293344963471832
0.07471975119555915 0.07471975119555915 0.07471975119555915
0.07651755040375328 0.07651755040375328 0.07651755040375328
0.07831534961194732 0.07831534961194732 0.07831534961194732
0.0801257290276075 0.0801257290276075 0.0801257290276075
0.08193697633077703 0.08193697633077703 0.08193697633077703
0.08375015911969232 0.08375015911969232 0.08375015911969232
0.08556391892011173 0.08556391892011173 0.08556391892011173
0.08735723827628197 0.08735723827628197 0.08735723827628197
0.08913739120514813 0.08913739120514813 0.08913739120514813
0.09091596663952925 0.09091596663952925 0.09091596663952925
0.09269222724001763 0.09269222724001763 0.09269222724001763
0.09447791257892185 0.09447791257892185 0.09447791257892185
0.09630188938685257 0.09630188938685257 0.09630188938685257
0.09812775532267036 0.09812775532267036 0.09812775532267036
0.09999149791515714 0.09999149791515714 0.09999149791515714
0.10185524050764401 0.10185524050764401 0.10185524050764401
0.10376166803409813 0.10376166803409813 0.10376166803409813
0.10567065791608808 0.10567065791608808 0.10567065791608808
0.1076258547911256 0.1076258547911256 0.1076258547911256
0.10958681483130367 0.10958681483130367 0.10958681483130367
0.11161021014478192 0.11161021014478192 0.11161021014478192
0.11364137854241706 0.11364137854241706 0.11364137854241706
0.11574540393028764 0.11574540393028764 0.11574540393028764
0.11786202954739201 0.11786202954739201 0.11786202954739201
0.12006612231389888 0.12006612231389888 0.12006612231389888
0.12230268180394312 0.12230268180394312 0.12230268180394312
0.12460877133820836 0.12460877133820836 0.12460877133820836
0.1269846983664302 0.1269846983664302 0.1269846983664302
0.12940383309882633 0.12940383309882633 0.12940383309882633
0.13193990407753253 0.13193990407753253 0.13193990407753253
0.13452499304680876 0.13452499304680876 0.13452499304680876
0.13716936945446995 0.13716936945446995 0.13716936945446995
0.13991979118629413 0.13991979118629413 0.13991979118629413
0.14271359482191287 0.14271359482191287 0.14271359482191287
0.14555266782215 0.14555266782215 0.14555266782215
0.14845546582479183 0.14845546582479183 0.14845546582479183
0.15138618479194293 0.15138618479194293 0.15138618479194293
0.15434243719484989 0.15434243719484989 0.15434243719484989
0.15732323923413236 0.15732323923413236 0.15732323923413236
0.1603228183106662 0.1603228183106662 0.1603228183106662
0.16334697700661022 0.16334697700661022 0.16334697700661022
0.16639830450884358 0.16639830450884358 0.16639830450884358
0.169481667159382 0.169481667159382 0.169481667159382
0.1726026591505307 0.1726026591505307 0.1726026591505307
0.17582219657362347 0.17582219657362347 0.17582219657362347
0.17912843194479508 0.17912843194479508 0.17912843194479508
0.18256592534389862 0.18256592534389862 0.18256592534389862
0.18616683467514922 0.18616683467514922 0.18616683467514922
0.1899789754513909 0.1899789754513909 0.1899789754513909
0.19406678225066792 0.19406678225066792 0.19406678225066792
0.19845668004677364 0.19845668004677364 0.19845668004677364
0.20317103237746093 0.20317103237746093 0.20317103237746093
0.20809420634134326 0.20809420634134326 0.20809420634134326
0.2131189236700566 0.2131189236700566 0.2131189236700566
0.21800022241654238 0.21800022241654238 0.21800022241654238
0.22266797137419764 0.22266797137419764 0.22266797137419764
0.2270897980590937 0.2270897980590937 0.2270897980590937
0.23126488973559944 0.23126488973559944 0.23126488973559944
0.23522496344363422 0.23522496344363422 0.23522496344363422
0.23901784277061228 0.23901784277061228 0.23901784277061228
0.24266574002621027 0.24266574002621027 0.24266574002621027
0.2462642737682317 0.2462642737682317 0.2462642737682317
0.24982003179392595 0.24982003179392595 0.24982003179392595
0.2534290741739529 0.2534290741739529 0.2534290741739529
0.25712799825946187 0.25712799825946187 0.25712799825946187
0.2609627013680176 0.2609627013680176 0.2609627013680176
0.2649819807954408 0.2649819807954408 0.2649819807954408
0.26922991120128764 0.26922991120128764 0.26922991120128764
0.2737636352925803 0.2737636352925803 0.2737636352925803
0.2785421887064478 0.2785421887064478 0.2785421887064478
0.2835479812554869 0.2835479812554869 0.2835479812554869
0.2885292191344188 0.2885292191344188 0.2885292191344188
0.29339585435969 0.29339585435969 0.29339585435969
0.2980791967716596 0.2980791967716596 0.2980791967716596
0.30256756773825766 0.30256756773825766 0.30256756773825766
0.30690962307005 0.30690962307005 0.30690962307005
0.3111794306562201 0.3111794306562201 0.3111794306562201
0.31541537033039313 0.31541537033039313 0.31541537033039313
0.3196816202104398 0.3196816202104398 0.3196816202104398
0.3240439742278838 0.3240439742278838 0.3240439742278838
0.32857902391477034 0.32857902391477034 0.32857902391477034
0.3334215483340598 0.3334215483340598 0.3334215483340598
0.33880375361514536 0.33880375361514536 0.33880375361514536
0.3447843180976915 0.3447843180976915 0.3447843180976915
0.3514268656344965 0.3514268656344965 0.3514268656344965
0.35835677326327314 0.35835677326327314 0.35835677326327314
0.36516503096250275 0.36516503096250275 0.36516503096250275
0.37164807238066044 0.37164807238066044 0.37164807238066044
