obsidian/Clippings/写真家活動/技法探求/デジネガ/QTR/プロファイル作成/QTR-DN/QTR-DN/古い/QUAD1/Untitled.cube
#Color Lookup Table 
TITLE "QuadToneProfiler Color Lookup Table for 256-step Soft Proof
LUT_1D_SIZE 256
DOMAIN_MIN 0.0 0.0 0.0
DOMAIN_MAX 1.0 1.0 1.0
0.10682839414821019 0.12273595673744855 0.1173223638313611
0.10939577924749475 0.1254195948338873 0.12007948494208873
0.11197113971319064 0.1281112178481542 0.12284529441862505
0.1145544028065397 0.13081075552765387 0.1256197113691997
0.11714549730266416 0.13351813904176305 0.12840265663274134
0.1197443534422114 0.1362333009372394 0.13119405272158605
0.12235090288502659 0.13895617509548272 0.13399382376670355
0.12496507866579137 0.14168669669159964 0.1368018954653509
0.12758681515150896 0.14442480215515746 0.1396181950310013
0.1302160480007256 0.1471704291325239 0.14244265114540608
0.13285271412443037 0.14992351645074511 0.14527519391271101
0.1354967516485338 0.1526840040828683 0.14811575481550163
0.13814809987782972 0.15545183311461572 0.15096426667265445
0.14080669926140782 0.15822694571239382 0.15382066359895097
0.14347249135939863 0.16100928509251114 0.1566848809663056
0.14614541881102297 0.16379879549159704 0.15955685536657144
0.14882542530387333 0.1665954221381446 0.16243652457582994
0.15151245554434475 0.1693991112251033 0.16532382752006708
0.15420645522919973 0.172209809883512 0.1682187042422089
0.15690737101819416 0.1750274661571022 0.17112109587042754
0.15962743404687021 0.1778494738593978 0.17402070584498397
0.1624917646167775 0.18064970231443145 0.17681305667966737
0.1653633874379377 0.1834565486555454 0.17961215400122027
0.16824224991736955 0.18626996673925775 0.18241794935735164
0.17112830028061057 0.18908991116082413 0.18523039510033876
0.17402148755406213 0.19191633723593235 0.18804944436621288
0.17692176154774925 0.1947492009830243 0.19087505105469132
0.17982907283845165 0.19758845910618272 0.1937071698097856
0.18274337275324445 0.200434068978595 0.1965457560010932
0.18566461335340392 0.20328598862653618 0.19939076570570696
0.1885927474187134 0.20614417671388263 0.20224215569075144
0.1915277284321325 0.20900859252710902 0.20509988339648993
0.19448510273372874 0.2118752125417374 0.20795883989002
0.1974703850934988 0.21474255512854923 0.2108171625227958
0.20046247267126333 0.21761595302768844 0.21368164857846145
0.2034613216447469 0.2204953685027145 0.2165522585090321
0.2064668887966723 0.22338076435729332 0.21942895335385948
0.20947913150339403 0.22627210392323555 0.22231169472603485
0.21249800772373945 0.2291693510488919 0.22520044479921836
0.215523475988055 0.23207247008788884 0.22809516629487658
0.21855549538745817 0.23498142588819637 0.23099582246991335
0.22150765305426962 0.2379219260977275 0.23389020338796268
0.2244635319624827 0.2408690732676818 0.23679004305605
0.22742558986466221 0.24382208913558373 0.2396956583296181
0.23039378894126633 0.24678093899892056 0.2426070149699016
0.23337191993415962 0.24974514452852475 0.24551617295741812
0.2363702162772518 0.2527134778728159 0.24840184881759964
0.23937458276106655 0.25568753510583736 0.25129302235353435
0.24233686989217484 0.25868455228999493 0.2541484661861883
0.2452764307259912 0.26169755956783997 0.2569847243811786
0.24821260969509013 0.2647220609129487 0.2597883007906147
0.251151932381958 0.2677573886013757 0.26254392285382827
0.25419749428931004 0.2707866510505329 0.2650953165082212
0.2572797747516941 0.27382848607567956 0.2674574463290622
0.26033447090635164 0.2768909833250616 0.2697559067630183
0.2632810638133517 0.2799744086574969 0.27227107473555895
0.2663690216601432 0.28301786354161357 0.2748670199014825
0.26958775623838416 0.2860407371261511 0.2773423153231756
0.27286392035188534 0.289055283503847 0.27980472989384086
0.27617107225348697 0.2920663583833878 0.2822876080715969
0.27948244336716715 0.29508229979872724 0.2847834152176387
0.2827943666329554 0.2981040369910306 0.2872935451794451
0.2861375054549862 0.30112182727172937 0.28982742411302326
0.2895476994685519 0.30412501190252694 0.29238625363074344
0.2930230634662269 0.3071145095315165 0.2949637556688524
0.29651355667943435 0.31010346894850865 0.29757765160518834
0.2999917388399599 0.3130990289118958 0.3002393183324139
0.3034420215972325 0.31610566975904564 0.30295056478383936
0.30686763617922597 0.3191235689489464 0.30569778838278994
0.31027030474712713 0.32215359123938925 0.30846419086835786
0.31366300995263563 0.3251930408084239 0.31123548571761245
0.3170538061272938 0.3282405207316316 0.31399909295224404
0.32044983064006044 0.33129540330951013 0.3167360059503644
0.3238510602724919 0.33435546266972355 0.3194736660960513
0.327257078054904 0.33742023052262626 0.3222191025105044
0.33066810856735795 0.340489752063573 0.32497054977587236
0.3340840426511914 0.3435642248633726 0.32772558086650333
0.337504826390113 0.34664384861778536 0.3304815324042968
0.3409305856563721 0.3497286217827588 0.33323758197475944
0.3443610056382607 0.3528186383565058 0.33599337241689886
0.3477951326173574 0.3559140003526547 0.3387508754629897
0.3512303996175714 0.35901507669820865 0.34151486353052163
0.3546651821855921 0.36212205496746924 0.34428887124742635
0.3580967325174847 0.36523546575740684 0.34707644149962064
0.36152225803327337 0.36835590333397794 0.3498805454978528
0.3649411502498109 0.37148349725684093 0.35270170401081685
0.3683506422535109 0.37461890405574677 0.35554206945975425
0.3717523908165335 0.37776182948794457 0.3583988448681173
0.37514497816170467 0.3809126529299702 0.36127250817296974
0.37852945359330664 0.3840711628078798 0.3641615127973109
0.3819056625671143 0.3872374081403949 0.3670656329252623
0.3852747077960522 0.3904111715781411 0.36998315052684494
0.38863697932189756 0.39359240258305384 0.3729129684392509
0.3919946213358678 0.3967806206759304 0.37585263277993713
0.3953488738596436 0.39997566553534036 0.3787991105449715
0.39870170116249126 0.4031771041800788 0.38174999587767683
0.4020537243735169 0.40638487184629424 0.38470340811962916
0.4054083378809287 0.4095979768658916 0.3876584353709402
0.40876803161544306 0.4128156194851138 0.39061521992510834
0.41213421449061954 0.4160372768538048 0.39357457989036043
0.4155087925706462 0.4192622797949045 0.3965372470306611
0.41889154409121815 0.4224905602638972 0.3995046038324601
0.42228149623139194 0.425722255690761 0.40247835966718803
0.425676820244888 0.4289577878235773 0.4054599679689256
0.42907477858116927 0.43219760626038445 0.40845409407554445
0.4324734160465408 0.43544219139820906 0.4114619871276911
0.4358711928699561 0.438691756476936 0.4144866810139564
0.43926812393953124 0.44194629770233634 0.4175279003348903
0.44266326142705453 0.44520595030502647 0.42058736963023163
0.4460577919734681 0.4484704915404523 0.42366301105897
0.4494524421361979 0.4517397413781578 0.42675399684462484
0.4528474203725819 0.4550134256157646 0.42986271952038485
0.4562443904999521 0.45829135718423825 0.43298476232534927
0.45964395985386924 0.46157330480762176 0.43612040197333146
0.46304662232776345 0.4648592234280455 0.43926799398245636
0.46645250249316855 0.46814927790205835 0.44242467700814164
0.46986113249106604 0.47144342192197214 0.4455925956978482
0.4732724080329523 0.47474207007742036 0.4487666228322649
0.476685861015508 0.47804532711308806 0.4519469951407375
0.48010140772707205 0.4813533523043673 0.45513175305208625
0.48351972166926566 0.4846659435741834 0.4583205520829415
0.48693980239733076 0.4879835917457867 0.46151082934852544
0.4903630123126284 0.49130578396081 0.4647034814784366
0.49378838425582844 0.4946330206148332 0.4678956992164392
0.4972171616750501 0.49796483640279504 0.47108824325473947
0.5006493185972032 0.50130128510286 0.4742802758015244
0.5040845491569957 0.5046426021512225 0.47746975750267434
0.5075236430972205 0.5079882985429807 0.4806595322293136
0.510963531101031 0.5113397660198062 0.48384376550399283
0.5144061027287387 0.5146959125423308 0.4870286311200644
0.5178491547645857 0.518057558285148 0.49021214750006564
0.5212927818887367 0.5214243886251085 0.49339769204074996
0.5247383288576841 0.5247959046989004 0.4965860606466919
0.5281832587791397 0.5281726193975462 0.49978049408699426
0.5316305742701787 0.5315535904302506 0.5029808895520467
0.5350785075745008 0.5349391385140417 0.5061899026728703
0.5385276259355729 0.5383289902606297 0.5094085346905765
0.541978770991651 0.5417230004905252 0.5126350797246616
0.5454306290249028 0.5451211640776239 0.5158745461334824
0.5488853974398168 0.5485231950194278 0.5191216751560054
0.5523423366154074 0.551928896073668 0.5223816524573243
0.5558027731724906 0.555338026482023 0.5256520756491602
0.5592667617027725 0.5587504708783644 0.5289339640424858
0.562735253026697 0.5621657013967464 0.5322300371401112
0.5662079032998525 0.565584216755774 0.5355350979261149
0.5696862935185255 0.5690050057594445 0.5388555112228354
0.5731692479916893 0.5724290668897681 0.5421830248161287
0.5766583968878248 0.5758555418335825 0.5455218716876712
0.5801529601249922 0.5792850380432065 0.5488672035072453
0.5836537355678589 0.5827172306041805 0.5522197735867502
0.58716085459118 0.5861521972231505 0.5555778604158118
0.5906736873009908 0.5895901701452797 0.5589407867350658
0.5941942050962146 0.5930305218381564 0.5623085176713076
0.5977204193127601 0.5964739142136763 0.5656802909262227
0.6012541628975291 0.599919706153494 0.5690567895951273
0.604793188714617 0.6033686222965753 0.5724374816300449
0.6083377115792986 0.6068205376723117 0.5758228944074484
0.6118861704400658 0.610275843491172 0.5792140212271915
0.6154384045227312 0.6137345999129407 0.5826105319294037
0.6189920325530369 0.6171972752557785 0.5860156827341493
0.6225478703232251 0.6206637488834782 0.5894275894699407
0.6261042076586507 0.6241343412576218 0.5928487406093482
0.6296617083411138 0.6276088729557499 0.5962785963068847
0.6332204753576471 0.6310873084532429 0.5997170068544851
0.636780913203197 0.63456927301842 0.6031669195008575
0.6403441298773868 0.6380546078147703 0.6066257848793856
0.6439116367305935 0.6415426497100483 0.6100958315587615
0.6474844519478932 0.6450332272441525 0.613575021232408
0.6510634160976938 0.6485260479286377 0.6170635417378015
0.6546503067626055 0.6520204611028129 0.620562410019589
0.6582442087948318 0.6555168711598814 0.6240699298437512
0.6618471250085757 0.6590143540562059 0.6275896741875764
0.6654568250420554 0.6625137992363347 0.6311190073463198
0.6690735850786725 0.6660149440265417 0.6346599572838308
0.6726965534599565 0.6695180941322225 0.6382118280781965
0.676325163936067 0.6730234802531742 0.6417737506045408
0.6799584204205555 0.676531409734868 0.6453455843471483
0.6835955596700578 0.6800422543171522 0.6489254698210818
0.6872353092569162 0.6835564495926525 0.6525127510047748
0.6908772026811848 0.6870742017215664 0.6561064959746367
0.6945205584322577 0.6905957227167927 0.6597065470598991
0.6981648762497826 0.6941211749175353 0.6633126620532974
0.7018102009948916 0.697650563799748 0.6669244307081884
0.7054558756392734 0.7011840736846426 0.6705419543592749
0.7091022765595038 0.7047215980704749 0.6741649298157139
0.7127494320136177 0.7082630809847624 0.6777937854608929
0.7163973409253468 0.7118085434464291 0.6814281008544578
0.720045396677786 0.7153581851982975 0.6850675922257395
0.7236930445042925 0.718912226652589 0.6887115168519408
0.7273397909772299 0.7224708533211025 0.6923593312145923
0.7309852432912171 0.7260342428574634 0.6960101986098175
0.7346287039083125 0.7296026332375751 0.6996637230871471
0.7382705282045076 0.733175930830884 0.7033195340247894
0.7419108510971741 0.7367540784019725 0.7069776685233577
0.7455500252942667 0.7403369447417446 0.7106382355842691
0.7491886886012774 0.7439242616738994 0.7143019385196242
0.7528270355387142 0.7475159120453752 0.7179693277291042
0.7564659156313984 0.751111545410496 0.7216413036876725
0.7601051806294705 0.7547111561312378 0.7253183638325437
0.7637455544489332 0.7583144753390432 0.729000881476886
0.7673871193404604 0.7619214198274155 0.7326894208412429
0.7710303616461274 0.7655317569425858 0.736384830554887
0.7746761496831183 0.7691452059470549 0.7400870684627439
0.7783250415756923 0.7727614883486691 0.7437972733550513
0.7819781706545649 0.7763803015700899 0.7475146428620757
0.7856359556435054 0.7800014474798885 0.7512398599922913
0.7892984045990447 0.7836249776355452 0.7549721043126173
0.7929655730783878 0.7872508766391735 0.7587112038560092
0.7966375977003508 0.7908791105657447 0.7624569024347732
0.8003139605534845 0.7945099160398726 0.7662081328800243
0.8039950985993376 0.7981430730959435 0.769965782270005
0.8076794421881508 0.8017794630768093 0.7737248805580885
0.8113664761811299 0.8054193118461905 0.7774844940645382
0.8150542461099691 0.8090628403760368 0.7812493369970009
0.8187404553541577 0.8127106999940599 0.7850201179852966
0.8224193590428351 0.8163645815697063 0.7887980531689995
0.8260920480054791 0.8200242862987922 0.7925812348938438
0.8297536229999074 0.8236913839594423 0.7963690972057246
0.8334153158805934 0.8273626361087723 0.8001580285608291
0.8370787714478639 0.8310376408217125 0.8039464970105271
0.8407500200826917 0.8347146051574466 0.8077331855212838
0.8444347381542538 0.8383922200499756 0.8115121794152284
0.8481334532004635 0.8420704273876165 0.8152820414798907
0.851850854906239 0.8457482686750288 0.8190363550390221
0.8555815481646588 0.8494267649990136 0.822783258615819
0.8593212975024082 0.8531067899321441 0.8265282204572441
0.8630715379874891 0.856787041607751 0.8302816195191114
0.8668274674223335 0.8604676582491511 0.834060160322946
0.8705930123430735 0.8641454682573598 0.8378876045914418
0.8743687357863374 0.8678204793537245 0.8417614986312096
0.8781577522654472 0.8714906206574259 0.845695117856796
0.8819608043723332 0.8751573760510171 0.8496671175254535
0.8857773013208944 0.8788214857792174 0.8536704702196959
0.8896020501727043 0.8824883331588548 0.8576588694258745
0.8934370595410673 0.8861573243472758 0.861631775173972
0.897279033778196 0.889829996669116 0.8655829141219792
0.9011515955032887 0.8935020091078612 0.869474528710936
0.9050232719614926 0.8971782557964366 0.8733676203835505
0.9088785363142441 0.9008636416737882 0.8772617236761183
0.9127252395575353 0.904555062946888 0.8811645856472414
0.9165729333719491 0.9082471820642719 0.8851047122422319
0.920394341099232 0.9119404946424801 0.8891806796350843
0.9241324197567984 0.9156623823092269 0.8932765333621465
0.9274998523049492 0.9195105584512118 0.89730052823298
0.9311009216141934 0.9232758476898086 0.9014894338396138
0.9348043319333911 0.9270068623761045 0.9057531907052311
0.9374408047546489 0.9310336136394832 0.910536928934016
0.9404772217651329 0.9349750624732082 0.9148756494224658
0.9440460538454543 0.9387889501450309 0.9187864859945843
0.9478183916064019 0.9425563421133428 0.9225371428500821
0.951593567639118 0.9463265819475654 0.9262906792263765
0.9553715755606439 0.9500996632085995 0.9300470885135536
0.959152460036134 0.9538755759898933 0.9338062127170402
0.962936333353236 0.9576543057799628 0.9375676933436434
0.966723019982452 0.9614358578566619 0.9413320262881447
0.9705125136712968 0.9652202259148001 0.9450992050832597
0.10682839414821019 0.12273595673744855 0.1173223638313611
0.10939577924749475 0.1254195948338873 0.12007948494208873
0.11197113971319064 0.1281112178481542 0.12284529441862505
0.1145544028065397 0.13081075552765387 0.1256197113691997
0.11714549730266416 0.13351813904176305 0.12840265663274134
0.1197443534422114 0.1362333009372394 0.13119405272158605
0.12235090288502659 0.13895617509548272 0.13399382376670355
0.12496507866579137 0.14168669669159964 0.1368018954653509
0.12758681515150896 0.14442480215515746 0.1396181950310013
0.1302160480007256 0.1471704291325239 0.14244265114540608
0.13285271412443037 0.14992351645074511 0.14527519391271101
0.1354967516485338 0.1526840040828683 0.14811575481550163
0.13814809987782972 0.15545183311461572 0.15096426667265445
0.14080669926140782 0.15822694571239382 0.15382066359895097
0.14347249135939863 0.16100928509251114 0.1566848809663056
0.14614541881102297 0.16379879549159704 0.15955685536657144
0.14882542530387333 0.1665954221381446 0.16243652457582994
0.15151245554434475 0.1693991112251033 0.16532382752006708
0.15420645522919973 0.172209809883512 0.1682187042422089
0.15690737101819416 0.1750274661571022 0.17112109587042754
0.15962743404687021 0.1778494738593978 0.17402070584498397
0.1624917646167775 0.18064970231443145 0.17681305667966737
0.1653633874379377 0.1834565486555454 0.17961215400122027
0.16824224991736955 0.18626996673925775 0.18241794935735164
0.17112830028061057 0.18908991116082413 0.18523039510033876
0.17402148755406213 0.19191633723593235 0.18804944436621288
0.17692176154774925 0.1947492009830243 0.19087505105469132
0.17982907283845165 0.19758845910618272 0.1937071698097856
0.18274337275324445 0.200434068978595 0.1965457560010932
0.18566461335340392 0.20328598862653618 0.19939076570570696
0.1885927474187134 0.20614417671388263 0.20224215569075144
0.1915277284321325 0.20900859252710902 0.20509988339648993
0.19448510273372874 0.2118752125417374 0.20795883989002
0.1974703850934988 0.21474255512854923 0.2108171625227958
0.20046247267126333 0.21761595302768844 0.21368164857846145
0.2034613216447469 0.2204953685027145 0.2165522585090321
0.2064668887966723 0.22338076435729332 0.21942895335385948
0.20947913150339403 0.22627210392323555 0.22231169472603485
0.21249800772373945 0.2291693510488919 0.22520044479921836
0.215523475988055 0.23207247008788884 0.22809516629487658
0.21855549538745817 0.23498142588819637 0.23099582246991335
0.22150765305426962 0.2379219260977275 0.23389020338796268
0.2244635319624827 0.2408690732676818 0.23679004305605
0.22742558986466221 0.24382208913558373 0.2396956583296181
0.23039378894126633 0.24678093899892056 0.2426070149699016
0.23337191993415962 0.24974514452852475 0.24551617295741812
0.2363702162772518 0.2527134778728159 0.24840184881759964
0.23937458276106655 0.25568753510583736 0.25129302235353435
0.24233686989217484 0.25868455228999493 0.2541484661861883
0.2452764307259912 0.26169755956783997 0.2569847243811786
0.24821260969509013 0.2647220609129487 0.2597883007906147
0.251151932381958 0.2677573886013757 0.26254392285382827
0.25419749428931004 0.2707866510505329 0.2650953165082212
0.2572797747516941 0.27382848607567956 0.2674574463290622
0.26033447090635164 0.2768909833250616 0.2697559067630183
0.2632810638133517 0.2799744086574969 0.27227107473555895
0.2663690216601432 0.28301786354161357 0.2748670199014825
0.26958775623838416 0.2860407371261511 0.2773423153231756
0.27286392035188534 0.289055283503847 0.27980472989384086
0.27617107225348697 0.2920663583833878 0.2822876080715969
0.27948244336716715 0.29508229979872724 0.2847834152176387
0.2827943666329554 0.2981040369910306 0.2872935451794451
0.2861375054549862 0.30112182727172937 0.28982742411302326
0.2895476994685519 0.30412501190252694 0.29238625363074344
0.2930230634662269 0.3071145095315165 0.2949637556688524
0.29651355667943435 0.31010346894850865 0.29757765160518834
0.2999917388399599 0.3130990289118958 0.3002393183324139
0.3034420215972325 0.31610566975904564 0.30295056478383936
0.30686763617922597 0.3191235689489464 0.30569778838278994
0.31027030474712713 0.32215359123938925 0.30846419086835786
0.31366300995263563 0.3251930408084239 0.31123548571761245
0.3170538061272938 0.3282405207316316 0.31399909295224404
0.32044983064006044 0.33129540330951013 0.3167360059503644
0.3238510602724919 0.33435546266972355 0.3194736660960513
0.327257078054904 0.33742023052262626 0.3222191025105044
0.33066810856735795 0.340489752063573 0.32497054977587236
0.3340840426511914 0.3435642248633726 0.32772558086650333
0.337504826390113 0.34664384861778536 0.3304815324042968
0.3409305856563721 0.3497286217827588 0.33323758197475944
0.3443610056382607 0.3528186383565058 0.33599337241689886
0.3477951326173574 0.3559140003526547 0.3387508754629897
0.3512303996175714 0.35901507669820865 0.34151486353052163
0.3546651821855921 0.36212205496746924 0.34428887124742635
0.3580967325174847 0.36523546575740684 0.34707644149962064
0.36152225803327337 0.36835590333397794 0.3498805454978528
0.3649411502498109 0.37148349725684093 0.35270170401081685
0.3683506422535109 0.37461890405574677 0.35554206945975425
0.3717523908165335 0.37776182948794457 0.3583988448681173
0.37514497816170467 0.3809126529299702 0.36127250817296974
0.37852945359330664 0.3840711628078798 0.3641615127973109
0.3819056625671143 0.3872374081403949 0.3670656329252623
0.3852747077960522 0.3904111715781411 0.36998315052684494
0.38863697932189756 0.39359240258305384 0.3729129684392509
0.3919946213358678 0.3967806206759304 0.37585263277993713
0.3953488738596436 0.39997566553534036 0.3787991105449715
0.39870170116249126 0.4031771041800788 0.38174999587767683
0.4020537243735169 0.40638487184629424 0.38470340811962916
0.4054083378809287 0.4095979768658916 0.3876584353709402
0.40876803161544306 0.4128156194851138 0.39061521992510834
0.41213421449061954 0.4160372768538048 0.39357457989036043
0.4155087925706462 0.4192622797949045 0.3965372470306611
0.41889154409121815 0.4224905602638972 0.3995046038324601
0.42228149623139194 0.425722255690761 0.40247835966718803
0.425676820244888 0.4289577878235773 0.4054599679689256
0.42907477858116927 0.43219760626038445 0.40845409407554445
0.4324734160465408 0.43544219139820906 0.4114619871276911
0.4358711928699561 0.438691756476936 0.4144866810139564
0.43926812393953124 0.44194629770233634 0.4175279003348903
0.44266326142705453 0.44520595030502647 0.42058736963023163
0.4460577919734681 0.4484704915404523 0.42366301105897
0.4494524421361979 0.4517397413781578 0.42675399684462484
0.4528474203725819 0.4550134256157646 0.42986271952038485
0.4562443904999521 0.45829135718423825 0.43298476232534927
0.45964395985386924 0.46157330480762176 0.43612040197333146
0.46304662232776345 0.4648592234280455 0.43926799398245636
0.46645250249316855 0.46814927790205835 0.44242467700814164
0.46986113249106604 0.47144342192197214 0.4455925956978482
0.4732724080329523 0.47474207007742036 0.4487666228322649
0.476685861015508 0.47804532711308806 0.4519469951407375
0.48010140772707205 0.4813533523043673 0.45513175305208625
0.48351972166926566 0.4846659435741834 0.4583205520829415
0.48693980239733076 0.4879835917457867 0.46151082934852544
0.4903630123126284 0.49130578396081 0.4647034814784366
0.49378838425582844 0.4946330206148332 0.4678956992164392
0.4972171616750501 0.49796483640279504 0.47108824325473947
0.5006493185972032 0.50130128510286 0.4742802758015244
0.5040845491569957 0.5046426021512225 0.47746975750267434
0.5075236430972205 0.5079882985429807 0.4806595322293136
0.510963531101031 0.5113397660198062 0.48384376550399283
0.5144061027287387 0.5146959125423308 0.4870286311200644
0.5178491547645857 0.518057558285148 0.49021214750006564
0.5212927818887367 0.5214243886251085 0.49339769204074996
0.5247383288576841 0.5247959046989004 0.4965860606466919
0.5281832587791397 0.5281726193975462 0.49978049408699426
0.5316305742701787 0.5315535904302506 0.5029808895520467
0.5350785075745008 0.5349391385140417 0.5061899026728703
0.5385276259355729 0.5383289902606297 0.5094085346905765
0.541978770991651 0.5417230004905252 0.5126350797246616
0.5454306290249028 0.5451211640776239 0.5158745461334824
0.5488853974398168 0.5485231950194278 0.5191216751560054
0.5523423366154074 0.551928896073668 0.5223816524573243
0.5558027731724906 0.555338026482023 0.5256520756491602
0.5592667617027725 0.5587504708783644 0.5289339640424858
0.562735253026697 0.5621657013967464 0.5322300371401112
0.5662079032998525 0.565584216755774 0.5355350979261149
0.5696862935185255 0.5690050057594445 0.5388555112228354
0.5731692479916893 0.5724290668897681 0.5421830248161287
0.5766583968878248 0.5758555418335825 0.5455218716876712
0.5801529601249922 0.5792850380432065 0.5488672035072453
0.5836537355678589 0.5827172306041805 0.5522197735867502
0.58716085459118 0.5861521972231505 0.5555778604158118
0.5906736873009908 0.5895901701452797 0.5589407867350658
0.5941942050962146 0.5930305218381564 0.5623085176713076
0.5977204193127601 0.5964739142136763 0.5656802909262227
0.6012541628975291 0.599919706153494 0.5690567895951273
0.604793188714617 0.6033686222965753 0.5724374816300449
