obsidian/Clippings/写真家活動/技法探求/デジネガ/QTR/プロファイル作成/QTR-DN/QTR-DN/古い/QUAD1/Untitled9H.cube
#Color Lookup Table 
TITLE "QuadToneProfiler Color Lookup Table for 256-step Linearity Correction
LUT_1D_SIZE 256
DOMAIN_MIN 0.0 0.0 0.0
DOMAIN_MAX 1.0 1.0 1.0
0.0 0.0 0.0
0.01903101653526787 0.01903101653526787 0.01903101653526787
0.021009581021837906 0.021009581021837906 0.021009581021837906
0.02275481436125778 0.02275481436125778 0.02275481436125778
0.024181115968109682 0.024181115968109682 0.024181115968109682
0.025352900219103403 0.025352900219103403 0.025352900219103403
0.02652468447009719 0.02652468447009719 0.02652468447009719
0.027659316845797144 0.027659316845797144 0.027659316845797144
0.028653764835824203 0.028653764835824203 0.028653764835824203
0.029648212825851263 0.029648212825851263 0.029648212825851263
0.030642660815878377 0.030642660815878377 0.030642660815878377
0.031638212018221014 0.031638212018221014 0.031638212018221014
0.03263680684887404 0.03263680684887404 0.03263680684887404
0.03363540167952701 0.03363540167952701 0.03363540167952701
0.03463399651018004 0.03463399651018004 0.03463399651018004
0.03562354309499515 0.03562354309499515 0.03562354309499515
0.03659544299577217 0.03659544299577217 0.03659544299577217
0.03756734289654919 0.03756734289654919 0.03756734289654919
0.03853924279732626 0.03853924279732626 0.03853924279732626
0.03950845593834658 0.03950845593834658 0.03950845593834658
0.04047151777932046 0.04047151777932046 0.04047151777932046
0.0414345796202943 0.0414345796202943 0.0414345796202943
0.04239764146126819 0.04239764146126819 0.04239764146126819
0.043361225366649395 0.043361225366649395 0.043361225366649395
0.04432653730343341 0.04432653730343341 0.04432653730343341
0.04529184924021742 0.04529184924021742 0.04529184924021742
0.04625716117700148 0.04625716117700148 0.04625716117700148
0.04722673398927316 0.04722673398927316 0.04722673398927316
0.048217179347477976 0.048217179347477976 0.048217179347477976
0.04920762470568274 0.04920762470568274 0.04920762470568274
0.05019807006388755 0.05019807006388755 0.05019807006388755
0.05119506245644428 0.05119506245644428 0.05119506245644428
0.05221666473397166 0.05221666473397166 0.05221666473397166
0.05323826701149904 0.05323826701149904 0.05323826701149904
0.05425986928902647 0.05425986928902647 0.05425986928902647
0.055305381102969446 0.055305381102969446 0.055305381102969446
0.05639134528534873 0.05639134528534873 0.05639134528534873
0.05747730946772796 0.05747730946772796 0.05747730946772796
0.058563273650107245 0.058563273650107245 0.058563273650107245
0.05968207003971088 0.05968207003971088 0.05968207003971088
0.06081121484151868 0.06081121484151868 0.06081121484151868
0.06194035964332649 0.06194035964332649 0.06194035964332649
0.06307103579227112 0.06307103579227112 0.06307103579227112
0.06420551067581497 0.06420551067581497 0.06420551067581497
0.06533998555935887 0.06533998555935887 0.06533998555935887
0.0664744604429027 0.0664744604429027 0.0664744604429027
0.06762796628406625 0.06762796628406625 0.06762796628406625
0.06878535410566147 0.06878535410566147 0.06878535410566147
0.06994274192725666 0.06994274192725666 0.06994274192725666
0.07111565676405256 0.07111565676405256 0.07111565676405256
0.07230815099895786 0.07230815099895786 0.07230815099895786
0.07350064523386311 0.07350064523386311 0.07350064523386311
0.07469934458877983 0.07469934458877983 0.07469934458877983
0.07593219962634186 0.07593219962634186 0.07593219962634186
0.07716505466390396 0.07716505466390396 0.07716505466390396
0.07839790970146598 0.07839790970146598 0.07839790970146598
0.07968787259131069 0.07968787259131069 0.07968787259131069
0.08097942878097092 0.08097942878097092 0.08097942878097092
0.08227098497063119 0.08227098497063119 0.08227098497063119
0.08361714874055909 0.08361714874055909 0.08361714874055909
0.0849670124362052 0.0849670124362052 0.0849670124362052
0.08631885577903776 0.08631885577903776 0.08631885577903776
0.08773179442117673 0.08773179442117673 0.08773179442117673
0.08914473306331562 0.08914473306331562 0.08914473306331562
0.09057321627138348 0.09057321627138348 0.09057321627138348
0.09204689586046637 0.09204689586046637 0.09204689586046637
0.09352057544954935 0.09352057544954935 0.09352057544954935
0.0950212014236325 0.0950212014236325 0.0950212014236325
0.09654018100825407 0.09654018100825407 0.09654018100825407
0.0980597919263117 0.0980597919263117 0.0980597919263117
0.09962685308984337 0.09962685308984337 0.09962685308984337
0.10119391425337497 0.10119391425337497 0.10119391425337497
0.10277959967049095 0.10277959967049095 0.10277959967049095
0.1043831338020122 0.1043831338020122 0.1043831338020122
0.10598935579034777 0.10598935579034777 0.10598935579034777
0.10763420776166305 0.10763420776166305 0.10763420776166305
0.10927905973297841 0.10927905973297841 0.10927905973297841
0.11095095834206306 0.11095095834206306 0.11095095834206306
0.1126355318377345 0.1126355318377345 0.1126355318377345
0.1143368936339331 0.1143368936339331 0.1143368936339331
0.11606902919846246 0.11606902919846246 0.11606902919846246
0.11780692793664096 0.11780692793664096 0.11780692793664096
0.11960384100473137 0.11960384100473137 0.11960384100473137
0.12140075407282166 0.12140075407282166 0.12140075407282166
0.12326232582761276 0.12326232582761276 0.12326232582761276
0.12513056069333398 0.12513056069333398 0.12513056069333398
0.12707301830889636 0.12707301830889636 0.12707301830889636
0.12903316990325484 0.12903316990325484 0.12903316990325484
0.1310768782935505 0.1310768782935505 0.1310768782935505
0.13314058860147024 0.13314058860147024 0.13314058860147024
0.1353313586054971 0.1353313586054971 0.1353313586054971
0.13755427752589353 0.13755427752589353 0.13755427752589353
0.13990798278371838 0.13990798278371838 0.13990798278371838
0.1423337184496263 0.1423337184496263 0.1423337184496263
0.14484364894112384 0.14484364894112384 0.14484364894112384
0.14750292070643053 0.14750292070643053 0.14750292070643053
0.15023524658805287 0.15023524658805287 0.15023524658805287
0.15304576882414878 0.15304576882414878 0.15304576882414878
0.15598262042533192 0.15598262042533192 0.15598262042533192
0.15894561008341662 0.15894561008341662 0.15894561008341662
0.1619354629418034 0.1619354629418034 0.1619354629418034
0.1649483120414956 0.1649483120414956 0.1649483120414956
0.1679340958848629 0.1679340958848629 0.1679340958848629
0.17090469269888117 0.17090469269888117 0.17090469269888117
0.17385796427674824 0.17385796427674824 0.17385796427674824
0.17679292733493632 0.17679292733493632 0.17679292733493632
0.17970803442828207 0.17970803442828207 0.17970803442828207
0.18262285006109347 0.18262285006109347 0.18262285006109347
0.18553971185792206 0.18553971185792206 0.18553971185792206
0.18846477474115506 0.18846477474115506 0.18846477474115506
0.19145295798222675 0.19145295798222675 0.19145295798222675
0.19449111095482943 0.19449111095482943 0.19449111095482943
0.19758518460839325 0.19758518460839325 0.19758518460839325
0.20074160656363627 0.20074160656363627 0.20074160656363627
0.2039599099103234 0.2039599099103234 0.2039599099103234
0.2071924962480965 0.2071924962480965 0.2071924962480965
0.21043811670059065 0.21043811670059065 0.21043811670059065
0.21366826469841121 0.21366826469841121 0.21366826469841121
0.2168754937907823 0.2168754937907823 0.2168754937907823
0.2200633319982016 0.2200633319982016 0.2200633319982016
0.2232356300415573 0.2232356300415573 0.2232356300415573
0.2263936064328211 0.2263936064328211 0.2263936064328211
0.22957137055488694 0.22957137055488694 0.22957137055488694
0.2327734523333148 0.2327734523333148 0.2327734523333148
0.23600385335914742 0.23600385335914742 0.23600385335914742
0.2392735232668251 0.2392735232668251 0.2392735232668251
0.2425934963040397 0.2425934963040397 0.2425934963040397
0.24601185345892507 0.24601185345892507 0.24601185345892507
0.2495368519397264 0.2495368519397264 0.2495368519397264
0.2532225216710713 0.2532225216710713 0.2532225216710713
0.2571193161823059 0.2571193161823059 0.2571193161823059
0.2612992795265525 0.2612992795265525 0.2612992795265525
0.2658612410830984 0.2658612410830984 0.2658612410830984
0.27077118494656033 0.27077118494656033 0.27077118494656033
0.2760097473122539 0.2760097473122539 0.2760097473122539
0.281256927128155 0.281256927128155 0.281256927128155
0.2862798742095066 0.2862798742095066 0.2862798742095066
0.2909162023719568 0.2909162023719568 0.2909162023719568
0.2951495753139841 0.2951495753139841 0.2951495753139841
0.29907642426143066 0.29907642426143066 0.29907642426143066
0.30281340691414405 0.30281340691414405 0.30281340691414405
0.3064009042052551 0.3064009042052551 0.3064009042052551
0.3099453505672321 0.3099453505672321 0.3099453505672321
0.31344535404027635 0.31344535404027635 0.31344535404027635
0.31702246537264117 0.31702246537264117 0.31702246537264117
0.32068710354249474 0.32068710354249474 0.32068710354249474
0.3245176734561636 0.3245176734561636 0.3245176734561636
0.32857431139371374 0.32857431139371374 0.32857431139371374
0.3328859791240115 0.3328859791240115 0.3328859791240115
0.3375256426553894 0.3375256426553894 0.3375256426553894
0.34233936437690793 0.34233936437690793 0.34233936437690793
0.34720307135700246 0.34720307135700246 0.34720307135700246
0.351924238321822 0.351924238321822 0.351924238321822
0.35653238631873213 0.35653238631873213 0.35653238631873213
0.36105335754473705 0.36105335754473705 0.36105335754473705
0.36554749435583717 0.36554749435583717 0.36554749435583717
0.37004252464971776 0.37004252464971776 0.37004252464971776
0.3745990385145667 0.3745990385145667 0.3745990385145667
0.3792283248980162 0.3792283248980162 0.3792283248980162
0.38391974798818174 0.38391974798818174 0.38391974798818174
0.3887409121279841 0.3887409121279841 0.3887409121279841
0.39373863642923473 0.39373863642923473 0.39373863642923473
0.398918403226887 0.398918403226887 0.398918403226887
0.4041112085078138 0.4041112085078138 0.4041112085078138
0.40908672259592677 0.40908672259592677 0.40908672259592677
0.41381477864001653 0.41381477864001653 0.41381477864001653
0.4182882768931181 0.4182882768931181 0.4182882768931181
0.4225124472655356 0.4225124472655356 0.4225124472655356
0.4265229946995929 0.4265229946995929 0.4265229946995929
0.43034456044554253 0.43034456044554253 0.43034456044554253
0.434025958516527 0.434025958516527 0.434025958516527
0.43759025471560453 0.43759025471560453 0.43759025471560453
0.44107964045898806 0.44107964045898806 0.44107964045898806
0.44452244244952377 0.44452244244952377 0.44452244244952377
0.4479460197565159 0.4479460197565159 0.4479460197565159
0.4514053254816269 0.4514053254816269 0.4514053254816269
0.45493385065514574 0.45493385065514574 0.45493385065514574
0.4585963577094144 0.4585963577094144 0.4585963577094144
0.4624549411252877 0.4624549411252877 0.4624549411252877
0.4665056745006658 0.4665056745006658 0.4665056745006658
0.4708151418561354 0.4708151418561354 0.4708151418561354
0.47525438591458213 0.47525438591458213 0.47525438591458213
0.47971686841139144 0.47971686841139144 0.47971686841139144
0.4841297188360615 0.4841297188360615 0.4841297188360615
0.48843422419223487 0.48843422419223487 0.48843422419223487
0.4925889815598591 0.4925889815598591 0.4925889815598591
0.4965832006519257 0.4965832006519257 0.4965832006519257
0.500406242893715 0.500406242893715 0.500406242893715
0.5040999916376804 0.5040999916376804 0.5040999916376804
0.5077070565889958 0.5077070565889958 0.5077070565889958
0.5112734152066958 0.5112734152066958 0.5112734152066958
0.5148624084930217 0.5148624084930217 0.5148624084930217
0.518535872662532 0.518535872662532 0.518535872662532
0.5223874182863381 0.5223874182863381 0.5223874182863381
0.5265668102932257 0.5265668102932257 0.5265668102932257
0.5310764515301767 0.5310764515301767 0.5310764515301767
0.5358955802851022 0.5358955802851022 0.5358955802851022
0.5407564077054876 0.5407564077054876 0.5407564077054876
0.5454544628300261 0.5454544628300261 0.5454544628300261
0.5497965281914791 0.5497965281914791 0.5497965281914791
0.5538739132564795 0.5538739132564795 0.5538739132564795
0.5577092653111067 0.5577092653111067 0.5577092653111067
0.5614247607198394 0.5614247607198394 0.5614247607198394
0.5651140070975319 0.5651140070975319 0.5651140070975319
0.568841723678242 0.568841723678242 0.568841723678242
0.5727793924313999 0.5727793924313999 0.5727793924313999
0.5769881574160003 0.5769881574160003 0.5769881574160003
0.5816882928291242 0.5816882928291242 0.5816882928291242
0.5869390120134486 0.5869390120134486 0.5869390120134486
0.5927382667567427 0.5927382667567427 0.5927382667567427
0.5985875478485392 0.5985875478485392 0.5985875478485392
0.6039746860623408 0.6039746860623408 0.6039746860623408
0.6087299184357222 0.6087299184357222 0.6087299184357222
0.6129966454767728 0.6129966454767728 0.6129966454767728
0.6169606010928129 0.6169606010928129 0.6169606010928129
0.6207347184217763 0.6207347184217763 0.6207347184217763
0.6243983332377713 0.6243983332377713 0.6243983332377713
0.6280548702727135 0.6280548702727135 0.6280548702727135
0.6317164855801018 0.6317164855801018 0.6317164855801018
0.6354739883491065 0.6354739883491065 0.6354739883491065
0.6393323912175579 0.6393323912175579 0.6393323912175579
0.6433706928987458 0.6433706928987458 0.6433706928987458
0.6476003081203221 0.6476003081203221 0.6476003081203221
0.6520503929465359 0.6520503929465359 0.6520503929465359
0.6567184326373918 0.6567184326373918 0.6567184326373918
0.661580308149364 0.661580308149364 0.661580308149364
0.6665634078729451 0.6665634078729451 0.6665634078729451
0.6716267846373606 0.6716267846373606 0.6716267846373606
0.6766849846439555 0.6766849846439555 0.6766849846439555
0.6817147840218809 0.6817147840218809 0.6817147840218809
0.6866951146106505 0.6866951146106505 0.6866951146106505
0.6916216815193146 0.6916216815193146 0.6916216815193146
0.6965073326934791 0.6965073326934791 0.6965073326934791
0.7013614201583812 0.7013614201583812 0.7013614201583812
0.7061997154939011 0.7061997154939011 0.7061997154939011
0.7110719732336521 0.7110719732336521 0.7110719732336521
0.7161051633010015 0.7161051633010015 0.7161051633010015
0.7213331360934889 0.7213331360934889 0.7213331360934889
0.7267564311483661 0.7267564311483661 0.7267564311483661
0.7320699720731467 0.7320699720731467 0.7320699720731467
0.737149047088855 0.737149047088855 0.737149047088855
0.7419215088952669 0.7419215088952669 0.7419215088952669
0.7464856541260296 0.7464856541260296 0.7464856541260296
0.7509150303404739 0.7509150303404739 0.7509150303404739
0.7552921597529274 0.7552921597529274 0.7552921597529274
0.7597178072068101 0.7597178072068101 0.7597178072068101
0.7642697911838644 0.7642697911838644 0.7642697911838644
0.7691491033828646 0.7691491033828646 0.7691491033828646
0.7745575869993799 0.7745575869993799 0.7745575869993799
0.7808918654426286 0.7808918654426286 0.7808918654426286
0.7891367723814343 0.7891367723814343 0.7891367723814343
0.7999552205039495 0.7999552205039495 0.7999552205039495
0.8113309734689551 0.8113309734689551 0.8113309734689551
0.9558076598956098 0.9558076598956098 0.9558076598956098
0.8623324237785371 0.8623324237785371 0.8623324237785371
1.0 1.0 1.0
0.0 0.0 0.0
0.01903101653526787 0.01903101653526787 0.01903101653526787
0.021009581021837906 0.021009581021837906 0.021009581021837906
0.02275481436125778 0.02275481436125778 0.02275481436125778
0.024181115968109682 0.024181115968109682 0.024181115968109682
0.025352900219103403 0.025352900219103403 0.025352900219103403
0.02652468447009719 0.02652468447009719 0.02652468447009719
0.027659316845797144 0.027659316845797144 0.027659316845797144
0.028653764835824203 0.028653764835824203 0.028653764835824203
0.029648212825851263 0.029648212825851263 0.029648212825851263
0.030642660815878377 0.030642660815878377 0.030642660815878377
0.031638212018221014 0.031638212018221014 0.031638212018221014
0.03263680684887404 0.03263680684887404 0.03263680684887404
0.03363540167952701 0.03363540167952701 0.03363540167952701
0.03463399651018004 0.03463399651018004 0.03463399651018004
0.03562354309499515 0.03562354309499515 0.03562354309499515
0.03659544299577217 0.03659544299577217 0.03659544299577217
0.03756734289654919 0.03756734289654919 0.03756734289654919
0.03853924279732626 0.03853924279732626 0.03853924279732626
0.03950845593834658 0.03950845593834658 0.03950845593834658
0.04047151777932046 0.04047151777932046 0.04047151777932046
0.0414345796202943 0.0414345796202943 0.0414345796202943
0.04239764146126819 0.04239764146126819 0.04239764146126819
0.043361225366649395 0.043361225366649395 0.043361225366649395
0.04432653730343341 0.04432653730343341 0.04432653730343341
0.04529184924021742 0.04529184924021742 0.04529184924021742
0.04625716117700148 0.04625716117700148 0.04625716117700148
0.04722673398927316 0.04722673398927316 0.04722673398927316
0.048217179347477976 0.048217179347477976 0.048217179347477976
0.04920762470568274 0.04920762470568274 0.04920762470568274
0.05019807006388755 0.05019807006388755 0.05019807006388755
0.05119506245644428 0.05119506245644428 0.05119506245644428
0.05221666473397166 0.05221666473397166 0.05221666473397166
0.05323826701149904 0.05323826701149904 0.05323826701149904
0.05425986928902647 0.05425986928902647 0.05425986928902647
0.055305381102969446 0.055305381102969446 0.055305381102969446
0.05639134528534873 0.05639134528534873 0.05639134528534873
0.05747730946772796 0.05747730946772796 0.05747730946772796
0.058563273650107245 0.058563273650107245 0.058563273650107245
0.05968207003971088 0.05968207003971088 0.05968207003971088
0.06081121484151868 0.06081121484151868 0.06081121484151868
0.06194035964332649 0.06194035964332649 0.06194035964332649
0.06307103579227112 0.06307103579227112 0.06307103579227112
0.06420551067581497 0.06420551067581497 0.06420551067581497
0.06533998555935887 0.06533998555935887 0.06533998555935887
0.0664744604429027 0.0664744604429027 0.0664744604429027
0.06762796628406625 0.06762796628406625 0.06762796628406625
0.06878535410566147 0.06878535410566147 0.06878535410566147
0.06994274192725666 0.06994274192725666 0.06994274192725666
0.07111565676405256 0.07111565676405256 0.07111565676405256
0.07230815099895786 0.07230815099895786 0.07230815099895786
0.07350064523386311 0.07350064523386311 0.07350064523386311
0.07469934458877983 0.07469934458877983 0.07469934458877983
0.07593219962634186 0.07593219962634186 0.07593219962634186
0.07716505466390396 0.07716505466390396 0.07716505466390396
0.07839790970146598 0.07839790970146598 0.07839790970146598
0.07968787259131069 0.07968787259131069 0.07968787259131069
0.08097942878097092 0.08097942878097092 0.08097942878097092
0.08227098497063119 0.08227098497063119 0.08227098497063119
0.08361714874055909 0.08361714874055909 0.08361714874055909
0.0849670124362052 0.0849670124362052 0.0849670124362052
0.08631885577903776 0.08631885577903776 0.08631885577903776
0.08773179442117673 0.08773179442117673 0.08773179442117673
0.08914473306331562 0.08914473306331562 0.08914473306331562
0.09057321627138348 0.09057321627138348 0.09057321627138348
0.09204689586046637 0.09204689586046637 0.09204689586046637
0.09352057544954935 0.09352057544954935 0.09352057544954935
0.0950212014236325 0.0950212014236325 0.0950212014236325
0.09654018100825407 0.09654018100825407 0.09654018100825407
0.0980597919263117 0.0980597919263117 0.0980597919263117
0.09962685308984337 0.09962685308984337 0.09962685308984337
0.10119391425337497 0.10119391425337497 0.10119391425337497
0.10277959967049095 0.10277959967049095 0.10277959967049095
0.1043831338020122 0.1043831338020122 0.1043831338020122
0.10598935579034777 0.10598935579034777 0.10598935579034777
0.10763420776166305 0.10763420776166305 0.10763420776166305
0.10927905973297841 0.10927905973297841 0.10927905973297841
0.11095095834206306 0.11095095834206306 0.11095095834206306
0.1126355318377345 0.1126355318377345 0.1126355318377345
0.1143368936339331 0.1143368936339331 0.1143368936339331
0.11606902919846246 0.11606902919846246 0.11606902919846246
0.11780692793664096 0.11780692793664096 0.11780692793664096
0.11960384100473137 0.11960384100473137 0.11960384100473137
0.12140075407282166 0.12140075407282166 0.12140075407282166
0.12326232582761276 0.12326232582761276 0.12326232582761276
0.12513056069333398 0.12513056069333398 0.12513056069333398
0.12707301830889636 0.12707301830889636 0.12707301830889636
0.12903316990325484 0.12903316990325484 0.12903316990325484
0.1310768782935505 0.1310768782935505 0.1310768782935505
0.13314058860147024 0.13314058860147024 0.13314058860147024
0.1353313586054971 0.1353313586054971 0.1353313586054971
0.13755427752589353 0.13755427752589353 0.13755427752589353
0.13990798278371838 0.13990798278371838 0.13990798278371838
0.1423337184496263 0.1423337184496263 0.1423337184496263
0.14484364894112384 0.14484364894112384 0.14484364894112384
0.14750292070643053 0.14750292070643053 0.14750292070643053
0.15023524658805287 0.15023524658805287 0.15023524658805287
0.15304576882414878 0.15304576882414878 0.15304576882414878
0.15598262042533192 0.15598262042533192 0.15598262042533192
0.15894561008341662 0.15894561008341662 0.15894561008341662
0.1619354629418034 0.1619354629418034 0.1619354629418034
0.1649483120414956 0.1649483120414956 0.1649483120414956
0.1679340958848629 0.1679340958848629 0.1679340958848629
0.17090469269888117 0.17090469269888117 0.17090469269888117
0.17385796427674824 0.17385796427674824 0.17385796427674824
0.17679292733493632 0.17679292733493632 0.17679292733493632
0.17970803442828207 0.17970803442828207 0.17970803442828207
0.18262285006109347 0.18262285006109347 0.18262285006109347
0.18553971185792206 0.18553971185792206 0.18553971185792206
0.18846477474115506 0.18846477474115506 0.18846477474115506
0.19145295798222675 0.19145295798222675 0.19145295798222675
0.19449111095482943 0.19449111095482943 0.19449111095482943
0.19758518460839325 0.19758518460839325 0.19758518460839325
0.20074160656363627 0.20074160656363627 0.20074160656363627
0.2039599099103234 0.2039599099103234 0.2039599099103234
0.2071924962480965 0.2071924962480965 0.2071924962480965
0.21043811670059065 0.21043811670059065 0.21043811670059065
0.21366826469841121 0.21366826469841121 0.21366826469841121
0.2168754937907823 0.2168754937907823 0.2168754937907823
0.2200633319982016 0.2200633319982016 0.2200633319982016
0.2232356300415573 0.2232356300415573 0.2232356300415573
0.2263936064328211 0.2263936064328211 0.2263936064328211
0.22957137055488694 0.22957137055488694 0.22957137055488694
0.2327734523333148 0.2327734523333148 0.2327734523333148
0.23600385335914742 0.23600385335914742 0.23600385335914742
0.2392735232668251 0.2392735232668251 0.2392735232668251
0.2425934963040397 0.2425934963040397 0.2425934963040397
0.24601185345892507 0.24601185345892507 0.24601185345892507
0.2495368519397264 0.2495368519397264 0.2495368519397264
0.2532225216710713 0.2532225216710713 0.2532225216710713
0.2571193161823059 0.2571193161823059 0.2571193161823059
0.2612992795265525 0.2612992795265525 0.2612992795265525
0.2658612410830984 0.2658612410830984 0.2658612410830984
0.27077118494656033 0.27077118494656033 0.27077118494656033
0.2760097473122539 0.2760097473122539 0.2760097473122539
0.281256927128155 0.281256927128155 0.281256927128155
0.2862798742095066 0.2862798742095066 0.2862798742095066
0.2909162023719568 0.2909162023719568 0.2909162023719568
0.2951495753139841 0.2951495753139841 0.2951495753139841
0.29907642426143066 0.29907642426143066 0.29907642426143066
0.30281340691414405 0.30281340691414405 0.30281340691414405
0.3064009042052551 0.3064009042052551 0.3064009042052551
0.3099453505672321 0.3099453505672321 0.3099453505672321
0.31344535404027635 0.31344535404027635 0.31344535404027635
0.31702246537264117 0.31702246537264117 0.31702246537264117
0.32068710354249474 0.32068710354249474 0.32068710354249474
0.3245176734561636 0.3245176734561636 0.3245176734561636
0.32857431139371374 0.32857431139371374 0.32857431139371374
0.3328859791240115 0.3328859791240115 0.3328859791240115
0.3375256426553894 0.3375256426553894 0.3375256426553894
0.34233936437690793 0.34233936437690793 0.34233936437690793
