obsidian/Clippings/写真家活動/技法探求/デジネガ/QTR/プロファイル作成/QTR-DN/QTR-DN/古い/QUAD1/Untitled8-3.cube
#Color Lookup Table 
TITLE "QuadToneProfiler Color Lookup Table for 256-step Linearity Correction
LUT_1D_SIZE 256
DOMAIN_MIN 0.0 0.0 0.0
DOMAIN_MAX 1.0 1.0 1.0
0.0 0.0 0.0
0.00477042394873128 0.00477042394873128 0.00477042394873128
0.007842642462508695 0.007842642462508695 0.007842642462508695
0.011214293802085884 0.011214293802085884 0.011214293802085884
0.014486053234932895 0.014486053234932895 0.014486053234932895
0.01776312395743276 0.01776312395743276 0.01776312395743276
0.021130829768040482 0.021130829768040482 0.021130829768040482
0.024836125154004636 0.024836125154004636 0.024836125154004636
0.0290978280571225 0.0290978280571225 0.0290978280571225
0.03300559333595176 0.03300559333595176 0.03300559333595176
0.036349408948040215 0.036349408948040215 0.036349408948040215
0.039405585027534794 0.039405585027534794 0.039405585027534794
0.0421120283504939 0.0421120283504939 0.0421120283504939
0.044712073535980765 0.044712073535980765 0.044712073535980765
0.04724696011375637 0.04724696011375637 0.04724696011375637
0.049778412464108246 0.049778412464108246 0.049778412464108246
0.05232222130949453 0.05232222130949453 0.05232222130949453
0.054877201694227724 0.054877201694227724 0.054877201694227724
0.05758632588724173 0.05758632588724173 0.05758632588724173
0.06038107103590274 0.06038107103590274 0.06038107103590274
0.06329212489016578 0.06329212489016578 0.06329212489016578
0.06641858292410047 0.06641858292410047 0.06641858292410047
0.0697177353456861 0.0697177353456861 0.0697177353456861
0.07303766648002011 0.07303766648002011 0.07303766648002011
0.07639380440773305 0.07639380440773305 0.07639380440773305
0.07980179565098795 0.07980179565098795 0.07980179565098795
0.08326780189052016 0.08326780189052016 0.08326780189052016
0.08681077686260932 0.08681077686260932 0.08681077686260932
0.09046741621526787 0.09046741621526787 0.09046741621526787
0.09423067449115326 0.09423067449115326 0.09423067449115326
0.0981124274915379 0.0981124274915379 0.0981124274915379
0.10205317039977616 0.10205317039977616 0.10205317039977616
0.10590388353017847 0.10590388353017847 0.10590388353017847
0.10966991037206396 0.10966991037206396 0.10966991037206396
0.11325951087046268 0.11325951087046268 0.11325951087046268
0.11674467720569728 0.11674467720569728 0.11674467720569728
0.12020257470987052 0.12020257470987052 0.12020257470987052
0.12365086347952298 0.12365086347952298 0.12365086347952298
0.12714000247459242 0.12714000247459242 0.12714000247459242
0.13070095270200988 0.13070095270200988 0.13070095270200988
0.1342959361438053 0.1342959361438053 0.1342959361438053
0.1378811087221453 0.1378811087221453 0.1378811087221453
0.14147128136961593 0.14147128136961593 0.14147128136961593
0.1450840313123003 0.1450840313123003 0.1450840313123003
0.14871743030380244 0.14871743030380244 0.14871743030380244
0.15236677137949195 0.15236677137949195 0.15236677137949195
0.15603234916093067 0.15603234916093067 0.15603234916093067
0.15971322176964564 0.15971322176964564 0.15971322176964564
0.16340914748624555 0.16340914748624555 0.16340914748624555
0.16711842540596936 0.16711842540596936 0.16711842540596936
0.17084044270887508 0.17084044270887508 0.17084044270887508
0.17457446555549383 0.17457446555549383 0.17457446555549383
0.178319296045606 0.178319296045606 0.178319296045606
0.1820714111720184 0.1820714111720184 0.1820714111720184
0.18582701736141083 0.18582701736141083 0.18582701736141083
0.1895810782209854 0.1895810782209854 0.1895810782209854
0.19332631286899205 0.19332631286899205 0.19332631286899205
0.19706100763015733 0.19706100763015733 0.19706100763015733
0.20077995502735668 0.20077995502735668 0.20077995502735668
0.20448313269312857 0.20448313269312857 0.20448313269312857
0.20816783759018656 0.20816783759018656 0.20816783759018656
0.21183526083160015 0.21183526083160015 0.21183526083160015
0.2154898030328579 0.2154898030328579 0.2154898030328579
0.219132447794528 0.219132447794528 0.219132447794528
0.22277287260298462 0.22277287260298462 0.22277287260298462
0.22641136455990526 0.22641136455990526 0.22641136455990526
0.23005481959902746 0.23005481959902746 0.23005481959902746
0.23370511493277657 0.23370511493277657 0.23370511493277657
0.23736622159765905 0.23736622159765905 0.23736622159765905
0.24104069162719835 0.24104069162719835 0.24104069162719835
0.24473117402370342 0.24473117402370342 0.24473117402370342
0.2484409953363616 0.2484409953363616 0.2484409953363616
0.2521705759541724 0.2521705759541724 0.2521705759541724
0.2559204681862857 0.2559204681862857 0.2559204681862857
0.25968961288806947 0.25968961288806947 0.25968961288806947
0.26347362641365935 0.26347362641365935 0.26347362641365935
0.2672710940629541 0.2672710940629541 0.2672710940629541
0.271072812378771 0.271072812378771 0.271072812378771
0.27487745028601773 0.27487745028601773 0.27487745028601773
0.2786721300692231 0.2786721300692231 0.2786721300692231
0.282456365579405 0.282456365579405 0.282456365579405
0.2862199942508905 0.2862199942508905 0.2862199942508905
0.289962292121737 0.289962292121737 0.289962292121737
0.2936836676202284 0.2936836676202284 0.2936836676202284
0.2973835421489173 0.2973835421489173 0.2973835421489173
0.3010709597773468 0.3010709597773468 0.3010709597773468
0.3047472880324389 0.3047472880324389 0.3047472880324389
0.30841983882223745 0.30841983882223745 0.30841983882223745
0.31209191899729655 0.31209191899729655 0.31209191899729655
0.3157631720913758 0.3157631720913758 0.3157631720913758
0.3194332364446561 0.3194332364446561 0.3194332364446561
0.3231012094083677 0.3231012094083677 0.3231012094083677
0.32676547034186393 0.32676547034186393 0.32676547034186393
0.3304268408185998 0.3304268408185998 0.3304268408185998
0.33408839692606224 0.33408839692606224 0.33408839692606224
0.3377510688758437 0.3377510688758437 0.3377510688758437
0.34142567222294523 0.34142567222294523 0.34142567222294523
0.34511337656802143 0.34511337656802143 0.34511337656802143
0.34882510466619016 0.34882510466619016 0.34882510466619016
0.35256176578946785 0.35256176578946785 0.35256176578946785
0.35632594047662036 0.35632594047662036 0.35632594047662036
0.36011979583534576 0.36011979583534576 0.36011979583534576
0.36394048903272247 0.36394048903272247 0.36394048903272247
0.36778954950931436 0.36778954950931436 0.36778954950931436
0.3716561231525332 0.3716561231525332 0.3716561231525332
0.3755370879968632 0.3755370879968632 0.3755370879968632
0.379418173970088 0.379418173970088 0.379418173970088
0.383291418253692 0.383291418253692 0.383291418253692
0.38715114903052483 0.38715114903052483 0.38715114903052483
0.3909939529036506 0.3909939529036506 0.3909939529036506
0.394818246678281 0.394818246678281 0.394818246678281
0.39862264629442806 0.39862264629442806 0.39862264629442806
0.40240903685637264 0.40240903685637264 0.40240903685637264
0.40617852855662795 0.40617852855662795 0.40617852855662795
0.4099349116126378 0.4099349116126378 0.4099349116126378
0.4136822611269645 0.4136822611269645 0.4136822611269645
0.41742218864365477 0.41742218864365477 0.41742218864365477
0.42115529612008445 0.42115529612008445 0.42115529612008445
0.4248826055733746 0.4248826055733746 0.4248826055733746
0.4286060746048543 0.4286060746048543 0.4286060746048543
0.43232633831737854 0.43232633831737854 0.43232633831737854
0.4360421643137091 0.4360421643137091 0.4360421643137091
0.43975352094028786 0.43975352094028786 0.43975352094028786
0.44345653897813664 0.44345653897813664 0.44345653897813664
0.44714873490917606 0.44714873490917606 0.44714873490917606
0.4508326045624579 0.4508326045624579 0.4508326045624579
0.4545084569279208 0.4545084569279208 0.4545084569279208
0.45817900674487816 0.45817900674487816 0.45817900674487816
0.46184434975280786 0.46184434975280786 0.46184434975280786
0.46550871040895914 0.46550871040895914 0.46550871040895914
0.4691747232336059 0.4691747232336059 0.4691747232336059
0.4728462857751681 0.4728462857751681 0.4728462857751681
0.4765278561396999 0.4765278561396999 0.4765278561396999
0.4802215734257727 0.4802215734257727 0.4802215734257727
0.4839289145655226 0.4839289145655226 0.4839289145655226
0.48765031234453715 0.48765031234453715 0.48765031234453715
0.491383534921092 0.491383534921092 0.491383534921092
0.4951273167067671 0.4951273167067671 0.4951273167067671
0.4988805365019152 0.4988805365019152 0.4988805365019152
0.5026421762105838 0.5026421762105838 0.5026421762105838
0.5064057364540833 0.5064057364540833 0.5064057364540833
0.5101663039982294 0.5101663039982294 0.5101663039982294
0.5139193151457938 0.5139193151457938 0.5139193151457938
0.5176566383898905 0.5176566383898905 0.5176566383898905
0.521383384251895 0.521383384251895 0.521383384251895
0.5251004334681952 0.5251004334681952 0.5251004334681952
0.5288151024976216 0.5288151024976216 0.5288151024976216
0.5325355644301488 0.5325355644301488 0.5325355644301488
0.5362652539884113 0.5362652539884113 0.5362652539884113
0.5400120904854898 0.5400120904854898 0.5400120904854898
0.5437753882420967 0.5437753882420967 0.5437753882420967
0.5475544989097952 0.5475544989097952 0.5475544989097952
0.5513456438026636 0.5513456438026636 0.5513456438026636
0.5551413952975814 0.5551413952975814 0.5551413952975814
0.5589366878708744 0.5589366878708744 0.5589366878708744
0.5627258251763029 0.5627258251763029 0.5627258251763029
0.5665047509491967 0.5665047509491967 0.5665047509491967
0.5702703274154818 0.5702703274154818 0.5702703274154818
0.5740212287231032 0.5740212287231032 0.5740212287231032
0.5777618284196955 0.5777618284196955 0.5777618284196955
0.5814965263317741 0.5814965263317741 0.5814965263317741
0.5852340082094679 0.5852340082094679 0.5852340082094679
0.5889859809630765 0.5889859809630765 0.5889859809630765
0.5927591929813292 0.5927591929813292 0.5927591929813292
0.5965690190874675 0.5965690190874675 0.5965690190874675
0.6004192639146302 0.6004192639146302 0.6004192639146302
0.6043235688317568 0.6043235688317568 0.6043235688317568
0.608285459152236 0.608285459152236 0.608285459152236
0.6123160001066748 0.6123160001066748 0.6123160001066748
0.6164186682461206 0.6164186682461206 0.6164186682461206
0.6206009500243209 0.6206009500243209 0.6206009500243209
0.624864813139822 0.624864813139822 0.624864813139822
0.6292119644880005 0.6292119644880005 0.6292119644880005
0.6336423772041703 0.6336423772041703 0.6336423772041703
0.6381558919232414 0.6381558919232414 0.6381558919232414
0.6427521978534415 0.6427521978534415 0.6427521978534415
0.6474368283923284 0.6474368283923284 0.6474368283923284
0.6522042980910918 0.6522042980910918 0.6522042980910918
0.6570415954422719 0.6570415954422719 0.6570415954422719
0.6619361408241552 0.6619361408241552 0.6619361408241552
0.6668635049687865 0.6668635049687865 0.6668635049687865
0.6718075578790537 0.6718075578790537 0.6718075578790537
0.6767381465985216 0.6767381465985216 0.6767381465985216
0.6816499955621496 0.6816499955621496 0.6816499955621496
0.6865369097380326 0.6865369097380326 0.6865369097380326
0.6913951801277287 0.6913951801277287 0.6913951801277287
0.6962296711258219 0.6962296711258219 0.6962296711258219
0.7010435186745084 0.7010435186745084 0.7010435186745084
0.7058509740021729 0.7058509740021729 0.7058509740021729
0.710662070093656 0.710662070093656 0.710662070093656
0.7154972061604761 0.7154972061604761 0.7154972061604761
0.7203652747830717 0.7203652747830717 0.7203652747830717
0.7252766655772378 0.7252766655772378 0.7252766655772378
0.7302464606452975 0.7302464606452975 0.7302464606452975
0.7352718298420216 0.7352718298420216 0.7352718298420216
0.7403507087122795 0.7403507087122795 0.7403507087122795
0.7454871717187178 0.7454871717187178 0.7454871717187178
0.7506857418377522 0.7506857418377522 0.7506857418377522
0.7559378390091439 0.7559378390091439 0.7559378390091439
0.7612279565982358 0.7612279565982358 0.7612279565982358
0.7665395206551637 0.7665395206551637 0.7665395206551637
0.7718427603803374 0.7718427603803374 0.7718427603803374
0.7771175985166704 0.7771175985166704 0.7771175985166704
0.782348944784236 0.782348944784236 0.782348944784236
0.7875225123128133 0.7875225123128133 0.7875225123128133
0.7926147938829672 0.7926147938829672 0.7926147938829672
0.7976147336622708 0.7976147336622708 0.7976147336622708
0.8025268339393815 0.8025268339393815 0.8025268339393815
0.807360308924251 0.807360308924251 0.807360308924251
0.8121186676662058 0.8121186676662058 0.8121186676662058
0.8168189945091089 0.8168189945091089 0.8168189945091089
0.8214747384425194 0.8214747384425194 0.8214747384425194
0.8260975680308762 0.8260975680308762 0.8260975680308762
0.8307040484717391 0.8307040484717391 0.8307040484717391
0.835304368275591 0.835304368275591 0.835304368275591
0.8399334508181708 0.8399334508181708 0.8399334508181708
0.8446025229485025 0.8446025229485025 0.8446025229485025
0.8493343409167167 0.8493343409167167 0.8493343409167167
0.854141330409487 0.854141330409487 0.854141330409487
0.8590388100062024 0.8590388100062024 0.8590388100062024
0.864047215745001 0.864047215745001 0.864047215745001
0.8691437028925172 0.8691437028925172 0.8691437028925172
0.8742838737653397 0.8742838737653397 0.8742838737653397
0.8794480007741836 0.8794480007741836 0.8794480007741836
0.8846375332335635 0.8846375332335635 0.8846375332335635
0.8899218920864302 0.8899218920864302 0.8899218920864302
0.8952685634631181 0.8952685634631181 0.8952685634631181
0.9006434048038391 0.9006434048038391 0.9006434048038391
0.9060654999966257 0.9060654999966257 0.9060654999966257
0.9115356264330174 0.9115356264330174 0.9115356264330174
0.9170391792841106 0.9170391792841106 0.9170391792841106
0.9225711498139593 0.9225711498139593 0.9225711498139593
0.9280943747825608 0.9280943747825608 0.9280943747825608
0.933669548860112 0.933669548860112 0.933669548860112
0.9394577071254611 0.9394577071254611 0.9394577071254611
0.9457870881149517 0.9457870881149517 0.9457870881149517
0.9533181435036434 0.9533181435036434 0.9533181435036434
0.9618799370741938 0.9618799370741938 0.9618799370741938
0.968343663599711 0.968343663599711 0.968343663599711
0.9728255376538651 0.9728255376538651 0.9728255376538651
0.976330257462618 0.976330257462618 0.976330257462618
0.9792173042258822 0.9792173042258822 0.9792173042258822
0.9818822981200358 0.9818822981200358 0.9818822981200358
0.9843883293534464 0.9843883293534464 0.9843883293534464
0.9863364214105459 0.9863364214105459 0.9863364214105459
0.9882721917809723 0.9882721917809723 0.9882721917809723
0.9897325939368641 0.9897325939368641 0.9897325939368641
0.9911929960927559 0.9911929960927559 0.9911929960927559
0.9925526437797623 0.9925526437797623 0.9925526437797623
0.9937167085287133 0.9937167085287133 0.9937167085287133
0.9948807732776643 0.9948807732776643 0.9948807732776643
0.9960448380266154 0.9960448380266154 0.9960448380266154
0.9967747057167997 0.9967747057167997 0.9967747057167997
0.9974916707081989 0.9974916707081989 0.9974916707081989
0.998208635699598 0.998208635699598 0.998208635699598
1.0 1.0 1.0
0.0 0.0 0.0
0.00477042394873128 0.00477042394873128 0.00477042394873128
0.007842642462508695 0.007842642462508695 0.007842642462508695
0.011214293802085884 0.011214293802085884 0.011214293802085884
0.014486053234932895 0.014486053234932895 0.014486053234932895
0.01776312395743276 0.01776312395743276 0.01776312395743276
0.021130829768040482 0.021130829768040482 0.021130829768040482
0.024836125154004636 0.024836125154004636 0.024836125154004636
0.0290978280571225 0.0290978280571225 0.0290978280571225
0.03300559333595176 0.03300559333595176 0.03300559333595176
0.036349408948040215 0.036349408948040215 0.036349408948040215
0.039405585027534794 0.039405585027534794 0.039405585027534794
0.0421120283504939 0.0421120283504939 0.0421120283504939
0.044712073535980765 0.044712073535980765 0.044712073535980765
0.04724696011375637 0.04724696011375637 0.04724696011375637
0.049778412464108246 0.049778412464108246 0.049778412464108246
0.05232222130949453 0.05232222130949453 0.05232222130949453
0.054877201694227724 0.054877201694227724 0.054877201694227724
0.05758632588724173 0.05758632588724173 0.05758632588724173
0.06038107103590274 0.06038107103590274 0.06038107103590274
0.06329212489016578 0.06329212489016578 0.06329212489016578
0.06641858292410047 0.06641858292410047 0.06641858292410047
0.0697177353456861 0.0697177353456861 0.0697177353456861
0.07303766648002011 0.07303766648002011 0.07303766648002011
0.07639380440773305 0.07639380440773305 0.07639380440773305
0.07980179565098795 0.07980179565098795 0.07980179565098795
0.08326780189052016 0.08326780189052016 0.08326780189052016
0.08681077686260932 0.08681077686260932 0.08681077686260932
0.09046741621526787 0.09046741621526787 0.09046741621526787
0.09423067449115326 0.09423067449115326 0.09423067449115326
0.0981124274915379 0.0981124274915379 0.0981124274915379
0.10205317039977616 0.10205317039977616 0.10205317039977616
0.10590388353017847 0.10590388353017847 0.10590388353017847
0.10966991037206396 0.10966991037206396 0.10966991037206396
0.11325951087046268 0.11325951087046268 0.11325951087046268
0.11674467720569728 0.11674467720569728 0.11674467720569728
0.12020257470987052 0.12020257470987052 0.12020257470987052
0.12365086347952298 0.12365086347952298 0.12365086347952298
0.12714000247459242 0.12714000247459242 0.12714000247459242
0.13070095270200988 0.13070095270200988 0.13070095270200988
0.1342959361438053 0.1342959361438053 0.1342959361438053
0.1378811087221453 0.1378811087221453 0.1378811087221453
0.14147128136961593 0.14147128136961593 0.14147128136961593
0.1450840313123003 0.1450840313123003 0.1450840313123003
0.14871743030380244 0.14871743030380244 0.14871743030380244
0.15236677137949195 0.15236677137949195 0.15236677137949195
0.15603234916093067 0.15603234916093067 0.15603234916093067
0.15971322176964564 0.15971322176964564 0.15971322176964564
0.16340914748624555 0.16340914748624555 0.16340914748624555
0.16711842540596936 0.16711842540596936 0.16711842540596936
0.17084044270887508 0.17084044270887508 0.17084044270887508
0.17457446555549383 0.17457446555549383 0.17457446555549383
0.178319296045606 0.178319296045606 0.178319296045606
0.1820714111720184 0.1820714111720184 0.1820714111720184
0.18582701736141083 0.18582701736141083 0.18582701736141083
0.1895810782209854 0.1895810782209854 0.1895810782209854
0.19332631286899205 0.19332631286899205 0.19332631286899205
0.19706100763015733 0.19706100763015733 0.19706100763015733
0.20077995502735668 0.20077995502735668 0.20077995502735668
0.20448313269312857 0.20448313269312857 0.20448313269312857
0.20816783759018656 0.20816783759018656 0.20816783759018656
0.21183526083160015 0.21183526083160015 0.21183526083160015
0.2154898030328579 0.2154898030328579 0.2154898030328579
0.219132447794528 0.219132447794528 0.219132447794528
0.22277287260298462 0.22277287260298462 0.22277287260298462
0.22641136455990526 0.22641136455990526 0.22641136455990526
0.23005481959902746 0.23005481959902746 0.23005481959902746
0.23370511493277657 0.23370511493277657 0.23370511493277657
0.23736622159765905 0.23736622159765905 0.23736622159765905
0.24104069162719835 0.24104069162719835 0.24104069162719835
0.24473117402370342 0.24473117402370342 0.24473117402370342
0.2484409953363616 0.2484409953363616 0.2484409953363616
0.2521705759541724 0.2521705759541724 0.2521705759541724
0.2559204681862857 0.2559204681862857 0.2559204681862857
0.25968961288806947 0.25968961288806947 0.25968961288806947
0.26347362641365935 0.26347362641365935 0.26347362641365935
0.2672710940629541 0.2672710940629541 0.2672710940629541
0.271072812378771 0.271072812378771 0.271072812378771
0.27487745028601773 0.27487745028601773 0.27487745028601773
0.2786721300692231 0.2786721300692231 0.2786721300692231
0.282456365579405 0.282456365579405 0.282456365579405
0.2862199942508905 0.2862199942508905 0.2862199942508905
0.289962292121737 0.289962292121737 0.289962292121737
0.2936836676202284 0.2936836676202284 0.2936836676202284
0.2973835421489173 0.2973835421489173 0.2973835421489173
0.3010709597773468 0.3010709597773468 0.3010709597773468
0.3047472880324389 0.3047472880324389 0.3047472880324389
0.30841983882223745 0.30841983882223745 0.30841983882223745
0.31209191899729655 0.31209191899729655 0.31209191899729655
0.3157631720913758 0.3157631720913758 0.3157631720913758
0.3194332364446561 0.3194332364446561 0.3194332364446561
0.3231012094083677 0.3231012094083677 0.3231012094083677
0.32676547034186393 0.32676547034186393 0.32676547034186393
0.3304268408185998 0.3304268408185998 0.3304268408185998
0.33408839692606224 0.33408839692606224 0.33408839692606224
0.3377510688758437 0.3377510688758437 0.3377510688758437
0.34142567222294523 0.34142567222294523 0.34142567222294523
0.34511337656802143 0.34511337656802143 0.34511337656802143
0.34882510466619016 0.34882510466619016 0.34882510466619016
0.35256176578946785 0.35256176578946785 0.35256176578946785
0.35632594047662036 0.35632594047662036 0.35632594047662036
0.36011979583534576 0.36011979583534576 0.36011979583534576
0.36394048903272247 0.36394048903272247 0.36394048903272247
0.36778954950931436 0.36778954950931436 0.36778954950931436
0.3716561231525332 0.3716561231525332 0.3716561231525332
0.3755370879968632 0.3755370879968632 0.3755370879968632
0.379418173970088 0.379418173970088 0.379418173970088
0.383291418253692 0.383291418253692 0.383291418253692
0.38715114903052483 0.38715114903052483 0.38715114903052483
0.3909939529036506 0.3909939529036506 0.3909939529036506
0.394818246678281 0.394818246678281 0.394818246678281
0.39862264629442806 0.39862264629442806 0.39862264629442806
0.40240903685637264 0.40240903685637264 0.40240903685637264
0.40617852855662795 0.40617852855662795 0.40617852855662795
0.4099349116126378 0.4099349116126378 0.4099349116126378
0.4136822611269645 0.4136822611269645 0.4136822611269645
0.41742218864365477 0.41742218864365477 0.41742218864365477
0.42115529612008445 0.42115529612008445 0.42115529612008445
0.4248826055733746 0.4248826055733746 0.4248826055733746
0.4286060746048543 0.4286060746048543 0.4286060746048543
0.43232633831737854 0.43232633831737854 0.43232633831737854
0.4360421643137091 0.4360421643137091 0.4360421643137091
0.43975352094028786 0.43975352094028786 0.43975352094028786
0.44345653897813664 0.44345653897813664 0.44345653897813664
0.44714873490917606 0.44714873490917606 0.44714873490917606
0.4508326045624579 0.4508326045624579 0.4508326045624579
0.4545084569279208 0.4545084569279208 0.4545084569279208
0.45817900674487816 0.45817900674487816 0.45817900674487816
0.46184434975280786 0.46184434975280786 0.46184434975280786
0.46550871040895914 0.46550871040895914 0.46550871040895914
0.4691747232336059 0.4691747232336059 0.4691747232336059
0.4728462857751681 0.4728462857751681 0.4728462857751681
0.4765278561396999 0.4765278561396999 0.4765278561396999
0.4802215734257727 0.4802215734257727 0.4802215734257727
0.4839289145655226 0.4839289145655226 0.4839289145655226
0.48765031234453715 0.48765031234453715 0.48765031234453715
0.491383534921092 0.491383534921092 0.491383534921092
0.4951273167067671 0.4951273167067671 0.4951273167067671
0.4988805365019152 0.4988805365019152 0.4988805365019152
0.5026421762105838 0.5026421762105838 0.5026421762105838
0.5064057364540833 0.5064057364540833 0.5064057364540833
0.5101663039982294 0.5101663039982294 0.5101663039982294
0.5139193151457938 0.5139193151457938 0.5139193151457938
0.5176566383898905 0.5176566383898905 0.5176566383898905
0.521383384251895 0.521383384251895 0.521383384251895
0.5251004334681952 0.5251004334681952 0.5251004334681952
0.5288151024976216 0.5288151024976216 0.5288151024976216
0.5325355644301488 0.5325355644301488 0.5325355644301488
0.5362652539884113 0.5362652539884113 0.5362652539884113
0.5400120904854898 0.5400120904854898 0.5400120904854898
0.5437753882420967 0.5437753882420967 0.5437753882420967
0.5475544989097952 0.5475544989097952 0.5475544989097952
0.5513456438026636 0.5513456438026636 0.5513456438026636
0.5551413952975814 0.5551413952975814 0.5551413952975814
0.5589366878708744 0.5589366878708744 0.5589366878708744
0.5627258251763029 0.5627258251763029 0.5627258251763029
