obsidian/Clippings/写真家活動/技法探求/デジネガ/QTR/プロファイル作成/QTR-DN/QTR-DN/古い/QUAD1/Untitled9.cube
#Color Lookup Table 
TITLE "QuadToneProfiler Color Lookup Table for 256-step Linearity Correction
LUT_1D_SIZE 256
DOMAIN_MIN 0.0 0.0 0.0
DOMAIN_MAX 1.0 1.0 1.0
0.0 0.0 0.0
0.0018682973232463404 0.0018682973232463404 0.0018682973232463404
0.0037365946464926808 0.0037365946464926808 0.0037365946464926808
0.004755291050302188 0.004755291050302188 0.004755291050302188
0.005680628049922329 0.005680628049922329 0.005680628049922329
0.006605965049542472 0.006605965049542472 0.006605965049542472
0.007531302049162613 0.007531302049162613 0.007531302049162613
0.00834183224182737 0.00834183224182737 0.00834183224182737
0.009094007585941892 0.009094007585941892 0.009094007585941892
0.009846182930056416 0.009846182930056416 0.009846182930056416
0.010598358274170936 0.010598358274170936 0.010598358274170936
0.011350533618285459 0.011350533618285459 0.011350533618285459
0.012085958874371933 0.012085958874371933 0.012085958874371933
0.012800859400680969 0.012800859400680969 0.012800859400680969
0.013515759926990003 0.013515759926990003 0.013515759926990003
0.01423066045329904 0.01423066045329904 0.01423066045329904
0.014945560979608075 0.014945560979608075 0.014945560979608075
0.01566046150591711 0.01566046150591711 0.01566046150591711
0.016571984552940414 0.016571984552940414 0.016571984552940414
0.01749087301832682 0.01749087301832682 0.01749087301832682
0.018409761483713226 0.018409761483713226 0.018409761483713226
0.019328649949099632 0.019328649949099632 0.019328649949099632
0.020322096931339875 0.020322096931339875 0.020322096931339875
0.021348084766647926 0.021348084766647926 0.021348084766647926
0.022374072601955976 0.022374072601955976 0.022374072601955976
0.023400060437264027 0.023400060437264027 0.023400060437264027
0.02442591527399489 0.02442591527399489 0.02442591527399489
0.025451750923973525 0.025451750923973525 0.025451750923973525
0.02647758657395216 0.02647758657395216 0.02647758657395216
0.02750755019051205 0.02750755019051205 0.02750755019051205
0.02861413464612403 0.02861413464612403 0.02861413464612403
0.02972071910173601 0.02972071910173601 0.02972071910173601
0.03082730355734799 0.03082730355734799 0.03082730355734799
0.03204182196211907 0.03204182196211907 0.03204182196211907
0.03336117986084966 0.03336117986084966 0.03336117986084966
0.034680537759580264 0.034680537759580264 0.034680537759580264
0.03606833993007559 0.03606833993007559 0.03606833993007559
0.0375156452699789 0.0375156452699789 0.0375156452699789
0.03896295060988222 0.03896295060988222 0.03896295060988222
0.040373898585646426 0.040373898585646426 0.040373898585646426
0.04177715441688362 0.04177715441688362 0.04177715441688362
0.04318101491220335 0.04318101491220335 0.04318101491220335
0.044603932233273025 0.044603932233273025 0.044603932233273025
0.046026849554342684 0.046026849554342684 0.046026849554342684
0.047457702853403665 0.047457702853403665 0.047457702853403665
0.04890950477030793 0.04890950477030793 0.04890950477030793
0.05036130668721219 0.05036130668721219 0.05036130668721219
0.051841012156854084 0.051841012156854084 0.051841012156854084
0.053341462604103274 0.053341462604103274 0.053341462604103274
0.05484191305135247 0.05484191305135247 0.05484191305135247
0.05643923527130555 0.05643923527130555 0.05643923527130555
0.05804059589682474 0.05804059589682474 0.05804059589682474
0.059683368147716534 0.059683368147716534 0.059683368147716534
0.06136575608214723 0.06136575608214723 0.06136575608214723
0.06305950178745011 0.06305950178745011 0.06305950178745011
0.06480494344344379 0.06480494344344379 0.06480494344344379
0.06655038509943748 0.06655038509943748 0.06655038509943748
0.06834284738430763 0.06834284738430763 0.06834284738430763
0.07013866577423804 0.07013866577423804 0.07013866577423804
0.07193453660248378 0.07193453660248378 0.07193453660248378
0.07373042494210413 0.07373042494210413 0.07373042494210413
0.07553547546274907 0.07553547546274907 0.07553547546274907
0.07734755081914713 0.07734755081914713 0.07734755081914713
0.07916800278590819 0.07916800278590819 0.07916800278590819
0.08100092122314523 0.08100092122314523 0.08100092122314523
0.08283975525491112 0.08283975525491112 0.08283975525491112
0.08469522065921475 0.08469522065921475 0.08469522065921475
0.0865538145949013 0.0865538145949013 0.0865538145949013
0.08843029875641341 0.08843029875641341 0.08843029875641341
0.0903089902676574 0.0903089902676574 0.0903089902676574
0.09222288986678871 0.09222288986678871 0.09222288986678871
0.0941375298073664 0.0941375298073664 0.0941375298073664
0.09612545035852722 0.09612545035852722 0.09612545035852722
0.09811653344944851 0.09811653344944851 0.09811653344944851
0.10018923397286601 0.10018923397286601 0.10018923397286601
0.10228252641504537 0.10228252641504537 0.10228252641504537
0.10449695317098051 0.10449695317098051 0.10449695317098051
0.106761366412289 0.106761366412289 0.106761366412289
0.10910931283953769 0.10910931283953769 0.10910931283953769
0.11153470530176428 0.11153470530176428 0.11153470530176428
0.11400446315641441 0.11400446315641441 0.11400446315641441
0.11657122243546018 0.11657122243546018 0.11657122243546018
0.11916783968192321 0.11916783968192321 0.11916783968192321
0.12179115358483683 0.12179115358483683 0.12179115358483683
0.12447136216175894 0.12447136216175894 0.12447136216175894
0.12717763087653225 0.12717763087653225 0.12717763087653225
0.12990962049839763 0.12990962049839763 0.12990962049839763
0.13268618875014845 0.13268618875014845 0.13268618875014845
0.1355233364192015 0.1355233364192015 0.1355233364192015
0.13841055461782897 0.13841055461782897 0.13841055461782897
0.14135244477666117 0.14135244477666117 0.14135244477666117
0.1443902538785943 0.1443902538785943 0.1443902538785943
0.14749367299824806 0.14749367299824806 0.14749367299824806
0.15062842955343045 0.15062842955343045 0.15062842955343045
0.1537733637353494 0.1537733637353494 0.1537733637353494
0.15691297932380283 0.15691297932380283 0.15691297932380283
0.1598609859741837 0.1598609859741837 0.1598609859741837
0.16273003417006898 0.16273003417006898 0.16273003417006898
0.16558386267888678 0.16558386267888678 0.16558386267888678
0.16848560862533232 0.16848560862533232 0.16848560862533232
0.1714330282658112 0.1714330282658112 0.1714330282658112
0.1744207560904291 0.1744207560904291 0.1744207560904291
0.1774509847464558 0.1774509847464558 0.1774509847464558
0.1805251973044447 0.1805251973044447 0.1805251973044447
0.18365816801791993 0.18365816801791993 0.18365816801791993
0.18684158250197616 0.18684158250197616 0.18684158250197616
0.1900753434087073 0.1900753434087073 0.1900753434087073
0.19336235423831813 0.19336235423831813 0.19336235423831813
0.1967057485100408 0.1967057485100408 0.1967057485100408
0.2001085792947398 0.2001085792947398 0.2001085792947398
0.20358197400191724 0.20358197400191724 0.20358197400191724
0.20712125548584834 0.20712125548584834 0.20712125548584834
0.21072811018334484 0.21072811018334484 0.21072811018334484
0.21440006687480184 0.21440006687480184 0.21440006687480184
0.21813916782245493 0.21813916782245493 0.21813916782245493
0.2219430548714393 0.2219430548714393 0.2219430548714393
0.22581165697093286 0.22581165697093286 0.22581165697093286
0.22974402814840242 0.22974402814840242 0.22974402814840242
0.23374020205612392 0.23374020205612392 0.23374020205612392
0.2378011056261231 0.2378011056261231 0.2378011056261231
0.24192816656745028 0.24192816656745028 0.24192816656745028
0.24611975971438566 0.24611975971438566 0.24611975971438566
0.250376694294612 0.250376694294612 0.250376694294612
0.25469627719090604 0.25469627719090604 0.25469627719090604
0.25908266912939143 0.25908266912939143 0.25908266912939143
0.2635323149198899 0.2635323149198899 0.2635323149198899
0.26804188111389815 0.26804188111389815 0.26804188111389815
0.27260524298957955 0.27260524298957955 0.27260524298957955
0.2772168582606084 0.2772168582606084 0.2772168582606084
0.28187084586618555 0.28187084586618555 0.28187084586618555
0.28655945273551653 0.28655945273551653 0.28655945273551653
0.2912810962071035 0.2912810962071035 0.2912810962071035
0.2960355968455283 0.2960355968455283 0.2960355968455283
0.30082533338385176 0.30082533338385176 0.30082533338385176
0.30565297504821176 0.30565297504821176 0.30565297504821176
0.3105260013619041 0.3105260013619041 0.3105260013619041
0.3154444696869833 0.3154444696869833 0.3154444696869833
0.32041464188475566 0.32041464188475566 0.32041464188475566
0.32544709173701714 0.32544709173701714 0.32544709173701714
0.3305643052027959 0.3305643052027959 0.3305643052027959
0.3357540533105836 0.3357540533105836 0.3357540533105836
0.34100775458829785 0.34100775458829785 0.34100775458829785
0.34632370640087856 0.34632370640087856 0.34632370640087856
0.35166865576265643 0.35166865576265643 0.35166865576265643
0.35703076287196106 0.35703076287196106 0.35703076287196106
0.3624024266442658 0.3624024266442658 0.3624024266442658
0.367778738759714 0.367778738759714 0.367778738759714
0.3731613394781343 0.3731613394781343 0.3731613394781343
0.3785526851748099 0.3785526851748099 0.3785526851748099
0.383955436899774 0.383955436899774 0.383955436899774
0.38937378235735 0.38937378235735 0.38937378235735
0.3948064576183609 0.3948064576183609 0.3948064576183609
0.40025253437060143 0.40025253437060143 0.40025253437060143
0.40570104140600644 0.40570104140600644 0.40570104140600644
0.4111392551687608 0.4111392551687608 0.4111392551687608
0.4165480001243172 0.4165480001243172 0.4165480001243172
0.4219137236535609 0.4219137236535609 0.4219137236535609
0.42723251646046273 0.42723251646046273 0.42723251646046273
0.4324906332113338 0.4324906332113338 0.4324906332113338
0.43769682698773915 0.43769682698773915 0.43769682698773915
0.4428589349135549 0.4428589349135549 0.4428589349135549
0.4479820107721155 0.4479820107721155 0.4479820107721155
0.45308140874075176 0.45308140874075176 0.45308140874075176
0.4581661123530616 0.4581661123530616 0.4581661123530616
0.46324416888411507 0.46324416888411507 0.46324416888411507
0.4683207111124662 0.4683207111124662 0.4683207111124662
0.47339849852659377 0.47339849852659377 0.47339849852659377
0.47847653024966347 0.47847653024966347 0.47847653024966347
0.4835520322699752 0.4835520322699752 0.4835520322699752
0.4886233256062185 0.4886233256062185 0.4886233256062185
0.4936890320796012 0.4936890320796012 0.4936890320796012
0.49875340977014754 0.49875340977014754 0.49875340977014754
0.5038229130604545 0.5038229130604545 0.5038229130604545
0.5089068251412199 0.5089068251412199 0.5089068251412199
0.5140134766070802 0.5140134766070802 0.5140134766070802
0.5191542641394808 0.5191542641394808 0.5191542641394808
0.5243338093121876 0.5243338093121876 0.5243338093121876
0.5295579100987412 0.5295579100987412 0.5295579100987412
0.5348361625896602 0.5348361625896602 0.5348361625896602
0.5401583404368505 0.5401583404368505 0.5401583404368505
0.5455242758344403 0.5455242758344403 0.5455242758344403
0.5509316777567742 0.5509316777567742 0.5509316777567742
0.5563746230827689 0.5563746230827689 0.5563746230827689
0.5618581179146651 0.5618581179146651 0.5618581179146651
0.5673789802244208 0.5673789802244208 0.5673789802244208
0.5729327519800537 0.5729327519800537 0.5729327519800537
0.5785192518601752 0.5785192518601752 0.5785192518601752
0.584130122267664 0.584130122267664 0.584130122267664
0.5897695377587728 0.5897695377587728 0.5897695377587728
0.5954260783010981 0.5954260783010981 0.5954260783010981
0.6010891705361446 0.6010891705361446 0.6010891705361446
0.6067427506481432 0.6067427506481432 0.6067427506481432
0.6123860847492032 0.6123860847492032 0.6123860847492032
0.6180280001277637 0.6180280001277637 0.6180280001277637
0.6236817589783427 0.6236817589783427 0.6236817589783427
0.6293627150102065 0.6293627150102065 0.6293627150102065
0.6350717661697564 0.6350717661697564 0.6350717661697564
0.6408215155801601 0.6408215155801601 0.6408215155801601
0.6466115987653208 0.6466115987653208 0.6466115987653208
0.6524516674711256 0.6524516674711256 0.6524516674711256
0.6583289382444428 0.6583289382444428 0.6583289382444428
0.6642284206958092 0.6642284206958092 0.6642284206958092
0.6701183751705083 0.6701183751705083 0.6701183751705083
0.6759704263062719 0.6759704263062719 0.6759704263062719
0.6817782343374774 0.6817782343374774 0.6817782343374774
0.6875322110974302 0.6875322110974302 0.6875322110974302
0.6932386905281243 0.6932386905281243 0.6932386905281243
0.6988962450105112 0.6988962450105112 0.6988962450105112
0.7045057216013337 0.7045057216013337 0.7045057216013337
0.7100720929854925 0.7100720929854925 0.7100720929854925
0.7155983536682874 0.7155983536682874 0.7155983536682874
0.7210953187536577 0.7210953187536577 0.7210953187536577
0.7265619312226572 0.7265619312226572 0.7265619312226572
0.732000339727253 0.732000339727253 0.732000339727253
0.7374155811385776 0.7374155811385776 0.7374155811385776
0.7428094142248668 0.7428094142248668 0.7428094142248668
0.7481942975137683 0.7481942975137683 0.7481942975137683
0.7535813340269505 0.7535813340269505 0.7535813340269505
0.7589820699126248 0.7589820699126248 0.7589820699126248
0.7644099682857926 0.7644099682857926 0.7644099682857926
0.7698861392678917 0.7698861392678917 0.7698861392678917
0.7754163027238212 0.7754163027238212 0.7754163027238212
0.7810160247352649 0.7810160247352649 0.7810160247352649
0.7867021254915864 0.7867021254915864 0.7867021254915864
0.7924685115200871 0.7924685115200871 0.7924685115200871
0.7983256622746921 0.7983256622746921 0.7983256622746921
0.8042538723500569 0.8042538723500569 0.8042538723500569
0.8102675832216225 0.8102675832216225 0.8102675832216225
0.8163624044099218 0.8163624044099218 0.8163624044099218
0.8225519195641914 0.8225519195641914 0.8225519195641914
0.8288397216703041 0.8288397216703041 0.8288397216703041
0.8352323615545519 0.8352323615545519 0.8352323615545519
0.841766602879574 0.841766602879574 0.841766602879574
0.8483370577217461 0.8483370577217461 0.8483370577217461
0.8548066369727865 0.8548066369727865 0.8548066369727865
0.8610610721519126 0.8610610721519126 0.8610610721519126
0.8672542046081447 0.8672542046081447 0.8672542046081447
0.8734279549814852 0.8734279549814852 0.8734279549814852
0.8797367798590617 0.8797367798590617 0.8797367798590617
0.8863619931521637 0.8863619931521637 0.8863619931521637
0.8935237438770559 0.8935237438770559 0.8935237438770559
0.9010477309324421 0.9010477309324421 0.9010477309324421
0.9087538084776532 0.9087538084776532 0.9087538084776532
0.9167372019290716 0.9167372019290716 0.9167372019290716
0.9252366329579655 0.9252366329579655 0.9252366329579655
0.9343119164096205 0.9343119164096205 0.9343119164096205
0.9455686244289404 0.9455686244289404 0.9455686244289404
0.9632892422635926 0.9632892422635926 0.9632892422635926
0.9766490985752735 0.9766490985752735 0.9766490985752735
0.9805302278502456 0.9805302278502456 0.9805302278502456
0.9829907808091032 0.9829907808091032 0.9829907808091032
0.9854299530090586 0.9854299530090586 0.9854299530090586
0.987844261148317 0.987844261148317 0.987844261148317
1.0003640151104847 1.0003640151104847 1.0003640151104847
0.994613821462064 0.994613821462064 0.994613821462064
1.0 1.0 1.0
0.0 0.0 0.0
0.0018682973232463404 0.0018682973232463404 0.0018682973232463404
0.0037365946464926808 0.0037365946464926808 0.0037365946464926808
0.004755291050302188 0.004755291050302188 0.004755291050302188
0.005680628049922329 0.005680628049922329 0.005680628049922329
0.006605965049542472 0.006605965049542472 0.006605965049542472
0.007531302049162613 0.007531302049162613 0.007531302049162613
0.00834183224182737 0.00834183224182737 0.00834183224182737
0.009094007585941892 0.009094007585941892 0.009094007585941892
0.009846182930056416 0.009846182930056416 0.009846182930056416
0.010598358274170936 0.010598358274170936 0.010598358274170936
0.011350533618285459 0.011350533618285459 0.011350533618285459
0.012085958874371933 0.012085958874371933 0.012085958874371933
0.012800859400680969 0.012800859400680969 0.012800859400680969
0.013515759926990003 0.013515759926990003 0.013515759926990003
0.01423066045329904 0.01423066045329904 0.01423066045329904
0.014945560979608075 0.014945560979608075 0.014945560979608075
0.01566046150591711 0.01566046150591711 0.01566046150591711
0.016571984552940414 0.016571984552940414 0.016571984552940414
0.01749087301832682 0.01749087301832682 0.01749087301832682
0.018409761483713226 0.018409761483713226 0.018409761483713226
0.019328649949099632 0.019328649949099632 0.019328649949099632
0.020322096931339875 0.020322096931339875 0.020322096931339875
0.021348084766647926 0.021348084766647926 0.021348084766647926
0.022374072601955976 0.022374072601955976 0.022374072601955976
0.023400060437264027 0.023400060437264027 0.023400060437264027
0.02442591527399489 0.02442591527399489 0.02442591527399489
0.025451750923973525 0.025451750923973525 0.025451750923973525
0.02647758657395216 0.02647758657395216 0.02647758657395216
0.02750755019051205 0.02750755019051205 0.02750755019051205
0.02861413464612403 0.02861413464612403 0.02861413464612403
0.02972071910173601 0.02972071910173601 0.02972071910173601
0.03082730355734799 0.03082730355734799 0.03082730355734799
0.03204182196211907 0.03204182196211907 0.03204182196211907
0.03336117986084966 0.03336117986084966 0.03336117986084966
0.034680537759580264 0.034680537759580264 0.034680537759580264
0.03606833993007559 0.03606833993007559 0.03606833993007559
0.0375156452699789 0.0375156452699789 0.0375156452699789
0.03896295060988222 0.03896295060988222 0.03896295060988222
0.040373898585646426 0.040373898585646426 0.040373898585646426
0.04177715441688362 0.04177715441688362 0.04177715441688362
0.04318101491220335 0.04318101491220335 0.04318101491220335
0.044603932233273025 0.044603932233273025 0.044603932233273025
0.046026849554342684 0.046026849554342684 0.046026849554342684
0.047457702853403665 0.047457702853403665 0.047457702853403665
0.04890950477030793 0.04890950477030793 0.04890950477030793
0.05036130668721219 0.05036130668721219 0.05036130668721219
0.051841012156854084 0.051841012156854084 0.051841012156854084
0.053341462604103274 0.053341462604103274 0.053341462604103274
0.05484191305135247 0.05484191305135247 0.05484191305135247
0.05643923527130555 0.05643923527130555 0.05643923527130555
0.05804059589682474 0.05804059589682474 0.05804059589682474
0.059683368147716534 0.059683368147716534 0.059683368147716534
0.06136575608214723 0.06136575608214723 0.06136575608214723
0.06305950178745011 0.06305950178745011 0.06305950178745011
0.06480494344344379 0.06480494344344379 0.06480494344344379
0.06655038509943748 0.06655038509943748 0.06655038509943748
0.06834284738430763 0.06834284738430763 0.06834284738430763
0.07013866577423804 0.07013866577423804 0.07013866577423804
0.07193453660248378 0.07193453660248378 0.07193453660248378
0.07373042494210413 0.07373042494210413 0.07373042494210413
0.07553547546274907 0.07553547546274907 0.07553547546274907
0.07734755081914713 0.07734755081914713 0.07734755081914713
0.07916800278590819 0.07916800278590819 0.07916800278590819
0.08100092122314523 0.08100092122314523 0.08100092122314523
0.08283975525491112 0.08283975525491112 0.08283975525491112
0.08469522065921475 0.08469522065921475 0.08469522065921475
0.0865538145949013 0.0865538145949013 0.0865538145949013
0.08843029875641341 0.08843029875641341 0.08843029875641341
0.0903089902676574 0.0903089902676574 0.0903089902676574
0.09222288986678871 0.09222288986678871 0.09222288986678871
0.0941375298073664 0.0941375298073664 0.0941375298073664
0.09612545035852722 0.09612545035852722 0.09612545035852722
0.09811653344944851 0.09811653344944851 0.09811653344944851
0.10018923397286601 0.10018923397286601 0.10018923397286601
0.10228252641504537 0.10228252641504537 0.10228252641504537
0.10449695317098051 0.10449695317098051 0.10449695317098051
0.106761366412289 0.106761366412289 0.106761366412289
0.10910931283953769 0.10910931283953769 0.10910931283953769
0.11153470530176428 0.11153470530176428 0.11153470530176428
0.11400446315641441 0.11400446315641441 0.11400446315641441
0.11657122243546018 0.11657122243546018 0.11657122243546018
0.11916783968192321 0.11916783968192321 0.11916783968192321
0.12179115358483683 0.12179115358483683 0.12179115358483683
0.12447136216175894 0.12447136216175894 0.12447136216175894
0.12717763087653225 0.12717763087653225 0.12717763087653225
0.12990962049839763 0.12990962049839763 0.12990962049839763
0.13268618875014845 0.13268618875014845 0.13268618875014845
0.1355233364192015 0.1355233364192015 0.1355233364192015
0.13841055461782897 0.13841055461782897 0.13841055461782897
0.14135244477666117 0.14135244477666117 0.14135244477666117
0.1443902538785943 0.1443902538785943 0.1443902538785943
0.14749367299824806 0.14749367299824806 0.14749367299824806
0.15062842955343045 0.15062842955343045 0.15062842955343045
0.1537733637353494 0.1537733637353494 0.1537733637353494
0.15691297932380283 0.15691297932380283 0.15691297932380283
0.1598609859741837 0.1598609859741837 0.1598609859741837
0.16273003417006898 0.16273003417006898 0.16273003417006898
0.16558386267888678 0.16558386267888678 0.16558386267888678
0.16848560862533232 0.16848560862533232 0.16848560862533232
0.1714330282658112 0.1714330282658112 0.1714330282658112
0.1744207560904291 0.1744207560904291 0.1744207560904291
0.1774509847464558 0.1774509847464558 0.1774509847464558
0.1805251973044447 0.1805251973044447 0.1805251973044447
0.18365816801791993 0.18365816801791993 0.18365816801791993
0.18684158250197616 0.18684158250197616 0.18684158250197616
0.1900753434087073 0.1900753434087073 0.1900753434087073
0.19336235423831813 0.19336235423831813 0.19336235423831813
0.1967057485100408 0.1967057485100408 0.1967057485100408
0.2001085792947398 0.2001085792947398 0.2001085792947398
0.20358197400191724 0.20358197400191724 0.20358197400191724
0.20712125548584834 0.20712125548584834 0.20712125548584834
0.21072811018334484 0.21072811018334484 0.21072811018334484
0.21440006687480184 0.21440006687480184 0.21440006687480184
0.21813916782245493 0.21813916782245493 0.21813916782245493
0.2219430548714393 0.2219430548714393 0.2219430548714393
0.22581165697093286 0.22581165697093286 0.22581165697093286
0.22974402814840242 0.22974402814840242 0.22974402814840242
0.23374020205612392 0.23374020205612392 0.23374020205612392
0.2378011056261231 0.2378011056261231 0.2378011056261231
0.24192816656745028 0.24192816656745028 0.24192816656745028
0.24611975971438566 0.24611975971438566 0.24611975971438566
0.250376694294612 0.250376694294612 0.250376694294612
0.25469627719090604 0.25469627719090604 0.25469627719090604
0.25908266912939143 0.25908266912939143 0.25908266912939143
0.2635323149198899 0.2635323149198899 0.2635323149198899
0.26804188111389815 0.26804188111389815 0.26804188111389815
0.27260524298957955 0.27260524298957955 0.27260524298957955
0.2772168582606084 0.2772168582606084 0.2772168582606084
0.28187084586618555 0.28187084586618555 0.28187084586618555
0.28655945273551653 0.28655945273551653 0.28655945273551653
0.2912810962071035 0.2912810962071035 0.2912810962071035
0.2960355968455283 0.2960355968455283 0.2960355968455283
0.30082533338385176 0.30082533338385176 0.30082533338385176
0.30565297504821176 0.30565297504821176 0.30565297504821176
0.3105260013619041 0.3105260013619041 0.3105260013619041
0.3154444696869833 0.3154444696869833 0.3154444696869833
0.32041464188475566 0.32041464188475566 0.32041464188475566
0.32544709173701714 0.32544709173701714 0.32544709173701714
0.3305643052027959 0.3305643052027959 0.3305643052027959
0.3357540533105836 0.3357540533105836 0.3357540533105836
0.34100775458829785 0.34100775458829785 0.34100775458829785
0.34632370640087856 0.34632370640087856 0.34632370640087856
0.35166865576265643 0.35166865576265643 0.35166865576265643
0.35703076287196106 0.35703076287196106 0.35703076287196106
0.3624024266442658 0.3624024266442658 0.3624024266442658
0.367778738759714 0.367778738759714 0.367778738759714
0.3731613394781343 0.3731613394781343 0.3731613394781343
0.3785526851748099 0.3785526851748099 0.3785526851748099
