obsidian/Clippings/写真家活動/技法探求/デジタルネガ探究/QTR/プロファイル作成/QTR-DN/QTR-DN/古い/選択項目から作成したフォルダ 2/選択項目から作成したフォルダ/MC6/PtPd-K41-415s-v3-MC6-LUTcorrection.cube
#Color Lookup Table 
TITLE "QuadToneProfiler Color Lookup Table for 256-step Linearity Correction
LUT_1D_SIZE 256
DOMAIN_MIN 0.0 0.0 0.0
DOMAIN_MAX 1.0 1.0 1.0
0.0 0.0 0.0
0.010552546534967793 0.010552546534967793 0.010552546534967793
0.01636517565700725 0.01636517565700725 0.01636517565700725
0.02810114321272275 0.02810114321272275 0.02810114321272275
0.037666743796200775 0.037666743796200775 0.037666743796200775
0.045659229735541255 0.045659229735541255 0.045659229735541255
0.05279941364049594 0.05279941364049594 0.05279941364049594
0.05967055304350113 0.05967055304350113 0.05967055304350113
0.06628156168373733 0.06628156168373733 0.06628156168373733
0.0726829596203161 0.0726829596203161 0.0726829596203161
0.0789344945781939 0.0789344945781939 0.0789344945781939
0.08469053553811177 0.08469053553811177 0.08469053553811177
0.09000012485527688 0.09000012485527688 0.09000012485527688
0.09499651827673146 0.09499651827673146 0.09499651827673146
0.0999942211075975 0.0999942211075975 0.0999942211075975
0.10516191159994795 0.10516191159994795 0.10516191159994795
0.11070323130047319 0.11070323130047319 0.11070323130047319
0.11680158776237977 0.11680158776237977 0.11680158776237977
0.12374479062340905 0.12374479062340905 0.12374479062340905
0.13153431636702007 0.13153431636702007 0.13153431636702007
0.13927816254804656 0.13927816254804656 0.13927816254804656
0.1461184868067982 0.1461184868067982 0.1461184868067982
0.15220357293917053 0.15220357293917053 0.15220357293917053
0.15790059635274134 0.15790059635274134 0.15790059635274134
0.1634965160501844 0.1634965160501844 0.1634965160501844
0.16903782531706915 0.16903782531706915 0.16903782531706915
0.17437406541694223 0.17437406541694223 0.17437406541694223
0.17929629740417125 0.17929629740417125 0.17929629740417125
0.18379579527293466 0.18379579527293466 0.18379579527293466
0.18794697355517717 0.18794697355517717 0.18794697355517717
0.19195859065341753 0.19195859065341753 0.19195859065341753
0.19586379193788508 0.19586379193788508 0.19586379193788508
0.19981692032546808 0.19981692032546808 0.19981692032546808
0.20382311296826597 0.20382311296826597 0.20382311296826597
0.20799319712983738 0.20799319712983738 0.20799319712983738
0.21237182304425206 0.21237182304425206 0.21237182304425206
0.21710396481449357 0.21710396481449357 0.21710396481449357
0.2221775305342194 0.2221775305342194 0.2221775305342194
0.22753007851056867 0.22753007851056867 0.22753007851056867
0.23277921124445242 0.23277921124445242 0.23277921124445242
0.23789933690536677 0.23789933690536677 0.23789933690536677
0.2429159995337572 0.2429159995337572 0.2429159995337572
0.24811340138262905 0.24811340138262905 0.24811340138262905
0.2535424461028512 0.2535424461028512 0.2535424461028512
0.2592023390125126 0.2592023390125126 0.2592023390125126
0.264966424825312 0.264966424825312 0.264966424825312
0.2706093373995378 0.2706093373995378 0.2706093373995378
0.2758935663608947 0.2758935663608947 0.2758935663608947
0.2807358422647871 0.2807358422647871 0.2807358422647871
0.2851780217206686 0.2851780217206686 0.2851780217206686
0.28926874607890096 0.28926874607890096 0.28926874607890096
0.29308216849159496 0.29308216849159496 0.29308216849159496
0.29666117667327685 0.29666117667327685 0.29666117667327685
0.30013271137461983 0.30013271137461983 0.30013271137461983
0.30354910681316705 0.30354910681316705 0.30354910681316705
0.3069456708071659 0.3069456708071659 0.3069456708071659
0.3103779277859584 0.3103779277859584 0.3103779277859584
0.31385296754363634 0.31385296754363634 0.31385296754363634
0.31749760764978 0.31749760764978 0.31749760764978
0.32135458222290514 0.32135458222290514 0.32135458222290514
0.32540822810254605 0.32540822810254605 0.32540822810254605
0.32970497963131423 0.32970497963131423 0.32970497963131423
0.3342229379459222 0.3342229379459222 0.3342229379459222
0.3389761974619931 0.3389761974619931 0.3389761974619931
0.343984903789849 0.343984903789849 0.343984903789849
0.3493411432082983 0.3493411432082983 0.3493411432082983
0.35525288788873893 0.35525288788873893 0.35525288788873893
0.36202594502031993 0.36202594502031993 0.36202594502031993
0.37029617827562933 0.37029617827562933 0.37029617827562933
0.3788522513445084 0.3788522513445084 0.3788522513445084
0.38580388782721564 0.38580388782721564 0.38580388782721564
0.3915070076489161 0.3915070076489161 0.3915070076489161
0.39668960880771187 0.39668960880771187 0.39668960880771187
0.40172050442088875 0.40172050442088875 0.40172050442088875
0.4066829234426008 0.4066829234426008 0.4066829234426008
0.41169852089568887 0.41169852089568887 0.41169852089568887
0.4169599693410765 0.4169599693410765 0.4169599693410765
0.42248181360229004 0.42248181360229004 0.42248181360229004
0.42816080367726905 0.42816080367726905 0.42816080367726905
0.433764633279978 0.433764633279978 0.433764633279978
0.43907192047833626 0.43907192047833626 0.43907192047833626
0.4439374229806035 0.4439374229806035 0.4439374229806035
0.44841536166551194 0.44841536166551194 0.44841536166551194
0.4525301077307663 0.4525301077307663 0.4525301077307663
0.4563487605133214 0.4563487605133214 0.4563487605133214
0.4599662214487503 0.4599662214487503 0.4599662214487503
0.46343003323465404 0.46343003323465404 0.46343003323465404
0.46679878196265795 0.46679878196265795 0.46679878196265795
0.4700973107963675 0.4700973107963675 0.4700973107963675
0.473359909387861 0.473359909387861 0.473359909387861
0.47662359745324173 0.47662359745324173 0.47662359745324173
0.47986505291845766 0.47986505291845766 0.47986505291845766
0.4830532762929166 0.4830532762929166 0.4830532762929166
0.4861711150326933 0.4861711150326933 0.4861711150326933
0.4891915602778163 0.4891915602778163 0.4891915602778163
0.49211354224436366 0.49211354224436366 0.49211354224436366
0.4949665806300178 0.4949665806300178 0.4949665806300178
0.4977717396261707 0.4977717396261707 0.4977717396261707
0.5005407187449147 0.5005407187449147 0.5005407187449147
0.5033132823869093 0.5033132823869093 0.5033132823869093
0.5061003707945938 0.5061003707945938 0.5061003707945938
0.5089668515879033 0.5089668515879033 0.5089668515879033
0.511916227000728 0.511916227000728 0.511916227000728
0.5149773513818183 0.5149773513818183 0.5149773513818183
0.5181922143221204 0.5181922143221204 0.5181922143221204
0.5215822755888007 0.5215822755888007 0.5215822755888007
0.5252292131575398 0.5252292131575398 0.5252292131575398
0.5291205278861795 0.5291205278861795 0.5291205278861795
0.5332968979379582 0.5332968979379582 0.5332968979379582
0.5377704579072763 0.5377704579072763 0.5377704579072763
0.542445947161818 0.542445947161818 0.542445947161818
0.5473181998929239 0.5473181998929239 0.5473181998929239
0.5523832811476885 0.5523832811476885 0.5523832811476885
0.5577631335252058 0.5577631335252058 0.5577631335252058
0.5635646055545322 0.5635646055545322 0.5635646055545322
0.5698992335455079 0.5698992335455079 0.5698992335455079
0.5765921867384618 0.5765921867384618 0.5765921867384618
0.5824556888119891 0.5824556888119891 0.5824556888119891
0.5873961348123796 0.5873961348123796 0.5873961348123796
0.5916345527413874 0.5916345527413874 0.5916345527413874
0.5954887264252684 0.5954887264252684 0.5954887264252684
0.5990783698274386 0.5990783698274386 0.5990783698274386
0.6025232227096796 0.6025232227096796 0.6025232227096796
0.6058478460826224 0.6058478460826224 0.6058478460826224
0.6090678535624491 0.6090678535624491 0.6090678535624491
0.6122016070657882 0.6122016070657882 0.6122016070657882
0.6152581424576568 0.6152581424576568 0.6152581424576568
0.6182927378528614 0.6182927378528614 0.6182927378528614
0.6213089592357366 0.6213089592357366 0.6213089592357366
0.6243230529413611 0.6243230529413611 0.6243230529413611
0.6273641715983544 0.6273641715983544 0.6273641715983544
0.6304365357257058 0.6304365357257058 0.6304365357257058
0.6335269186300143 0.6335269186300143 0.6335269186300143
0.6366396511945412 0.6366396511945412 0.6366396511945412
0.6397825890920822 0.6397825890920822 0.6397825890920822
0.6429766848216814 0.6429766848216814 0.6429766848216814
0.6462490554109266 0.6462490554109266 0.6462490554109266
0.6496345323178585 0.6496345323178585 0.6496345323178585
0.6531667114420742 0.6531667114420742 0.6531667114420742
0.6569637869290748 0.6569637869290748 0.6569637869290748
0.6611792303510502 0.6611792303510502 0.6611792303510502
0.6660609759074627 0.6660609759074627 0.6660609759074627
0.6720939963558427 0.6720939963558427 0.6720939963558427
0.6790876478119826 0.6790876478119826 0.6790876478119826
0.6861663292162978 0.6861663292162978 0.6861663292162978
0.6928268726623666 0.6928268726623666 0.6928268726623666
0.6989474025753813 0.6989474025753813 0.6989474025753813
0.704513488133437 0.704513488133437 0.704513488133437
0.7096399156256902 0.7096399156256902 0.7096399156256902
0.7145232845084546 0.7145232845084546 0.7145232845084546
0.7193000624205645 0.7193000624205645 0.7193000624205645
0.724117064270831 0.724117064270831 0.724117064270831
0.7288771054440933 0.7288771054440933 0.7288771054440933
0.733488969012018 0.733488969012018 0.733488969012018
0.7374901426089455 0.7374901426089455 0.7374901426089455
0.7410580399593695 0.7410580399593695 0.7410580399593695
0.7441013791694527 0.7441013791694527 0.7441013791694527
0.7468495744499444 0.7468495744499444 0.7468495744499444
0.7494151943255418 0.7494151943255418 0.7494151943255418
0.7517911290818445 0.7517911290818445 0.7517911290818445
0.7540570223244862 0.7540570223244862 0.7540570223244862
0.756218312977249 0.756218312977249 0.756218312977249
0.7583254368120583 0.7583254368120583 0.7583254368120583
0.7603968553062874 0.7603968553062874 0.7603968553062874
0.7624118913231315 0.7624118913231315 0.7624118913231315
0.7643972032312134 0.7643972032312134 0.7643972032312134
0.7663651104636837 0.7663651104636837 0.7663651104636837
0.7683124028251015 0.7683124028251015 0.7683124028251015
0.7702426872870375 0.7702426872870375 0.7702426872870375
0.77215275543725 0.77215275543725 0.77215275543725
0.7740622602247573 0.7740622602247573 0.7740622602247573
0.775956359468901 0.775956359468901 0.775956359468901
0.7778491063790693 0.7778491063790693 0.7778491063790693
0.7797284284906191 0.7797284284906191 0.7797284284906191
0.7816052031180075 0.7816052031180075 0.7816052031180075
0.7834714565473004 0.7834714565473004 0.7834714565473004
0.7853328315826448 0.7853328315826448 0.7853328315826448
0.7871870339277843 0.7871870339277843 0.7871870339277843
0.7890338656280744 0.7890338656280744 0.7890338656280744
0.790877408162969 0.790877408162969 0.790877408162969
0.7927104881444424 0.7927104881444424 0.7927104881444424
0.7945443163980321 0.7945443163980321 0.7945443163980321
0.7963656787519129 0.7963656787519129 0.7963656787519129
0.798199708095147 0.798199708095147 0.798199708095147
0.8000166433745111 0.8000166433745111 0.8000166433745111
0.8018531414337017 0.8018531414337017 0.8018531414337017
0.8036728808052825 0.8036728808052825 0.8036728808052825
0.8055140396955536 0.8055140396955536 0.8055140396955536
0.8073452742929825 0.8073452742929825 0.8073452742929825
0.8091916658382562 0.8091916658382562 0.8091916658382562
0.8110346026684128 0.8110346026684128 0.8110346026684128
0.8129121307582811 0.8129121307582811 0.8129121307582811
0.8148079580378722 0.8148079580378722 0.8148079580378722
0.816736647927038 0.816736647927038 0.816736647927038
0.8186925838944206 0.8186925838944206 0.8186925838944206
0.8207167799182425 0.8207167799182425 0.8207167799182425
0.8227998007440235 0.8227998007440235 0.8227998007440235
0.824995509584322 0.824995509584322 0.824995509584322
0.8272465766733421 0.8272465766733421 0.8272465766733421
0.8296436604328108 0.8296436604328108 0.8296436604328108
0.8321036378159375 0.8321036378159375 0.8321036378159375
0.8347038859332453 0.8347038859332453 0.8347038859332453
0.8373698296524439 0.8373698296524439 0.8373698296524439
0.8400771379236108 0.8400771379236108 0.8400771379236108
0.8428404470148729 0.8428404470148729 0.8428404470148729
0.8455804615079197 0.8455804615079197 0.8455804615079197
0.848295829123269 0.848295829123269 0.848295829123269
0.850986505635928 0.850986505635928 0.850986505635928
0.853578910278994 0.853578910278994 0.853578910278994
0.8561138991910349 0.8561138991910349 0.8561138991910349
0.8585903630627744 0.8585903630627744 0.8585903630627744
0.8609947210385316 0.8609947210385316 0.8609947210385316
0.8633686909027151 0.8633686909027151 0.8633686909027151
0.8656874959147856 0.8656874959147856 0.8656874959147856
0.8679776388729956 0.8679776388729956 0.8679776388729956
0.8702473707966277 0.8702473707966277 0.8702473707966277
0.8724828401514322 0.8724828401514322 0.8724828401514322
0.8747099312863925 0.8747099312863925 0.8747099312863925
0.8769110466374904 0.8769110466374904 0.8769110466374904
0.8791048029908002 0.8791048029908002 0.8791048029908002
0.8812805794471446 0.8812805794471446 0.8812805794471446
0.8834569503335082 0.8834569503335082 0.8834569503335082
0.8856348396298821 0.8856348396298821 0.8856348396298821
0.8878206185843606 0.8878206185843606 0.8878206185843606
0.8900145925236757 0.8900145925236757 0.8900145925236757
0.8922125044569728 0.8922125044569728 0.8922125044569728
0.894421413304576 0.894421413304576 0.894421413304576
0.8966499235154437 0.8966499235154437 0.8966499235154437
0.8988683456603822 0.8988683456603822 0.8988683456603822
0.9010632330702983 0.9010632330702983 0.9010632330702983
0.9032287003957794 0.9032287003957794 0.9032287003957794
0.9053808726910012 0.9053808726910012 0.9053808726910012
0.9074826140723391 0.9074826140723391 0.9074826140723391
0.9095854536325544 0.9095854536325544 0.9095854536325544
0.9116195441357392 0.9116195441357392 0.9116195441357392
0.9136701633752002 0.9136701633752002 0.9136701633752002
0.9156860712463616 0.9156860712463616 0.9156860712463616
0.9177317055224833 0.9177317055224833 0.9177317055224833
0.9197542375113502 0.9197542375113502 0.9197542375113502
0.9218174317476958 0.9218174317476958 0.9218174317476958
0.9239090999760506 0.9239090999760506 0.9239090999760506
0.9260545655399061 0.9260545655399061 0.9260545655399061
0.9282557877764807 0.9282557877764807 0.9282557877764807
0.9305550928677815 0.9305550928677815 0.9305550928677815
0.9329650742497538 0.9329650742497538 0.9329650742497538
0.93553840732166 0.93553840732166 0.93553840732166
0.9382805379769814 0.9382805379769814 0.9382805379769814
0.9412347110284522 0.9412347110284522 0.9412347110284522
0.9444822616529034 0.9444822616529034 0.9444822616529034
0.9480978044938853 0.9480978044938853 0.9480978044938853
0.952257017949533 0.952257017949533 0.952257017949533
0.9570016433651196 0.9570016433651196 0.9570016433651196
0.9623822196157509 0.9623822196157509 0.9623822196157509
0.9675402475286063 0.9675402475286063 0.9675402475286063
0.9729981837507999 0.9729981837507999 0.9729981837507999
1.0 1.0 1.0
0.0 0.0 0.0
0.010552546534967793 0.010552546534967793 0.010552546534967793
0.01636517565700725 0.01636517565700725 0.01636517565700725
0.02810114321272275 0.02810114321272275 0.02810114321272275
0.037666743796200775 0.037666743796200775 0.037666743796200775
0.045659229735541255 0.045659229735541255 0.045659229735541255
0.05279941364049594 0.05279941364049594 0.05279941364049594
0.05967055304350113 0.05967055304350113 0.05967055304350113
0.06628156168373733 0.06628156168373733 0.06628156168373733
0.0726829596203161 0.0726829596203161 0.0726829596203161
0.0789344945781939 0.0789344945781939 0.0789344945781939
0.08469053553811177 0.08469053553811177 0.08469053553811177
0.09000012485527688 0.09000012485527688 0.09000012485527688
0.09499651827673146 0.09499651827673146 0.09499651827673146
0.0999942211075975 0.0999942211075975 0.0999942211075975
0.10516191159994795 0.10516191159994795 0.10516191159994795
0.11070323130047319 0.11070323130047319 0.11070323130047319
0.11680158776237977 0.11680158776237977 0.11680158776237977
0.12374479062340905 0.12374479062340905 0.12374479062340905
0.13153431636702007 0.13153431636702007 0.13153431636702007
0.13927816254804656 0.13927816254804656 0.13927816254804656
0.1461184868067982 0.1461184868067982 0.1461184868067982
0.15220357293917053 0.15220357293917053 0.15220357293917053
0.15790059635274134 0.15790059635274134 0.15790059635274134
0.1634965160501844 0.1634965160501844 0.1634965160501844
0.16903782531706915 0.16903782531706915 0.16903782531706915
0.17437406541694223 0.17437406541694223 0.17437406541694223
0.17929629740417125 0.17929629740417125 0.17929629740417125
0.18379579527293466 0.18379579527293466 0.18379579527293466
0.18794697355517717 0.18794697355517717 0.18794697355517717
0.19195859065341753 0.19195859065341753 0.19195859065341753
0.19586379193788508 0.19586379193788508 0.19586379193788508
0.19981692032546808 0.19981692032546808 0.19981692032546808
0.20382311296826597 0.20382311296826597 0.20382311296826597
0.20799319712983738 0.20799319712983738 0.20799319712983738
0.21237182304425206 0.21237182304425206 0.21237182304425206
0.21710396481449357 0.21710396481449357 0.21710396481449357
0.2221775305342194 0.2221775305342194 0.2221775305342194
0.22753007851056867 0.22753007851056867 0.22753007851056867
0.23277921124445242 0.23277921124445242 0.23277921124445242
0.23789933690536677 0.23789933690536677 0.23789933690536677
0.2429159995337572 0.2429159995337572 0.2429159995337572
0.24811340138262905 0.24811340138262905 0.24811340138262905
0.2535424461028512 0.2535424461028512 0.2535424461028512
0.2592023390125126 0.2592023390125126 0.2592023390125126
0.264966424825312 0.264966424825312 0.264966424825312
0.2706093373995378 0.2706093373995378 0.2706093373995378
0.2758935663608947 0.2758935663608947 0.2758935663608947
0.2807358422647871 0.2807358422647871 0.2807358422647871
0.2851780217206686 0.2851780217206686 0.2851780217206686
0.28926874607890096 0.28926874607890096 0.28926874607890096
0.29308216849159496 0.29308216849159496 0.29308216849159496
0.29666117667327685 0.29666117667327685 0.29666117667327685
0.30013271137461983 0.30013271137461983 0.30013271137461983
0.30354910681316705 0.30354910681316705 0.30354910681316705
0.3069456708071659 0.3069456708071659 0.3069456708071659
0.3103779277859584 0.3103779277859584 0.3103779277859584
0.31385296754363634 0.31385296754363634 0.31385296754363634
0.31749760764978 0.31749760764978 0.31749760764978
0.32135458222290514 0.32135458222290514 0.32135458222290514
0.32540822810254605 0.32540822810254605 0.32540822810254605
0.32970497963131423 0.32970497963131423 0.32970497963131423
0.3342229379459222 0.3342229379459222 0.3342229379459222
0.3389761974619931 0.3389761974619931 0.3389761974619931
0.343984903789849 0.343984903789849 0.343984903789849
0.3493411432082983 0.3493411432082983 0.3493411432082983
0.35525288788873893 0.35525288788873893 0.35525288788873893
0.36202594502031993 0.36202594502031993 0.36202594502031993
0.37029617827562933 0.37029617827562933 0.37029617827562933
0.3788522513445084 0.3788522513445084 0.3788522513445084
0.38580388782721564 0.38580388782721564 0.38580388782721564
0.3915070076489161 0.3915070076489161 0.3915070076489161
0.39668960880771187 0.39668960880771187 0.39668960880771187
0.40172050442088875 0.40172050442088875 0.40172050442088875
0.4066829234426008 0.4066829234426008 0.4066829234426008
0.41169852089568887 0.41169852089568887 0.41169852089568887
0.4169599693410765 0.4169599693410765 0.4169599693410765
0.42248181360229004 0.42248181360229004 0.42248181360229004
0.42816080367726905 0.42816080367726905 0.42816080367726905
0.433764633279978 0.433764633279978 0.433764633279978
0.43907192047833626 0.43907192047833626 0.43907192047833626
0.4439374229806035 0.4439374229806035 0.4439374229806035
0.44841536166551194 0.44841536166551194 0.44841536166551194
0.4525301077307663 0.4525301077307663 0.4525301077307663
0.4563487605133214 0.4563487605133214 0.4563487605133214
0.4599662214487503 0.4599662214487503 0.4599662214487503
0.46343003323465404 0.46343003323465404 0.46343003323465404
0.46679878196265795 0.46679878196265795 0.46679878196265795
0.4700973107963675 0.4700973107963675 0.4700973107963675
0.473359909387861 0.473359909387861 0.473359909387861
0.47662359745324173 0.47662359745324173 0.47662359745324173
0.47986505291845766 0.47986505291845766 0.47986505291845766
0.4830532762929166 0.4830532762929166 0.4830532762929166
0.4861711150326933 0.4861711150326933 0.4861711150326933
0.4891915602778163 0.4891915602778163 0.4891915602778163
0.49211354224436366 0.49211354224436366 0.49211354224436366
0.4949665806300178 0.4949665806300178 0.4949665806300178
0.4977717396261707 0.4977717396261707 0.4977717396261707
0.5005407187449147 0.5005407187449147 0.5005407187449147
0.5033132823869093 0.5033132823869093 0.5033132823869093
0.5061003707945938 0.5061003707945938 0.5061003707945938
0.5089668515879033 0.5089668515879033 0.5089668515879033
0.511916227000728 0.511916227000728 0.511916227000728
0.5149773513818183 0.5149773513818183 0.5149773513818183
0.5181922143221204 0.5181922143221204 0.5181922143221204
0.5215822755888007 0.5215822755888007 0.5215822755888007
0.5252292131575398 0.5252292131575398 0.5252292131575398
0.5291205278861795 0.5291205278861795 0.5291205278861795
0.5332968979379582 0.5332968979379582 0.5332968979379582
0.5377704579072763 0.5377704579072763 0.5377704579072763
0.542445947161818 0.542445947161818 0.542445947161818
0.5473181998929239 0.5473181998929239 0.5473181998929239
0.5523832811476885 0.5523832811476885 0.5523832811476885
0.5577631335252058 0.5577631335252058 0.5577631335252058
0.5635646055545322 0.5635646055545322 0.5635646055545322
0.5698992335455079 0.5698992335455079 0.5698992335455079
0.5765921867384618 0.5765921867384618 0.5765921867384618
0.5824556888119891 0.5824556888119891 0.5824556888119891
0.5873961348123796 0.5873961348123796 0.5873961348123796
0.5916345527413874 0.5916345527413874 0.5916345527413874
0.5954887264252684 0.5954887264252684 0.5954887264252684
0.5990783698274386 0.5990783698274386 0.5990783698274386
0.6025232227096796 0.6025232227096796 0.6025232227096796
0.6058478460826224 0.6058478460826224 0.6058478460826224
0.6090678535624491 0.6090678535624491 0.6090678535624491
0.6122016070657882 0.6122016070657882 0.6122016070657882
0.6152581424576568 0.6152581424576568 0.6152581424576568
0.6182927378528614 0.6182927378528614 0.6182927378528614
0.6213089592357366 0.6213089592357366 0.6213089592357366
0.6243230529413611 0.6243230529413611 0.6243230529413611
0.6273641715983544 0.6273641715983544 0.6273641715983544
0.6304365357257058 0.6304365357257058 0.6304365357257058
0.6335269186300143 0.6335269186300143 0.6335269186300143
0.6366396511945412 0.6366396511945412 0.6366396511945412
0.6397825890920822 0.6397825890920822 0.6397825890920822
0.6429766848216814 0.6429766848216814 0.6429766848216814
0.6462490554109266 0.6462490554109266 0.6462490554109266
0.6496345323178585 0.6496345323178585 0.6496345323178585
0.6531667114420742 0.6531667114420742 0.6531667114420742
0.6569637869290748 0.6569637869290748 0.6569637869290748
0.6611792303510502 0.6611792303510502 0.6611792303510502
0.6660609759074627 0.6660609759074627 0.6660609759074627
0.6720939963558427 0.6720939963558427 0.6720939963558427
0.6790876478119826 0.6790876478119826 0.6790876478119826
0.6861663292162978 0.6861663292162978 0.6861663292162978
0.6928268726623666 0.6928268726623666 0.6928268726623666
0.6989474025753813 0.6989474025753813 0.6989474025753813
0.704513488133437 0.704513488133437 0.704513488133437
0.7096399156256902 0.7096399156256902 0.7096399156256902
0.7145232845084546 0.7145232845084546 0.7145232845084546
0.7193000624205645 0.7193000624205645 0.7193000624205645
0.724117064270831 0.724117064270831 0.724117064270831
0.7288771054440933 0.7288771054440933 0.7288771054440933
0.733488969012018 0.733488969012018 0.733488969012018
0.7374901426089455 0.7374901426089455 0.7374901426089455
0.7410580399593695 0.7410580399593695 0.7410580399593695
0.7441013791694527 0.7441013791694527 0.7441013791694527
0.7468495744499444 0.7468495744499444 0.7468495744499444
0.7494151943255418 0.7494151943255418 0.7494151943255418
