obsidian/Clippings/写真家活動/技法探求/デジタルネガ探究/QTR/プロファイル作成/QTR-DN/QTR-DN/古い/選択項目から作成したフォルダ 2/選択項目から作成したフォルダ/MC6/PtPd-K41-415s-v3-MC6-finalLUTsoftproof.cube
#Color Lookup Table 
TITLE "QuadToneProfiler Color Lookup Table for 256-step Soft Proof
LUT_1D_SIZE 256
DOMAIN_MIN 0.0 0.0 0.0
DOMAIN_MAX 1.0 1.0 1.0
0.23841903093829075 0.25422789430093806 0.24814492302226626
0.2517712428674379 0.27003412335882687 0.26339277760446217
0.2559452819405959 0.27379778246459274 0.2667473772230953
0.2596791664772302 0.2770131004912153 0.26960422617211144
0.2632031312849872 0.2798023834722805 0.2720823256319501
0.266288197255388 0.2823557605850183 0.27421792201018613
0.26907708613602205 0.2847060223978556 0.27618361062827845
0.2716069049770012 0.2868992367688131 0.27803596425195043
0.27395959993702224 0.2889550269682927 0.2797838771016476
0.2761524595959331 0.2909005430076506 0.2814476619492515
0.27822634933554097 0.29274723512047507 0.2830320405535061
0.2801978891182554 0.29451076581696606 0.2845449320541218
0.2820657156670048 0.2962071350497468 0.2859844674396688
0.2838593484345979 0.29783926336441136 0.2873690774751502
0.2855874114636382 0.299414685613759 0.28870519770700437
0.2872597598389266 0.3009423686860466 0.2900009870597191
0.28888688775985105 0.3024298079961257 0.2912625982812017
0.2904768444413181 0.303882664542293 0.2924928248208524
0.2920345218314813 0.30530593551541163 0.2936975979772474
0.29357359365947067 0.3067006597758263 0.2948839808224031
0.29508867246877374 0.30807295667102785 0.2960513180240821
0.2965878784546359 0.3094247816205965 0.297197382657844
0.2980692097781344 0.3107594056406483 0.29832784147057473
0.29954244557131304 0.31207746935636244 0.29943633871632036
0.30100258865926977 0.3133821290950048 0.30053145248700114
0.30245507746564476 0.3146743903410056 0.30160945842639886
0.30389371253494935 0.3159572629904723 0.30268055291655926
0.3053187403970981 0.31723227635134177 0.30374647987416
0.3067356756039247 0.31849960842750835 0.3048039603735639
0.30814540420947384 0.3197602258262275 0.30585455835647063
0.3095436258676806 0.32101477876344964 0.3069255365043106
0.31093546013461437 0.3222643273190256 0.3079968301003598
0.31232172562840604 0.32350968420001674 0.3090715144374845
0.3137022931339591 0.3247520178985527 0.31014519616986097
0.3150753108105777 0.3259926442859068 0.311221385055276
0.3164454247475352 0.32723150777550986 0.31229657809562206
0.31781312774303794 0.3284690798804173 0.313371203762066
0.31917563917482766 0.3297069979250845 0.31444583815972427
0.3205358848118021 0.3309451135986913 0.315520472759875
0.32189533081684313 0.33218385024624547 0.3165942348557368
0.3232543101091386 0.3334236944702235 0.31766722623788923
0.32460838151361954 0.33466709060760197 0.3187345959615232
0.32596351148094965 0.33591235481779835 0.3198009155691645
0.3273202023440201 0.33716028895144134 0.32086592055173424
0.32867163605136446 0.3384133971403181 0.32192718441581114
0.3300231600641193 0.33967067250211674 0.32298815892667376
0.3313756285531935 0.3409325238907882 0.32404557168952225
0.33272357399119695 0.34220003626631923 0.3251131833617209
0.33406790791528734 0.3434736666364324 0.3261911613820071
0.3354104507426686 0.34475341403797083 0.32727613242151316
0.3367486323109645 0.3460397942034316 0.32838071138611247
0.33808345049160243 0.34733315837726547 0.3295044467888176
0.33941669192213375 0.3486334400037154 0.3306449565322134
0.34074538462349074 0.3499423663781852 0.33180117927449704
0.34207413059366204 0.35125941061158844 0.3329701075712264
0.3434037786228966 0.3525845334246596 0.3341525881998548
0.344744344334222 0.3539153516789142 0.33535020438930296
0.34609428313021257 0.35525319743763856 0.33655897991949585
0.3474540114145341 0.3565982674152688 0.3377835443154754
0.348828301446625 0.35795053764894136 0.3390096939286173
0.3502228035304192 0.35930944110808993 0.34023268419098857
0.3516305127995193 0.36067709898410516 0.3414619247296332
0.3530522098086253 0.362053704817101 0.3426973694278226
0.3544950643699374 0.36343853590996306 0.34392965501965106
0.3559613597459815 0.3648318493636646 0.34515732702156504
0.35744418280933066 0.3662355279328123 0.3463900153569286
0.35894650890086327 0.3676496087108041 0.34762562002272984
0.3604645899223378 0.3690755382329473 0.34886987474790854
0.3620032318304634 0.3705128854568559 0.35011966761483004
0.363557016346012 0.3719635446399695 0.35138066089152775
0.3651300339023559 0.3734270760708376 0.3526509186816535
0.36671866337433107 0.3749050980333522 0.353933666960616
0.36832210406319416 0.37639704077632813 0.3552491444791847
0.3699420861434394 0.3779043318829837 0.35657827226751826
0.3715780010200001 0.3794270720082373 0.35793383333008494
0.3732312204107926 0.3809659926941136 0.35930612507657855
0.3748972864528025 0.3825224613843213 0.3607067147941354
0.3765794729614167 0.3840963715015118 0.3621284201635549
0.37827723198940355 0.38568843741776965 0.36357440353455955
0.3799917151982658 0.3872988949367516 0.36504305979564255
0.38172234190381077 0.388928554557173 0.36653303885131006
0.3834687916812166 0.3905780040498738 0.36804571605185016
0.3852333967961596 0.39224716926996067 0.3695789319516714
0.3870144969541899 0.393936673726418 0.3711353393731065
0.3888163598044938 0.3956462540358078 0.37271035296828636
0.3906387169013771 0.39737640442106775 0.37430467277869084
0.3924823233004131 0.399126982535934 0.3759179197819848
0.39434688499069914 0.40089860992280896 0.3775510551108295
0.3962340673036131 0.4026909915679424 0.3792038950949682
0.3981464067517728 0.40450372656353595 0.3808786157544459
0.400081801318224 0.4063376567189085 0.38257341961839064
0.4020424779520328 0.4081922909301875 0.3842902255405015
0.40402742275611225 0.41006817675021234 0.3860303063062893
0.40604039147402404 0.41196341540295084 0.3878040812225986
0.40807857025208316 0.41387963988538967 0.3896033615881369
0.41014474383965394 0.41581585794663084 0.3914351989417086
0.4122429243268452 0.4177705669253625 0.3933030758792292
0.41437377853793633 0.41974360722832393 0.3952081153758501
0.41654562902239284 0.42173134153199304 0.3971659323656349
0.41875334676507725 0.42373637761321276 0.3991613615494153
0.4210035827873101 0.4257565911312674 0.40119983425743583
0.4233118943617096 0.42778552300517303 0.4033018218087165
0.4256652551400267 0.4298308156710995 0.40541962988485974
0.4280715461064911 0.431891129929664 0.4075393047661183
0.4305044009421865 0.43398120896896136 0.4095779109729293
0.43296195147976957 0.4361022183979802 0.4115270696034349
0.43544578891367103 0.43825306788732804 0.413392563087548
0.43794588784349014 0.4404334194569467 0.4152151383723973
0.4404486055973973 0.4426465913364299 0.4170078523148595
0.4429484834906312 0.44488993715027847 0.4188242107567711
0.4454397832933506 0.4471649782336284 0.4206667579934887
0.44792357948235245 0.44947065708912276 0.4225414120981149
0.45042029218620033 0.45179930488291814 0.424465713806141
0.45296885015329974 0.45413462163205603 0.4264906382472159
0.4555216521568885 0.45648913276650455 0.4286434416883549
0.45804452730658357 0.4588758860368822 0.4308918341841469
0.4605522707422122 0.4612926991085394 0.43320261748093636
0.463059510688649 0.46373621091075506 0.4355572665854989
0.4655736446660019 0.46620437725434355 0.43795079180207697
0.4681064490691023 0.4686938631947905 0.4403773237061681
0.4706576767629796 0.47120417076785664 0.44284050886944387
0.47323237829776715 0.47373478340052105 0.4453250481946746
0.47583444422887505 0.47628432610906907 0.4478302895969111
0.4784645760364669 0.4788529575459683 0.45034950974717153
0.4811287316271868 0.4814391567312341 0.452873879816349
0.4838342393629505 0.4840411029712442 0.45539475609548624
0.48656831637261816 0.4866618106178812 0.45792411562760077
0.48934235206890603 0.48929845151030554 0.4604450255618477
0.49214333016665907 0.49195364668524916 0.4629703650784645
0.49496342159629053 0.4946288424029646 0.4655029074254992
0.49780064263394114 0.4973256126816287 0.46802244364975126
0.5006567764930443 0.5000412301581756 0.4705500755591368
0.5035268360505126 0.5027774806048634 0.47307428459172257
0.5064146501611475 0.5055323504454765 0.475599795823816
0.5093270656221434 0.5083024977632763 0.4781353426261939
0.5122683844907764 0.5110860508953122 0.4806813917648756
0.515244404497581 0.5138807703020931 0.4832380252333754
0.5182788876528343 0.5166774714908791 0.4858229488801897
0.5213998914770313 0.5194690097309301 0.48840993024656115
0.5246410761048013 0.522244272646727 0.4910001136013347
0.527963107937495 0.52501766770671 0.4935614591499962
0.5311862573357118 0.5278448110570487 0.4960968202935177
0.534287038551255 0.5307303861823899 0.49863693243913226
0.5373038974377031 0.5336610162152617 0.5011946464386676
0.5402415003259 0.5366347287356691 0.5037743823204759
0.5431681490168666 0.5396290570760174 0.5063862983920141
0.5460925865836779 0.5426410892117467 0.5090288581331872
0.5490458779489399 0.54566081625805 0.511702001420944
0.5520197542625359 0.5486902694157559 0.514410977687929
0.5550292811854758 0.5517228896942451 0.5171752598682918
0.5580529599937722 0.5547673128910685 0.5199679028719122
0.5610988941030559 0.5578170993522925 0.5228366406418051
0.5641574874674605 0.5608792822153412 0.5257262968184037
0.5672218021303121 0.5639538664061144 0.5286636115080534
0.5702942106810821 0.5670407786555347 0.5316360946673028
0.5733793152249637 0.5701400500362146 0.5346233224011029
0.5764526564442419 0.5732551959531231 0.5376762717253596
0.5795363447452179 0.5763829247768644 0.5407459374839375
0.5826322364438808 0.579522523451521 0.5438329229462762
0.5857395660427072 0.5826707296383109 0.5469800696147796
0.5888581558305367 0.5858310682196839 0.5501403230564746
0.5920061484977704 0.5889966889420761 0.553327718179833
0.5952017907570388 0.5921606449740607 0.5565566153291255
0.5984110289264067 0.5953354544741046 0.5598012963991783
0.601661240825727 0.5985130987745634 0.5630542520216416
0.6049330507976526 0.6016992526277579 0.5663186842554668
0.6082183176581222 0.6048976650575707 0.5695770865782886
0.611516654383402 0.6081097511848946 0.5728132303672964
0.6148272706826248 0.6113331234064708 0.576058675651646
0.6181498886317554 0.6145719045148843 0.5792612389975708
0.62148556584575 0.6178219381235802 0.5824686017139854
0.624845895205686 0.6210819113222452 0.5856505704986069
0.6282279602897405 0.6243517300210537 0.5888202280242274
0.6316383831060601 0.6276291969228573 0.5919774981593086
0.6350770013398087 0.6309141507306443 0.5951243349937085
0.6385549526246116 0.6342024011079992 0.5982703793998568
0.6420609198758068 0.6374961822358345 0.6014300715954656
0.645577941259168 0.6407980963152993 0.6046386286811847
0.649073523446306 0.6441158283562938 0.6079271631916071
0.6525481461373337 0.6474540718955175 0.611234273072509
0.6560036798599226 0.6508140573404126 0.6145366549349105
0.6594194528071677 0.6542022821689357 0.6178334395232362
0.6628388700706013 0.6576034378617326 0.6211465142185044
0.6662699729580447 0.6610146314035831 0.6244822856071537
0.6697379521804289 0.6644259065925952 0.6278652337305727
0.6732342496553462 0.6678417977963169 0.6312734466491802
0.676761942843144 0.6712634734406556 0.6346785402367526
0.6803453210280088 0.6746920455134716 0.6379716467073369
0.6839950074195211 0.6781273335472333 0.6411123116720338
0.687653930451341 0.6815733999670505 0.6442776641312814
0.6913080500799927 0.6850321171905738 0.6475007175991647
0.6949597962727494 0.6885010727207658 0.6508027687066329
0.6986085470409678 0.6919812833845977 0.6541755965136797
0.7022521874704828 0.6954729219709574 0.6576257178420497
0.7059045495861062 0.6989730463049204 0.6611379328859849
0.7095670814709992 0.702482917664937 0.6646901419521554
0.7132466272822734 0.7060055925079326 0.6682198153939451
0.7169377382936211 0.7095414276621059 0.6717444634167666
0.7206271357320199 0.713093610494396 0.6752796168317772
0.7243198402866587 0.7166606064108534 0.6788262177093132
0.7280259716407259 0.7202376238341562 0.6824086030631874
0.7317452659374913 0.7238253834311649 0.6860199143183024
0.7354811572867431 0.727422621076643 0.6896659121376012
0.7392354401979483 0.731028921694624 0.6933483763570765
0.743005510453722 0.7346461600158444 0.6970573890135222
0.7467868404028561 0.7382770503237659 0.7007793770979699
0.7505791609529512 0.741922075081681 0.7045137967388942
0.7543766949699773 0.7455836773100764 0.7082550684635156
0.7581815221548269 0.7492610405958781 0.712008772671653
0.761994971912977 0.7529534955734812 0.7157811236529006
0.7657919976802817 0.7566629554081106 0.7196517003890647
0.7695634734709313 0.7603947232151659 0.7235925780406506
0.7732909047853108 0.7641578317361064 0.7275660693838091
0.7769835901938582 0.7679534596136027 0.7315245718723653
0.7806529691286898 0.7717784134287581 0.7354646817066084
0.784301275872476 0.7756318720622193 0.7393918545965985
0.7879314166090147 0.7795100605645552 0.7433452960216236
0.7915448413196672 0.7834115873442367 0.7473384488505853
0.7951414218251025 0.7873345473976722 0.7513991433393458
0.7987617362493771 0.7912653598890403 0.7555401551195038
0.80242130006992 0.7952002912252745 0.7597497569587519
0.8061308114328642 0.7991363904529591 0.7640255079059592
0.8098810928408208 0.8030809949191732 0.7683137416802631
0.8136729880109235 0.807034477796261 0.7726089941969838
0.8174841470101906 0.8110072945166001 0.776870175729143
0.8213155301959046 0.8150006699987586 0.7810790144755275
0.8251706037771547 0.8190102496662194 0.7852799025205061
0.8290571622866829 0.8230348121166576 0.7894568682021887
0.8329846649935778 0.827068180834756 0.7936511991229579
0.8369698148772358 0.8311057565908687 0.7978566165534711
0.8410189418246983 0.8351460533348621 0.8020657091679623
0.845130130244487 0.8391930927214235 0.8062354302839861
0.8492913100138045 0.8432532456195309 0.810333117980917
0.8534702879925472 0.8473391011610345 0.8143255743189901
0.8576332832881713 0.8514613888262347 0.8182094580097989
0.8617518717075717 0.8556284965343344 0.8219883566056428
0.8658259135021475 0.8598318503643151 0.8257658610664129
0.8699405040964789 0.8640252799690634 0.8297819442852422
0.8741330121377405 0.8681925470749547 0.8340884075400015
0.8783716336318279 0.8723488252590021 0.8386148246883379
0.8826310613494038 0.8765100349479775 0.8432545710640189
0.8868995892421578 0.8806864533399305 0.8479192218143987
0.8911798850854407 0.8848767076823042 0.8526072200365717
0.895493183474624 0.8890723467772403 0.8573326935991269
0.8998465897196378 0.8932681144267854 0.8621240330944564
0.904250111728192 0.8974583937799949 0.8670018123129992
0.9086792667767846 0.9016498451163398 0.8719677278325666
0.9130769820337536 0.9058658430479175 0.8769424061953556
0.9173894760416457 0.9101247663018786 0.8818955673772659
0.9216206838685216 0.9144297828358373 0.8867605406570365
0.9257679306273068 0.9187872873458824 0.8914558117312671
0.9296507129665961 0.9232419849001959 0.8961134763975657
0.9330728270867817 0.9277997746506919 0.9013986342660039
0.9360561250666566 0.9325398663542819 0.9062296998576048
0.9389447201618255 0.9374050902033355 0.9099681826045
0.942822358867119 0.9413450307468428 0.9213362306159963
0.23841903093829075 0.25422789430093806 0.24814492302226626
0.2517712428674379 0.27003412335882687 0.26339277760446217
0.2559452819405959 0.27379778246459274 0.2667473772230953
0.2596791664772302 0.2770131004912153 0.26960422617211144
0.2632031312849872 0.2798023834722805 0.2720823256319501
0.266288197255388 0.2823557605850183 0.27421792201018613
0.26907708613602205 0.2847060223978556 0.27618361062827845
0.2716069049770012 0.2868992367688131 0.27803596425195043
0.27395959993702224 0.2889550269682927 0.2797838771016476
0.2761524595959331 0.2909005430076506 0.2814476619492515
0.27822634933554097 0.29274723512047507 0.2830320405535061
0.2801978891182554 0.29451076581696606 0.2845449320541218
0.2820657156670048 0.2962071350497468 0.2859844674396688
0.2838593484345979 0.29783926336441136 0.2873690774751502
0.2855874114636382 0.299414685613759 0.28870519770700437
0.2872597598389266 0.3009423686860466 0.2900009870597191
0.28888688775985105 0.3024298079961257 0.2912625982812017
0.2904768444413181 0.303882664542293 0.2924928248208524
0.2920345218314813 0.30530593551541163 0.2936975979772474
0.29357359365947067 0.3067006597758263 0.2948839808224031
0.29508867246877374 0.30807295667102785 0.2960513180240821
0.2965878784546359 0.3094247816205965 0.297197382657844
0.2980692097781344 0.3107594056406483 0.29832784147057473
0.29954244557131304 0.31207746935636244 0.29943633871632036
0.30100258865926977 0.3133821290950048 0.30053145248700114
0.30245507746564476 0.3146743903410056 0.30160945842639886
0.30389371253494935 0.3159572629904723 0.30268055291655926
0.3053187403970981 0.31723227635134177 0.30374647987416
0.3067356756039247 0.31849960842750835 0.3048039603735639
0.30814540420947384 0.3197602258262275 0.30585455835647063
0.3095436258676806 0.32101477876344964 0.3069255365043106
0.31093546013461437 0.3222643273190256 0.3079968301003598
0.31232172562840604 0.32350968420001674 0.3090715144374845
0.3137022931339591 0.3247520178985527 0.31014519616986097
0.3150753108105777 0.3259926442859068 0.311221385055276
0.3164454247475352 0.32723150777550986 0.31229657809562206
0.31781312774303794 0.3284690798804173 0.313371203762066
0.31917563917482766 0.3297069979250845 0.31444583815972427
0.3205358848118021 0.3309451135986913 0.315520472759875
0.32189533081684313 0.33218385024624547 0.3165942348557368
0.3232543101091386 0.3334236944702235 0.31766722623788923
0.32460838151361954 0.33466709060760197 0.3187345959615232
0.32596351148094965 0.33591235481779835 0.3198009155691645
0.3273202023440201 0.33716028895144134 0.32086592055173424
0.32867163605136446 0.3384133971403181 0.32192718441581114
0.3300231600641193 0.33967067250211674 0.32298815892667376
0.3313756285531935 0.3409325238907882 0.32404557168952225
0.33272357399119695 0.34220003626631923 0.3251131833617209
0.33406790791528734 0.3434736666364324 0.3261911613820071
0.3354104507426686 0.34475341403797083 0.32727613242151316
0.3367486323109645 0.3460397942034316 0.32838071138611247
0.33808345049160243 0.34733315837726547 0.3295044467888176
0.33941669192213375 0.3486334400037154 0.3306449565322134
0.34074538462349074 0.3499423663781852 0.33180117927449704
0.34207413059366204 0.35125941061158844 0.3329701075712264
0.3434037786228966 0.3525845334246596 0.3341525881998548
0.344744344334222 0.3539153516789142 0.33535020438930296
0.34609428313021257 0.35525319743763856 0.33655897991949585
0.3474540114145341 0.3565982674152688 0.3377835443154754
0.348828301446625 0.35795053764894136 0.3390096939286173
0.3502228035304192 0.35930944110808993 0.34023268419098857
0.3516305127995193 0.36067709898410516 0.3414619247296332
0.3530522098086253 0.362053704817101 0.3426973694278226
0.3544950643699374 0.36343853590996306 0.34392965501965106
0.3559613597459815 0.3648318493636646 0.34515732702156504
0.35744418280933066 0.3662355279328123 0.3463900153569286
0.35894650890086327 0.3676496087108041 0.34762562002272984
0.3604645899223378 0.3690755382329473 0.34886987474790854
0.3620032318304634 0.3705128854568559 0.35011966761483004
0.363557016346012 0.3719635446399695 0.35138066089152775
0.3651300339023559 0.3734270760708376 0.3526509186816535
0.36671866337433107 0.3749050980333522 0.353933666960616
0.36832210406319416 0.37639704077632813 0.3552491444791847
0.3699420861434394 0.3779043318829837 0.35657827226751826
0.3715780010200001 0.3794270720082373 0.35793383333008494
0.3732312204107926 0.3809659926941136 0.35930612507657855
0.3748972864528025 0.3825224613843213 0.3607067147941354
0.3765794729614167 0.3840963715015118 0.3621284201635549
0.37827723198940355 0.38568843741776965 0.36357440353455955
0.3799917151982658 0.3872988949367516 0.36504305979564255
0.38172234190381077 0.388928554557173 0.36653303885131006
0.3834687916812166 0.3905780040498738 0.36804571605185016
0.3852333967961596 0.39224716926996067 0.3695789319516714
0.3870144969541899 0.393936673726418 0.3711353393731065
0.3888163598044938 0.3956462540358078 0.37271035296828636
0.3906387169013771 0.39737640442106775 0.37430467277869084
0.3924823233004131 0.399126982535934 0.3759179197819848
0.39434688499069914 0.40089860992280896 0.3775510551108295
0.3962340673036131 0.4026909915679424 0.3792038950949682
0.3981464067517728 0.40450372656353595 0.3808786157544459
0.400081801318224 0.4063376567189085 0.38257341961839064
0.4020424779520328 0.4081922909301875 0.3842902255405015
0.40402742275611225 0.41006817675021234 0.3860303063062893
0.40604039147402404 0.41196341540295084 0.3878040812225986
0.40807857025208316 0.41387963988538967 0.3896033615881369
0.41014474383965394 0.41581585794663084 0.3914351989417086
0.4122429243268452 0.4177705669253625 0.3933030758792292
0.41437377853793633 0.41974360722832393 0.3952081153758501
0.41654562902239284 0.42173134153199304 0.3971659323656349
0.41875334676507725 0.42373637761321276 0.3991613615494153
0.4210035827873101 0.4257565911312674 0.40119983425743583
0.4233118943617096 0.42778552300517303 0.4033018218087165
0.4256652551400267 0.4298308156710995 0.40541962988485974
0.4280715461064911 0.431891129929664 0.4075393047661183
0.4305044009421865 0.43398120896896136 0.4095779109729293
0.43296195147976957 0.4361022183979802 0.4115270696034349
0.43544578891367103 0.43825306788732804 0.413392563087548
0.43794588784349014 0.4404334194569467 0.4152151383723973
0.4404486055973973 0.4426465913364299 0.4170078523148595
0.4429484834906312 0.44488993715027847 0.4188242107567711
0.4454397832933506 0.4471649782336284 0.4206667579934887
0.44792357948235245 0.44947065708912276 0.4225414120981149
0.45042029218620033 0.45179930488291814 0.424465713806141
0.45296885015329974 0.45413462163205603 0.4264906382472159
0.4555216521568885 0.45648913276650455 0.4286434416883549
0.45804452730658357 0.4588758860368822 0.4308918341841469
0.4605522707422122 0.4612926991085394 0.43320261748093636
0.463059510688649 0.46373621091075506 0.4355572665854989
0.4655736446660019 0.46620437725434355 0.43795079180207697
0.4681064490691023 0.4686938631947905 0.4403773237061681
0.4706576767629796 0.47120417076785664 0.44284050886944387
0.47323237829776715 0.47373478340052105 0.4453250481946746
0.47583444422887505 0.47628432610906907 0.4478302895969111
0.4784645760364669 0.4788529575459683 0.45034950974717153
0.4811287316271868 0.4814391567312341 0.452873879816349
0.4838342393629505 0.4840411029712442 0.45539475609548624
0.48656831637261816 0.4866618106178812 0.45792411562760077
0.48934235206890603 0.48929845151030554 0.4604450255618477
0.49214333016665907 0.49195364668524916 0.4629703650784645
0.49496342159629053 0.4946288424029646 0.4655029074254992
0.49780064263394114 0.4973256126816287 0.46802244364975126
0.5006567764930443 0.5000412301581756 0.4705500755591368
0.5035268360505126 0.5027774806048634 0.47307428459172257
0.5064146501611475 0.5055323504454765 0.475599795823816
0.5093270656221434 0.5083024977632763 0.4781353426261939
0.5122683844907764 0.5110860508953122 0.4806813917648756
0.515244404497581 0.5138807703020931 0.4832380252333754
0.5182788876528343 0.5166774714908791 0.4858229488801897
0.5213998914770313 0.5194690097309301 0.48840993024656115
0.5246410761048013 0.522244272646727 0.4910001136013347
0.527963107937495 0.52501766770671 0.4935614591499962
0.5311862573357118 0.5278448110570487 0.4960968202935177
0.534287038551255 0.5307303861823899 0.49863693243913226
0.5373038974377031 0.5336610162152617 0.5011946464386676
0.5402415003259 0.5366347287356691 0.5037743823204759
0.5431681490168666 0.5396290570760174 0.5063862983920141
0.5460925865836779 0.5426410892117467 0.5090288581331872
0.5490458779489399 0.54566081625805 0.511702001420944
0.5520197542625359 0.5486902694157559 0.514410977687929
0.5550292811854758 0.5517228896942451 0.5171752598682918
0.5580529599937722 0.5547673128910685 0.5199679028719122
0.5610988941030559 0.5578170993522925 0.5228366406418051
0.5641574874674605 0.5608792822153412 0.5257262968184037
0.5672218021303121 0.5639538664061144 0.5286636115080534
0.5702942106810821 0.5670407786555347 0.5316360946673028
0.5733793152249637 0.5701400500362146 0.5346233224011029
0.5764526564442419 0.5732551959531231 0.5376762717253596
0.5795363447452179 0.5763829247768644 0.5407459374839375
