obsidian/Clippings/写真家活動/技法探求/デジネガ/QTR/プロファイル作成/QTR-DN/QTR-DN/QUAD/5%/PtPd-K45-Na2-5-V4-final_SoftproofLUT.cube
#Color Lookup Table 
TITLE "QuadToneProfiler Color Lookup Table for 256-step Soft Proof
LUT_1D_SIZE 256
DOMAIN_MIN 0.0 0.0 0.0
DOMAIN_MAX 1.0 1.0 1.0
0.2273742787760501 0.2256188514978053 0.22563244956580253
0.22963550546723394 0.2280525328751376 0.22795596882742897
0.23195783524185448 0.23055235391383355 0.23034246998934205
0.2344155796082657 0.23302906921700522 0.23257090622094329
0.2370034490498643 0.23548374817981788 0.2346475055010161
0.23968236923734726 0.23792355800359855 0.2366305350350762
0.24239654147393946 0.24035960346298396 0.23859414518612504
0.2451416303198724 0.2427918200345892 0.2405544857369648
0.24790455797396344 0.24522359126430315 0.24251950298589753
0.2506370216073735 0.2476640141398787 0.2445619289344763
0.2533641337988202 0.2501088533984519 0.24663818498683932
0.2560989731596761 0.2525553465864613 0.24873185106481593
0.25885081506001956 0.25500176113514983 0.2508282259487057
0.26163649070560696 0.2574470479464747 0.2528752489084526
0.2644510494471867 0.25989340934079086 0.25486422980657836
0.26728113456072716 0.2623432968366096 0.2568157603089599
0.27011767677174925 0.2647978971283255 0.25874970493118776
0.2729507095342556 0.26725800546034956 0.26069454083020216
0.2757698767050395 0.2697246146233625 0.2626783007010569
0.2785762200467643 0.2721974470378803 0.2647005308481469
0.281383587351935 0.27467428469152644 0.2667344320332906
0.28420119518004194 0.2771535958632975 0.2687624873355958
0.28702348375672126 0.2796366095114988 0.2707910527110666
0.28985163073934833 0.28212339120745317 0.2728143944573264
0.29268720819500177 0.2846137899333947 0.27482783111993797
0.2955312267183557 0.2871077038949627 0.2768282402269097
0.29838346957392325 0.28960521523469823 0.2788150648501229
0.3012439714089758 0.2921063508246091 0.2807874319965112
0.30411229524548866 0.2946111986757358 0.2827455903691348
0.3069861987875105 0.29712010450662474 0.28469383833470874
0.30986492530849535 0.29963316809287005 0.28663363730062436
0.3127453136278875 0.302150841553895 0.28857178395904354
0.3156255054815349 0.3046732876417282 0.29051353128914215
0.318504632322276 0.30720042295189887 0.29246327170286246
0.32137989966386127 0.30973254432498193 0.2944285131106964
0.32425227201503515 0.3122694368585139 0.296407944675097
0.32711957723959745 0.3148114600505163 0.29840582981355257
0.32998453369035713 0.3173582340017689 0.3004157430893928
0.3328475762940912 0.31990971479012914 0.3024363206880306
0.3357106261272287 0.3224656296485012 0.30446294876416885
0.3385757758473117 0.3250256888953144 0.3064904629053573
0.3414439664874673 0.3275897627146902 0.30851638179833396
0.34431571420460455 0.3301577617398912 0.3105394485833973
0.34719205119766455 0.3327295039841048 0.3125574258541794
0.35007120375078876 0.3353052018084545 0.314574727532508
0.3529543490958172 0.3378845893507914 0.31658959000132264
0.355838991859249 0.3404679463690694 0.31860863680598467
0.35872439425321967 0.34305530219885483 0.3206343906142518
0.36160946329864146 0.345646716615593 0.32267050321925966
0.3644921891385746 0.3482423800585963 0.324722847716872
0.3673722858102201 0.35084226890632747 0.3267928177132473
0.37024921592660126 0.35344640884813816 0.32888224140645445
0.37312344936779146 0.35605468118699096 0.3309905464443274
0.37599616511358236 0.3586669008196901 0.3331149925124115
0.37886812740906806 0.3612829896675169 0.3352531926198351
0.3817404967227168 0.3639028167383941 0.33740173671895063
0.3846144202419455 0.36652619449452656 0.3395579803680885
0.38749158907801073 0.3691527689851446 0.34171909462958594
0.39037424904725976 0.37178207983235717 0.34388123507656315
0.3932625666297711 0.37441398535531145 0.34604529778100823
0.3961590022291021 0.3770479543350324 0.3482074036340253
0.39906200146227366 0.3796841409609806 0.35037197395184405
0.4019720261493107 0.3823224249558933 0.35253835794440325
0.4048870215393599 0.3849630292584743 0.3547122740496413
0.4078043072692656 0.3876063041719837 0.356900518543453
0.4107216181684475 0.39025256849295115 0.3591085504867553
0.413634610379952 0.3929026315444743 0.36134444102718727
0.4165440836073015 0.39555652503760325 0.363604200266213
0.4194493442939159 0.39821456785688 0.365886528941645
0.4223519460432002 0.40087674471380524 0.36818474544283153
0.4252524687221444 0.4035431955802337 0.3704943349648135
0.4281520896895808 0.40621384198502875 0.37281103800652493
0.4310510141457628 0.4088886635842248 0.37513404983754356
0.4339502471838216 0.4115674537079205 0.37746152744482636
0.4368502521408236 0.4142500896511656 0.37979287835645076
0.4397511811767098 0.4169365273776568 0.3821278304212293
0.4426528944498978 0.4196268060147459 0.38446629143870387
0.44555413408625205 0.4223211801602675 0.38681021844834357
0.4484542926623984 0.42501984434107215 0.38915952422124744
0.45135165277008876 0.42772317953143346 0.39151652291789607
0.4542449454451097 0.4304314511636527 0.3938830983653561
0.45713232492081485 0.4331449727213725 0.3962630325742052
0.4600135889141272 0.4358637440848058 0.3986570511069187
0.462889209894549 0.438587512220146 0.4010662593533677
0.4657625932443465 0.44131552046831246 0.40348554898018485
0.4686362357421436 0.4440471297657321 0.4059122348967708
0.471512081863289 0.4467819319723802 0.4083429991404236
0.4743904645863722 0.44951994818456825 0.41077591909345534
0.47727079040650894 0.452261339264502 0.4132112915045719
0.48015380309151673 0.4550060917838353 0.41564584594477677
0.48303864728385587 0.4577543848747447 0.418080788448149
0.48592585092372315 0.4605062495097572 0.420513208224017
0.48881410621003757 0.46326189333137685 0.4229459250661619
0.49170269633842184 0.46602145909788356 0.4253800231864443
0.49459034195848267 0.4687851315884522 0.4278185074552917
0.4974755354991765 0.4715531026904705 0.43026529685848924
0.5003573689565454 0.4743254644059101 0.4327229990924325
0.5032354075034605 0.4771021328124256 0.4351944734868125
0.5061109555247674 0.4798827719837275 0.4376782652131223
0.5089857806557226 0.48266699077412606 0.4401716122479487
0.5118612084183028 0.4854545622153836 0.44267152162883683
0.5147375445404991 0.4882454673386844 0.4451767317796212
0.5176145056700816 0.491039863203447 0.4476862390162258
0.5204911359262394 0.4938379443587381 0.4502015038994978
0.5233670713325528 0.4966398635160118 0.4527219348389721
0.5262417116013353 0.4994456068938354 0.4552501927528961
0.5291151262270213 0.502255118480785 0.4577865497658344
0.5319870886865273 0.505068265480743 0.46033360306716037
0.534857828029542 0.5078848535745563 0.4628927617703322
0.5377281173842646 0.5107045761297127 0.46546453325256015
0.5405992090338664 0.5135270078591639 0.4680488953454352
0.5434730069403675 0.5163517614558071 0.4706424570041072
0.546350832650001 0.5191785605366716 0.47324292305066756
0.5492335017306923 0.5220073674418798 0.47584705675112976
0.5521209240725452 0.5248383364284358 0.4784530583187144
0.5550120000164053 0.5276718311485379 0.4810607858457913
0.5579051522873215 0.5305082604202553 0.4836715951332556
0.5607990554205644 0.5333479343113068 0.4862870435191628
0.563692907912642 0.5361910072116594 0.48890845091752316
0.5665864324844804 0.539037500455049 0.49153659980682146
0.5694797443251982 0.5418873454934403 0.4941717423913082
0.5723732535057481 0.5447404030182417 0.49681377690753264
0.5752676123881514 0.5475965612110855 0.4994611742885858
0.5781633228485896 0.550455718154733 0.5021129381568753
0.5810606055963179 0.5533178268875655 0.5047685790539067
0.5839597256521052 0.5561828647315676 0.5074270922340928
0.5868612267565247 0.5590507080549215 0.5100875936461731
0.5897656828378431 0.5619212882023595 0.5127483395015245
0.5926729936891559 0.5647946430706843 0.5154091298668936
0.595582682608412 0.5676709324539863 0.5180697964383728
0.5984941265260083 0.5705502805870761 0.5207312840115385
0.6014066461977081 0.5734327617469687 0.5233954457116502
0.6043196111882732 0.5763183796874777 0.5260648558487645
0.6072324353014147 0.5792071372998031 0.5287419045122058
0.6101445823148429 0.5820990539020775 0.5314285427240957
0.6130558655810079 0.584994094250683 0.5341259138587323
0.6159663274681626 0.5878922271429019 0.5368341046295417
0.618876012198077 0.5907933458155402 0.5395541973733508
0.6217850062847918 0.5936973622795002 0.5422868400413713
0.6246934905526502 0.5966041784556794 0.5450324024034882
0.6276016858093936 0.5995136878124817 0.5477911923293768
0.630509938570268 0.6024258270133691 0.5505623963463246
0.6334186031245221 0.6053404656874174 0.5533460587750341
0.6363274673557624 0.6082576837100171 0.5561419078342151
0.6392366085600428 0.6111774662384107 0.5589496653996227
0.6421458778083347 0.6140998812082648 0.5617689426571292
0.645055118323125 0.6170250250058894 0.5645990079378597
0.6479646950270717 0.6199528801620932 0.567438367806686
0.6508745003580937 0.622883586591325 0.5702855037155667
0.6537843427014423 0.6258172364007002 0.5731398974505689
0.6566935804562624 0.6287540444069013 0.57600136191566
0.6596019841984322 0.631694057029909 0.578870146103927
0.6625091792939509 0.6346373715898405 0.5817464548004562
0.6654152136791409 0.6375839794304964 0.5846300599509318
0.6683205833532905 0.6405337829295207 0.5875199689597334
0.6712258095506577 0.6434866954732201 0.5904149391800765
0.6741314055490366 0.6464426100607997 0.5933140369286283
0.6770377004134157 0.6494014337256089 0.5962169446399013
0.6799442394366625 0.6523632855708936 0.5991239356327891
0.6828510704770147 0.6553281303234184 0.6020351474791137
0.6857576335292846 0.658296148556739 0.6049504948537798
0.6886640675334815 0.661267287729048 0.6078699492868166
0.6915706169831206 0.6642414728539123 0.6107933247181261
0.6944776832869791 0.6672186582306441 0.6137193759329893
0.6973860047275282 0.6701986504693394 0.616647357850695
0.700295395358079 0.6731814785567948 0.6195775781554024
0.703206248080097 0.6761669750546402 0.6225104412371075
0.7061184133264383 0.6791551442801694 0.6254464237802398
0.709032189989574 0.6821458856938527 0.6283854561152356
0.7119475436503492 0.6851392279466318 0.631327201979324
0.7148644869534764 0.6881351502364732 0.6342717742109737
0.7177829818739753 0.6911336430191278 0.6372193552727288
0.7207030060869882 0.6941346952857453 0.6401700798149412
0.7236247004400032 0.6971382409994309 0.643124107400874
0.7265477668192678 0.70014432727518 0.6460819897746881
0.7294715576798919 0.7031530700127451 0.649044866747375
0.732395307135589 0.7061646552284394 0.6520134588923493
0.7353194691336873 0.7091789657204699 0.6549872547195625
0.7382436667854829 0.7121961772474378 0.6579654480881232
0.7411687472701315 0.7152161063888769 0.6609467247405322
0.7440948808563081 0.7182387228819612 0.663930652896953
0.7470224678340726 0.721263970490911 0.6669161646414946
0.7499518266262819 0.7242917734542328 0.6699027999388985
0.7528816798204065 0.7273223215061684 0.6728934063514631
0.755810744466959 0.7303557479619259 0.6758915821504345
0.7587390107862669 0.7333919462652967 0.6788986496166873
0.7616661174773977 0.7364309871514798 0.6819151020986204
0.7645930680070044 0.7394725410166382 0.6849408806303695
0.7675191900911681 0.7425167255380495 0.6879771832726154
0.7704451678522303 0.7455632903008111 0.6910242716777013
0.7733708286518063 0.7486122781224182 0.6940822052744167
0.7762964376635683 0.7516636486490409 0.6971502788293563
0.7792217988954229 0.7547175439214491 0.7002273575973548
0.7821469671756383 0.7577741255842585 0.7033109949164373
0.7850727108281972 0.7608333915520459 0.7063978766793149
0.7880002997969381 0.7638951612701427 0.7094849126311209
0.7909307743814938 0.7669592335598714 0.7125702604686649
0.7938643628541716 0.7700255233040598 0.7156539900782585
0.7968006184462083 0.7730940615256489 0.7187374969816114
0.7997383578503582 0.7761650397139848 0.7218231763632118
0.8026771280102599 0.7792384555466051 0.7249128698913612
0.8056157516997912 0.7823145304759506 0.7280085410038503
0.8085539580926899 0.7853932729493368 0.7311111147440137
0.8114913765853838 0.7884747482070965 0.7342211935681493
0.8144275148303297 0.7915590721425662 0.73733922864707
0.817362264804561 0.7946462651852758 0.7404653006101858
0.8202946948478662 0.797736584730149 0.7435998546439662
0.8232250397398431 0.8008300468825462 0.7467415922942597
0.8261538225898288 0.8039266382024833 0.7498884004019561
0.8290820417600016 0.807026240970581 0.7530375448544331
0.8320104902701457 0.8101287574094043 0.756186899236656
0.8349397377058928 0.8132340301084657 0.7593360465823912
0.837869852586844 0.8163419111779519 0.7624865326423792
0.840800318166879 0.8194522750109507 0.7656420422100024
0.843731234404636 0.8225647684720794 0.7688066342008336
0.8466608282890213 0.8256795524966845 0.7719854812991364
0.8495901405758292 0.8287962143810409 0.7751794943041097
0.8525173769435357 0.831915028945784 0.7783924419602783
0.855442558409092 0.8350358079647906 0.7816265447364794
0.8583637477784577 0.8381589031173273 0.7848851411124699
0.8612803528883566 0.8412844345402191 0.7881689837186374
0.8641891843826979 0.8444130963661891 0.7914821256088307
0.8670894642763 0.8475451800584999 0.7948238421350755
0.8699785331640911 0.8506815345933318 0.798193964781243
0.8728495385435153 0.8538236019514127 0.80160189354516
0.8756978442808443 0.8569723432336445 0.8050540221894675
0.8785244963525914 0.8601275705425754 0.8085481460171097
0.8813315359952264 0.863288894357933 0.8120805778007928
0.8841175905672266 0.8664565642140967 0.8156533999690776
0.8868841820053194 0.8696302885529376 0.8192637880691008
0.8896321915494805 0.8728099641899163 0.822909132195768
0.8923685863381796 0.8759943993876563 0.8265760224171241
0.8951008687146446 0.879182339312223 0.8302498193780242
0.8978362410687936 0.8823726286283122 0.8339159808836352
0.9005815100199774 0.8855641651640734 0.837561031917616
0.9033413338410367 0.8887561050814402 0.8411770034083795
0.9061176569781823 0.891947957447258 0.8447624418338656
0.9089082512106937 0.8951399624038315 0.8483234019127918
0.9117122202191432 0.8983320551893185 0.8518644071424472
0.9145235256759385 0.901525234464766 0.8553970847151071
0.9173079808746494 0.9047257310866625 0.8589793744233769
0.9200919143164268 0.9079291346533404 0.8625614579275793
0.9228968113439916 0.9111312382495605 0.8661107081003628
0.9257406246533586 0.9143284801940359 0.8696007306615284
0.9286378790337348 0.9175183220068649 0.8730060540092409
0.93160615965492 0.9206973302756942 0.8763004151744652
0.9346283395606675 0.9238686522938726 0.8795125690801634
0.9376786710860789 0.9270374766062839 0.8826795748259213
0.9407248887268014 0.9302092195168672 0.8858613554646982
0.9437266033208567 0.9333905360292691 0.8891342956199401
0.9466094979766616 0.9365953216266578 0.8926177681642733
0.949435692265353 0.9398115193980536 0.8962163912603633
0.9522382009798646 0.9430314733356447 0.8998951872392345
0.9550280757549593 0.9462589912491303 0.9035621932960954
0.9580162811287406 0.9494554744155307 0.9068699502646685
0.9604454253474962 0.9527553782544639 0.9111162723939382
0.2273742787760501 0.2256188514978053 0.22563244956580253
0.22963550546723394 0.2280525328751376 0.22795596882742897
0.23195783524185448 0.23055235391383355 0.23034246998934205
0.2344155796082657 0.23302906921700522 0.23257090622094329
0.2370034490498643 0.23548374817981788 0.2346475055010161
0.23968236923734726 0.23792355800359855 0.2366305350350762
0.24239654147393946 0.24035960346298396 0.23859414518612504
0.2451416303198724 0.2427918200345892 0.2405544857369648
0.24790455797396344 0.24522359126430315 0.24251950298589753
0.2506370216073735 0.2476640141398787 0.2445619289344763
0.2533641337988202 0.2501088533984519 0.24663818498683932
0.2560989731596761 0.2525553465864613 0.24873185106481593
0.25885081506001956 0.25500176113514983 0.2508282259487057
0.26163649070560696 0.2574470479464747 0.2528752489084526
0.2644510494471867 0.25989340934079086 0.25486422980657836
0.26728113456072716 0.2623432968366096 0.2568157603089599
0.27011767677174925 0.2647978971283255 0.25874970493118776
0.2729507095342556 0.26725800546034956 0.26069454083020216
0.2757698767050395 0.2697246146233625 0.2626783007010569
0.2785762200467643 0.2721974470378803 0.2647005308481469
0.281383587351935 0.27467428469152644 0.2667344320332906
0.28420119518004194 0.2771535958632975 0.2687624873355958
0.28702348375672126 0.2796366095114988 0.2707910527110666
0.28985163073934833 0.28212339120745317 0.2728143944573264
0.29268720819500177 0.2846137899333947 0.27482783111993797
0.2955312267183557 0.2871077038949627 0.2768282402269097
0.29838346957392325 0.28960521523469823 0.2788150648501229
0.3012439714089758 0.2921063508246091 0.2807874319965112
0.30411229524548866 0.2946111986757358 0.2827455903691348
0.3069861987875105 0.29712010450662474 0.28469383833470874
0.30986492530849535 0.29963316809287005 0.28663363730062436
0.3127453136278875 0.302150841553895 0.28857178395904354
0.3156255054815349 0.3046732876417282 0.29051353128914215
0.318504632322276 0.30720042295189887 0.29246327170286246
0.32137989966386127 0.30973254432498193 0.2944285131106964
0.32425227201503515 0.3122694368585139 0.296407944675097
0.32711957723959745 0.3148114600505163 0.29840582981355257
0.32998453369035713 0.3173582340017689 0.3004157430893928
0.3328475762940912 0.31990971479012914 0.3024363206880306
0.3357106261272287 0.3224656296485012 0.30446294876416885
0.3385757758473117 0.3250256888953144 0.3064904629053573
0.3414439664874673 0.3275897627146902 0.30851638179833396
0.34431571420460455 0.3301577617398912 0.3105394485833973
0.34719205119766455 0.3327295039841048 0.3125574258541794
0.35007120375078876 0.3353052018084545 0.314574727532508
0.3529543490958172 0.3378845893507914 0.31658959000132264
0.355838991859249 0.3404679463690694 0.31860863680598467
0.35872439425321967 0.34305530219885483 0.3206343906142518
0.36160946329864146 0.345646716615593 0.32267050321925966
0.3644921891385746 0.3482423800585963 0.324722847716872
0.3673722858102201 0.35084226890632747 0.3267928177132473
0.37024921592660126 0.35344640884813816 0.32888224140645445
0.37312344936779146 0.35605468118699096 0.3309905464443274
0.37599616511358236 0.3586669008196901 0.3331149925124115
0.37886812740906806 0.3612829896675169 0.3352531926198351
0.3817404967227168 0.3639028167383941 0.33740173671895063
0.3846144202419455 0.36652619449452656 0.3395579803680885
0.38749158907801073 0.3691527689851446 0.34171909462958594
0.39037424904725976 0.37178207983235717 0.34388123507656315
0.3932625666297711 0.37441398535531145 0.34604529778100823
0.3961590022291021 0.3770479543350324 0.3482074036340253
0.39906200146227366 0.3796841409609806 0.35037197395184405
0.4019720261493107 0.3823224249558933 0.35253835794440325
0.4048870215393599 0.3849630292584743 0.3547122740496413
0.4078043072692656 0.3876063041719837 0.356900518543453
0.4107216181684475 0.39025256849295115 0.3591085504867553
0.413634610379952 0.3929026315444743 0.36134444102718727
0.4165440836073015 0.39555652503760325 0.363604200266213
0.4194493442939159 0.39821456785688 0.365886528941645
0.4223519460432002 0.40087674471380524 0.36818474544283153
0.4252524687221444 0.4035431955802337 0.3704943349648135
0.4281520896895808 0.40621384198502875 0.37281103800652493
0.4310510141457628 0.4088886635842248 0.37513404983754356
0.4339502471838216 0.4115674537079205 0.37746152744482636
0.4368502521408236 0.4142500896511656 0.37979287835645076
0.4397511811767098 0.4169365273776568 0.3821278304212293
0.4426528944498978 0.4196268060147459 0.38446629143870387
0.44555413408625205 0.4223211801602675 0.38681021844834357
0.4484542926623984 0.42501984434107215 0.38915952422124744
0.45135165277008876 0.42772317953143346 0.39151652291789607
0.4542449454451097 0.4304314511636527 0.3938830983653561
0.45713232492081485 0.4331449727213725 0.3962630325742052
0.4600135889141272 0.4358637440848058 0.3986570511069187
0.462889209894549 0.438587512220146 0.4010662593533677
0.4657625932443465 0.44131552046831246 0.40348554898018485
0.4686362357421436 0.4440471297657321 0.4059122348967708
0.471512081863289 0.4467819319723802 0.4083429991404236
0.4743904645863722 0.44951994818456825 0.41077591909345534
0.47727079040650894 0.452261339264502 0.4132112915045719
0.48015380309151673 0.4550060917838353 0.41564584594477677
0.48303864728385587 0.4577543848747447 0.418080788448149
0.48592585092372315 0.4605062495097572 0.420513208224017
0.48881410621003757 0.46326189333137685 0.4229459250661619
0.49170269633842184 0.46602145909788356 0.4253800231864443
0.49459034195848267 0.4687851315884522 0.4278185074552917
0.4974755354991765 0.4715531026904705 0.43026529685848924
0.5003573689565454 0.4743254644059101 0.4327229990924325
0.5032354075034605 0.4771021328124256 0.4351944734868125
0.5061109555247674 0.4798827719837275 0.4376782652131223
0.5089857806557226 0.48266699077412606 0.4401716122479487
0.5118612084183028 0.4854545622153836 0.44267152162883683
0.5147375445404991 0.4882454673386844 0.4451767317796212
0.5176145056700816 0.491039863203447 0.4476862390162258
0.5204911359262394 0.4938379443587381 0.4502015038994978
0.5233670713325528 0.4966398635160118 0.4527219348389721
0.5262417116013353 0.4994456068938354 0.4552501927528961
0.5291151262270213 0.502255118480785 0.4577865497658344
0.5319870886865273 0.505068265480743 0.46033360306716037
0.534857828029542 0.5078848535745563 0.4628927617703322
0.5377281173842646 0.5107045761297127 0.46546453325256015
0.5405992090338664 0.5135270078591639 0.4680488953454352
0.5434730069403675 0.5163517614558071 0.4706424570041072
0.546350832650001 0.5191785605366716 0.47324292305066756
0.5492335017306923 0.5220073674418798 0.47584705675112976
0.5521209240725452 0.5248383364284358 0.4784530583187144
0.5550120000164053 0.5276718311485379 0.4810607858457913
0.5579051522873215 0.5305082604202553 0.4836715951332556
0.5607990554205644 0.5333479343113068 0.4862870435191628
0.563692907912642 0.5361910072116594 0.48890845091752316
0.5665864324844804 0.539037500455049 0.49153659980682146
0.5694797443251982 0.5418873454934403 0.4941717423913082
0.5723732535057481 0.5447404030182417 0.49681377690753264
0.5752676123881514 0.5475965612110855 0.4994611742885858
0.5781633228485896 0.550455718154733 0.5021129381568753
0.5810606055963179 0.5533178268875655 0.5047685790539067
0.5839597256521052 0.5561828647315676 0.5074270922340928
0.5868612267565247 0.5590507080549215 0.5100875936461731
0.5897656828378431 0.5619212882023595 0.5127483395015245
0.5926729936891559 0.5647946430706843 0.5154091298668936
0.595582682608412 0.5676709324539863 0.5180697964383728
0.5984941265260083 0.5705502805870761 0.5207312840115385
0.6014066461977081 0.5734327617469687 0.5233954457116502
0.6043196111882732 0.5763183796874777 0.5260648558487645
0.6072324353014147 0.5792071372998031 0.5287419045122058
0.6101445823148429 0.5820990539020775 0.5314285427240957
0.6130558655810079 0.584994094250683 0.5341259138587323
0.6159663274681626 0.5878922271429019 0.5368341046295417
0.618876012198077 0.5907933458155402 0.5395541973733508
0.6217850062847918 0.5936973622795002 0.5422868400413713
0.6246934905526502 0.5966041784556794 0.5450324024034882
0.6276016858093936 0.5995136878124817 0.5477911923293768
0.630509938570268 0.6024258270133691 0.5505623963463246
0.6334186031245221 0.6053404656874174 0.5533460587750341
0.6363274673557624 0.6082576837100171 0.5561419078342151
0.6392366085600428 0.6111774662384107 0.5589496653996227
0.6421458778083347 0.6140998812082648 0.5617689426571292
0.645055118323125 0.6170250250058894 0.5645990079378597
0.6479646950270717 0.6199528801620932 0.567438367806686
0.6508745003580937 0.622883586591325 0.5702855037155667
0.6537843427014423 0.6258172364007002 0.5731398974505689
0.6566935804562624 0.6287540444069013 0.57600136191566
0.6596019841984322 0.631694057029909 0.578870146103927
0.6625091792939509 0.6346373715898405 0.5817464548004562
0.6654152136791409 0.6375839794304964 0.5846300599509318
0.6683205833532905 0.6405337829295207 0.5875199689597334
0.6712258095506577 0.6434866954732201 0.5904149391800765
0.6741314055490366 0.6464426100607997 0.5933140369286283
0.6770377004134157 0.6494014337256089 0.5962169446399013
0.6799442394366625 0.6523632855708936 0.5991239356327891
