obsidian/Clippings/写真家活動/技法探求/デジネガ/QTR/プロファイル作成/QTR-DN/QTR-DN/QUAD/5%/PtPd-K45-Na2-5-V4measuredLUT.cube
#Color Lookup Table 
TITLE "QuadToneProfiler Color Lookup Table for 256-step Soft Proof
LUT_1D_SIZE 256
DOMAIN_MIN 0.0 0.0 0.0
DOMAIN_MAX 1.0 1.0 1.0
0.22737427877604965 0.22561885149780492 0.22563244956580214
0.23309444912923172 0.231775974371015 0.23151056244328666
0.2374247236633153 0.23588335074522238 0.234985497396274
0.24142809259935588 0.23950124220680774 0.23790224367349144
0.2449903603598964 0.242658685641004 0.24044688283184756
0.24832256017163 0.2455915071109102 0.24281673415936267
0.2516949545653781 0.24861135864827832 0.24535951183324084
0.2550732281148571 0.2516421546973813 0.24794721807732611
0.25857387309091406 0.2547586608169826 0.25062468660713877
0.26207752203262774 0.25783419071379826 0.25319928306827966
0.2653809036091584 0.2607001526324107 0.25551637178044173
0.2685522573607446 0.26344249143412657 0.25768480209271466
0.2716036125430966 0.26608453613764027 0.2597603574070973
0.2745905195508739 0.26868650300457425 0.26183152309263186
0.277636933781717 0.2713680875830556 0.26401863209832704
0.2807236038445877 0.2740935345512202 0.2662592345480718
0.28387005133063403 0.27686226264499303 0.2685244343042629
0.287063402250193 0.27967172960545383 0.27081974062035846
0.2903041329742624 0.28252127641751074 0.2731380540464736
0.2935794290341094 0.2853972361609984 0.27546037525236117
0.2968662408875559 0.28827767248804054 0.2777636875692448
0.3001497224668952 0.29115068486903467 0.2800387904215411
0.3033872454621724 0.2939782386099449 0.2822535145887513
0.30657634220568103 0.2967623486466652 0.2844175899297971
0.3096898507232158 0.29948014558078934 0.2865158141603107
0.31273705854594114 0.3021436120354652 0.2885662177075428
0.3157254354512747 0.3047608079724174 0.2905808901699264
0.3186708171788269 0.3073463060555874 0.2925758123606326
0.32161506358911396 0.309939688209556 0.2945893128304695
0.324568733018101 0.3125490085686321 0.29662614409322596
0.3275863554863739 0.3152254718794876 0.29873144444155125
0.3306641431665329 0.317962636598355 0.3008929769433167
0.3338237254030676 0.32078020689430864 0.3031261997109476
0.3370543955680482 0.3236659288734695 0.3054147779003001
0.34033376206521987 0.32659693867424316 0.3077332458518882
0.34365212881895146 0.3295644847266009 0.31007377007791054
0.34696053060083304 0.33252238787112737 0.3123951850424651
0.35025352421400036 0.33546830837339825 0.31470245329460844
0.353481413615752 0.3383561321469661 0.31695780730484724
0.3566469184673661 0.3411916609561223 0.31917428146933563
0.3597324334427642 0.34395959457096215 0.32134276895321545
0.362747726302841 0.3466698260540709 0.32347555571657594
0.36572936465708145 0.34935764502255495 0.3256073163986533
0.3686820623211011 0.3520258521547834 0.3277378137212679
0.3716544785337524 0.35472022065885805 0.3299083282835408
0.3746448464943104 0.35743676734093927 0.3321112635285208
0.37767111007440424 0.36019163554740125 0.3343589700343074
0.3807315725614012 0.36298194000697775 0.3366451188040235
0.3838250180628834 0.3658054182450317 0.33896481098488634
0.3869493326539688 0.3686581150013332 0.34131229160362136
0.3900759668130944 0.371510264867969 0.34365770842446797
0.39320260904081766 0.3743594606884773 0.34600053688227433
0.3962793642088374 0.37715740892159333 0.34829724164459075
0.39930584569288546 0.3799055588144065 0.3505537664346916
0.4022461351729771 0.38257090055214743 0.3527423740021507
0.4051008543391323 0.38515671877715263 0.35487176290192596
0.40787707615467805 0.38767223916290733 0.3569551220825184
0.41057558728853094 0.39011975782660036 0.35899661638138197
0.4132436223114486 0.39254623065881883 0.3610415571951445
0.41588209304870444 0.39495127643826144 0.3630853707979761
0.4185403962924859 0.39738170358057473 0.36516870122983924
0.42121970217362714 0.39983671769071844 0.367284564086865
0.42395595569119987 0.40235009607536826 0.3694599321684375
0.4267501960156963 0.40492144346842374 0.3716892105181686
0.429613340666623 0.40756094600715065 0.3739803035458569
0.4325459546596448 0.41026925270478276 0.3763336914245459
0.4355118943151404 0.41301110575462135 0.37871567583685894
0.4385112586626301 0.4157877492708938 0.38112970313311956
0.44148224414820836 0.41854032728633656 0.3835212525651077
0.44442231672110105 0.42126898907373955 0.3858946374148134
0.4472872141395143 0.4239323203118097 0.3882121266769841
0.45007309005125645 0.4265282848303475 0.3904735580482532
0.4527796812431601 0.42905775113859423 0.3926813673915785
0.4554034866817212 0.4315175901710603 0.39483323894182165
0.45798826404910825 0.43395067890101385 0.39697089493094523
0.46053352028680045 0.43635485562744974 0.3990899012864717
0.4631074480420811 0.4387943519917744 0.40124935084264
0.46571634817950974 0.4412715625707116 0.40344649915690367
0.46840235637807864 0.4438247272274593 0.40571454656688744
0.47117369041590024 0.4464600677525343 0.4080569934075373
0.47401750818704375 0.4491649923596032 0.4104605205713354
0.4769385349601119 0.4519450382893245 0.4129307033612879
0.47988455065423935 0.4547495919658307 0.4154185512399058
0.48285480234068173 0.45757916632845436 0.4179258968813496
0.4857880234782182 0.46037475831846825 0.4203971184602147
0.48867636075867876 0.46313031707597757 0.4228298654568727
0.49148666843801486 0.4658147661451619 0.42519768679626707
0.49420855023586224 0.4684190381604229 0.42749502500799175
0.4968532577047983 0.47095501051103456 0.42973578576212046
0.4994139639883261 0.47341620037567117 0.43191472818449655
0.5019384943046894 0.47584937884445705 0.43407762770673486
0.5044292733872191 0.47825535549407966 0.4362225704806209
0.5069433840434842 0.48068834485161743 0.4383988259804883
0.5094928236027199 0.48315821077819515 0.44061171982083386
0.5121048849793898 0.4856908293678283 0.4428834480452885
0.5147909340620563 0.4882972750517866 0.4452232387009389
0.5175409980500187 0.4909683686454564 0.4476219718640441
0.5203598377538082 0.49371003909146255 0.4500864577817391
0.5232137768240626 0.49649025776874917 0.45258713564041925
0.526100228945752 0.49930728417706444 0.4551253343496227
0.5289792079056033 0.502121996598513 0.4576660402650988
0.5318397783152092 0.5049237483573691 0.46020232650904563
0.5346619408662633 0.5076924349734214 0.4627173338356216
0.5374326783500463 0.5104141476982378 0.46519870876963637
0.5401689236098434 0.5131040217526097 0.4676607029290018
0.5428678600427496 0.5157572057755411 0.4700956417234278
0.5455660593034841 0.5184082102759245 0.4725337817768675
0.5482746459006312 0.5210670421759714 0.47498135445748363
0.5510144397547694 0.5237539103344862 0.47745499731877755
0.5537948743646953 0.5264789367477188 0.4799629998316886
0.5566240708997015 0.529251828300924 0.48251481189503537
0.5595083619638203 0.532080643786953 0.48511927217941925
0.5624456299784069 0.5349646759425778 0.4877768255316974
0.5654434224880179 0.5379121498438183 0.4904966777817507
0.5684766375929378 0.5408985318768501 0.49325635941482077
0.5715421112336165 0.5439203602419237 0.4960537892343769
0.5746056085990271 0.5469429840658326 0.498855062041424
0.5776485494798346 0.5499472321559332 0.5016411411467926
0.5806550754485132 0.5529170794322925 0.5043967139630127
0.5836053366878071 0.5558325891404263 0.5071021094228587
0.5865112021262697 0.5587047685715957 0.5097669036391425
0.5893703928606389 0.5615306298692471 0.5123865191050138
0.5922011616329297 0.5643282684491788 0.5149776465242567
0.5950117628390926 0.5671063970073253 0.5175479384281833
0.5978179212084875 0.5698812099599803 0.5201129873999467
0.6006300651007461 0.5726637161592444 0.5226843408105809
0.6034655566813507 0.5754717269161546 0.5252807978234124
0.6063418262496337 0.5783231031358083 0.527921371958936
0.6092651764336583 0.5812249080206702 0.5306147434067885
0.6122540263800839 0.5841959209082855 0.5333806637983355
0.6152917036745797 0.5872197557162757 0.5362040163785567
0.6183762514948984 0.5902945140664474 0.5390850046499646
0.6214816523008968 0.5933942012886793 0.5420005436899585
0.6245838734456546 0.5964945144073815 0.5449284206108916
0.6276648710806064 0.5995769031006053 0.5478511337091571
0.6306905380821322 0.6026066757205372 0.5507345089291589
0.6336670163448157 0.6055894063193841 0.553583871974797
0.6365784123709768 0.608509373151806 0.556383202684575
0.6394490057788975 0.6113906595642454 0.5591547416641084
0.6422988872701334 0.6142535952421423 0.5619172682786712
0.6451468306576674 0.6171172454733503 0.5646882457004029
0.6480272656265402 0.6200158470432547 0.5674994371014255
0.6509490220203479 0.6229586470185587 0.5703584280038067
0.6539435928131517 0.6259777980985894 0.5732961309907091
0.6570066251263502 0.6290700878686193 0.5763093283393089
0.6601540349686009 0.6322522113600448 0.5794148806803238
0.6633674980231954 0.6355066590184212 0.5825962342279343
0.6666311433487723 0.6388175323311844 0.5858378169380594
0.6699240566934135 0.642162762542729 0.5891166271194588
0.6732003808586631 0.6454949853388046 0.5923844175344194
0.6764485531222404 0.6488011594337666 0.5956278344350686
0.6796128071384584 0.6520252713392511 0.5987920501671796
0.6826988500727437 0.6551727012903888 0.6018824817921431
0.6856804954460374 0.6582172981759531 0.6048730187002653
0.6885742655119669 0.6611754034217954 0.6077796363085071
0.6914012539540284 0.6640680384673083 0.6106228675984791
0.6941722678758221 0.6669057552389096 0.6134119295546617
0.696927219107956 0.6697283309427287 0.6161853378525826
0.6996686115931947 0.6725387202161575 0.6189461835117558
0.7024301537030815 0.6753707178540357 0.6217281595039674
0.7052096390741797 0.6782224831214145 0.6245299162526828
0.7080277648753921 0.6811147494392787 0.6273721311786767
0.7108750937861315 0.6840378636069505 0.630244794138269
0.7137369370287856 0.6869769286610982 0.633133312437625
0.7166044387577208 0.6899224936544677 0.6360286634466833
0.7194338159412876 0.6928302074997208 0.638887299190197
0.7222245473354985 0.695698604361825 0.6417079976033625
0.7249360319438624 0.6984865948656701 0.6444504535629594
0.7275744868985576 0.7012003822553878 0.6471213774287086
0.7301307102789871 0.7038315680254188 0.6497132323349483
0.7326135062084148 0.7063894602888083 0.6522351019183394
0.7350613475961552 0.7089126690144361 0.6547244160163187
0.7374768156315386 0.7114047056620851 0.6571841336618666
0.7399083941889364 0.7139144038259964 0.6596616562808046
0.7423558594440895 0.7164422024017714 0.6621571757245541
0.7448603583256075 0.719029534606899 0.6647113361882445
0.7474204211646177 0.7216752490302009 0.6673220014072118
0.7500631680278382 0.7244068624502682 0.6700163197616272
0.752783409027475 0.7272205619494199 0.672792847446801
0.755573743959994 0.7301100556506022 0.6756483069695779
0.7584300538070172 0.7330712175874021 0.6785803969280536
0.7613077141726579 0.7360586213790481 0.6815447993567908
0.7642073065509872 0.7390712761284817 0.6845408255201596
0.767078034108162 0.7420574766268239 0.6875180853842731
0.7699225620652282 0.7450187641594255 0.6904784609236507
0.7727157188643944 0.7479291709494027 0.693395792907212
0.7754602621221229 0.7507910928790963 0.696271617083368
0.7781720129117958 0.7536209029119078 0.6991212793620617
0.7808511175136792 0.7564196507349322 0.7019441554128351
0.7835434079410797 0.7592338002028484 0.7047840319415577
0.7862483794922722 0.7620631442762769 0.7076386186940196
0.7890109180924574 0.7649520267088238 0.7105500412301187
0.7918307477310406 0.7679001921295735 0.7135173430665582
0.7947338371192708 0.7709342477177324 0.7165675760673483
0.7977197951884821 0.7740546529414195 0.7197026085159015
0.8007700375373112 0.7772436957040493 0.7229070645286773
0.8038861447690399 0.7805031054831448 0.7261845566969538
0.8070064113002945 0.7837710382549041 0.729475187222075
0.8101324859755357 0.7870480574694594 0.7327799128596267
0.8131966603574179 0.7902651947045658 0.7360299996365526
0.8161972228735338 0.7934194764085333 0.7392217574984882
0.819107215554136 0.7964837787737916 0.7423279592314882
0.8219215841607461 0.799453049024575 0.7453425191612167
0.8246735825808292 0.802360384377386 0.7482965034703885
0.8273607446752339 0.8052037470976746 0.7511864511680715
0.8300377170604294 0.8080381446774566 0.7540653535284957
0.8327064798368458 0.8108663519448344 0.7569354255539344
0.835399700899265 0.8137216994705012 0.7598305131411154
0.8381214131711843 0.8166087654231469 0.7627570402800126
0.8408713463738958 0.8195276708349322 0.7657185400901757
0.8436551808151097 0.8224839142418203 0.7687241437761005
0.8464312955830436 0.8254353938757386 0.7717354272251342
0.8492029314791572 0.8283837652623485 0.7747550647524148
0.8519088142687394 0.831266145371769 0.7777212393711278
0.85454451407449 0.8340765775745407 0.780628401716785
0.8570679333775489 0.8367720053688483 0.7834332242795905
0.8594671490650317 0.8393399181025971 0.7861215577248291
0.8617550503435558 0.8417935333635328 0.7887050404282457
0.8639182112608902 0.8441209456838037 0.7911711149657966
0.8660333122652419 0.8464014443055904 0.7935988911487775
0.8680986945467287 0.8486381573778004 0.7959944633594747
0.8702004025052174 0.8509227186089109 0.7984535841338396
0.8723525785673409 0.8532759894404709 0.8010035565277777
0.8745805211355279 0.8557311453299726 0.8036862016746488
0.8768993509522124 0.8583071634289775 0.8065250715714846
0.8792830781507179 0.8609773724842017 0.8094925954953912
0.8817361347090612 0.8637454977156699 0.812591813643037
0.8842159890561793 0.8665685942893393 0.8157799204761963
0.8867196298925322 0.8694400824201637 0.8190458959305129
0.8892109903958043 0.8723202046939929 0.8223453951596844
0.8916805995381339 0.8751921157530734 0.8256512418738463
0.8941324731506112 0.8780516101935112 0.8289474572805499
0.8965581722985688 0.8808841660344635 0.832210061850272
0.8990007019806863 0.8837289604822791 0.8354705402081359
0.9014637302627682 0.8865884888533285 0.8387278992532746
0.9039976297599128 0.8895138626428541 0.8420332031329273
0.906622565649313 0.8925277314646171 0.8454125453008376
0.9093481164039704 0.8956427251030924 0.8488836648745718
0.9121943767312778 0.8988806009439895 0.8524724201463239
0.9151206397725183 0.9022033014542493 0.8561469841098696
0.9180856813137452 0.9056226883023836 0.8599866024112854
0.9210717445221136 0.909055727535341 0.8638192181454357
0.9240749966289992 0.9124712456299375 0.8675902252444587
0.9270637794029206 0.9158039677469196 0.8711980472224045
0.9299356141266476 0.9189317653908036 0.8744967557793907
0.9329434499283439 0.9221107308565547 0.8777443421106786
0.9361823244383909 0.9254900363710631 0.8811434865367532
0.9396538678838594 0.9290801602805067 0.8847073015762768
0.9434332697821823 0.9330644776775047 0.8887798979050626
0.947029048627546 0.9370617581710292 0.8931247874440779
0.950348768385244 0.9408549073293294 0.8973895527121252
0.953267070844218 0.9442168539695461 0.9012598531534743
0.955484273092759 0.946788067945964 0.9041587050331755
0.9574944439218339 0.9489138003026732 0.9064341915147095
0.9598233862246915 0.9513313080228477 0.9083789276072166
0.9604454253474962 0.9527553782544639 0.9111162723939382
0.22737427877604965 0.22561885149780492 0.22563244956580214
0.23309444912923172 0.231775974371015 0.23151056244328666
0.2374247236633153 0.23588335074522238 0.234985497396274
0.24142809259935588 0.23950124220680774 0.23790224367349144
0.2449903603598964 0.242658685641004 0.24044688283184756
0.24832256017163 0.2455915071109102 0.24281673415936267
0.2516949545653781 0.24861135864827832 0.24535951183324084
0.2550732281148571 0.2516421546973813 0.24794721807732611
0.25857387309091406 0.2547586608169826 0.25062468660713877
0.26207752203262774 0.25783419071379826 0.25319928306827966
0.2653809036091584 0.2607001526324107 0.25551637178044173
0.2685522573607446 0.26344249143412657 0.25768480209271466
0.2716036125430966 0.26608453613764027 0.2597603574070973
0.2745905195508739 0.26868650300457425 0.26183152309263186
0.277636933781717 0.2713680875830556 0.26401863209832704
0.2807236038445877 0.2740935345512202 0.2662592345480718
0.28387005133063403 0.27686226264499303 0.2685244343042629
0.287063402250193 0.27967172960545383 0.27081974062035846
0.2903041329742624 0.28252127641751074 0.2731380540464736
0.2935794290341094 0.2853972361609984 0.27546037525236117
0.2968662408875559 0.28827767248804054 0.2777636875692448
0.3001497224668952 0.29115068486903467 0.2800387904215411
0.3033872454621724 0.2939782386099449 0.2822535145887513
0.30657634220568103 0.2967623486466652 0.2844175899297971
0.3096898507232158 0.29948014558078934 0.2865158141603107
0.31273705854594114 0.3021436120354652 0.2885662177075428
0.3157254354512747 0.3047608079724174 0.2905808901699264
0.3186708171788269 0.3073463060555874 0.2925758123606326
0.32161506358911396 0.309939688209556 0.2945893128304695
0.324568733018101 0.3125490085686321 0.29662614409322596
0.3275863554863739 0.3152254718794876 0.29873144444155125
0.3306641431665329 0.317962636598355 0.3008929769433167
0.3338237254030676 0.32078020689430864 0.3031261997109476
0.3370543955680482 0.3236659288734695 0.3054147779003001
0.34033376206521987 0.32659693867424316 0.3077332458518882
0.34365212881895146 0.3295644847266009 0.31007377007791054
0.34696053060083304 0.33252238787112737 0.3123951850424651
0.35025352421400036 0.33546830837339825 0.31470245329460844
0.353481413615752 0.3383561321469661 0.31695780730484724
0.3566469184673661 0.3411916609561223 0.31917428146933563
0.3597324334427642 0.34395959457096215 0.32134276895321545
0.362747726302841 0.3466698260540709 0.32347555571657594
0.36572936465708145 0.34935764502255495 0.3256073163986533
0.3686820623211011 0.3520258521547834 0.3277378137212679
0.3716544785337524 0.35472022065885805 0.3299083282835408
0.3746448464943104 0.35743676734093927 0.3321112635285208
0.37767111007440424 0.36019163554740125 0.3343589700343074
0.3807315725614012 0.36298194000697775 0.3366451188040235
0.3838250180628834 0.3658054182450317 0.33896481098488634
0.3869493326539688 0.3686581150013332 0.34131229160362136
0.3900759668130944 0.371510264867969 0.34365770842446797
0.39320260904081766 0.3743594606884773 0.34600053688227433
0.3962793642088374 0.37715740892159333 0.34829724164459075
0.39930584569288546 0.3799055588144065 0.3505537664346916
0.4022461351729771 0.38257090055214743 0.3527423740021507
0.4051008543391323 0.38515671877715263 0.35487176290192596
0.40787707615467805 0.38767223916290733 0.3569551220825184
0.41057558728853094 0.39011975782660036 0.35899661638138197
0.4132436223114486 0.39254623065881883 0.3610415571951445
0.41588209304870444 0.39495127643826144 0.3630853707979761
0.4185403962924859 0.39738170358057473 0.36516870122983924
0.42121970217362714 0.39983671769071844 0.367284564086865
0.42395595569119987 0.40235009607536826 0.3694599321684375
0.4267501960156963 0.40492144346842374 0.3716892105181686
0.429613340666623 0.40756094600715065 0.3739803035458569
0.4325459546596448 0.41026925270478276 0.3763336914245459
0.4355118943151404 0.41301110575462135 0.37871567583685894
0.4385112586626301 0.4157877492708938 0.38112970313311956
0.44148224414820836 0.41854032728633656 0.3835212525651077
0.44442231672110105 0.42126898907373955 0.3858946374148134
0.4472872141395143 0.4239323203118097 0.3882121266769841
0.45007309005125645 0.4265282848303475 0.3904735580482532
0.4527796812431601 0.42905775113859423 0.3926813673915785
0.4554034866817212 0.4315175901710603 0.39483323894182165
0.45798826404910825 0.43395067890101385 0.39697089493094523
0.46053352028680045 0.43635485562744974 0.3990899012864717
0.4631074480420811 0.4387943519917744 0.40124935084264
0.46571634817950974 0.4412715625707116 0.40344649915690367
0.46840235637807864 0.4438247272274593 0.40571454656688744
0.47117369041590024 0.4464600677525343 0.4080569934075373
0.47401750818704375 0.4491649923596032 0.4104605205713354
0.4769385349601119 0.4519450382893245 0.4129307033612879
0.47988455065423935 0.4547495919658307 0.4154185512399058
0.48285480234068173 0.45757916632845436 0.4179258968813496
0.4857880234782182 0.46037475831846825 0.4203971184602147
0.48867636075867876 0.46313031707597757 0.4228298654568727
0.49148666843801486 0.4658147661451619 0.42519768679626707
0.49420855023586224 0.4684190381604229 0.42749502500799175
0.4968532577047983 0.47095501051103456 0.42973578576212046
0.4994139639883261 0.47341620037567117 0.43191472818449655
0.5019384943046894 0.47584937884445705 0.43407762770673486
0.5044292733872191 0.47825535549407966 0.4362225704806209
0.5069433840434842 0.48068834485161743 0.4383988259804883
0.5094928236027199 0.48315821077819515 0.44061171982083386
0.5121048849793898 0.4856908293678283 0.4428834480452885
0.5147909340620563 0.4882972750517866 0.4452232387009389
0.5175409980500187 0.4909683686454564 0.4476219718640441
0.5203598377538082 0.49371003909146255 0.4500864577817391
0.5232137768240626 0.49649025776874917 0.45258713564041925
0.526100228945752 0.49930728417706444 0.4551253343496227
0.5289792079056033 0.502121996598513 0.4576660402650988
0.5318397783152092 0.5049237483573691 0.46020232650904563
0.5346619408662633 0.5076924349734214 0.4627173338356216
0.5374326783500463 0.5104141476982378 0.46519870876963637
0.5401689236098434 0.5131040217526097 0.4676607029290018
0.5428678600427496 0.5157572057755411 0.4700956417234278
0.5455660593034841 0.5184082102759245 0.4725337817768675
0.5482746459006312 0.5210670421759714 0.47498135445748363
0.5510144397547694 0.5237539103344862 0.47745499731877755
0.5537948743646953 0.5264789367477188 0.4799629998316886
0.5566240708997015 0.529251828300924 0.48251481189503537
0.5595083619638203 0.532080643786953 0.48511927217941925
0.5624456299784069 0.5349646759425778 0.4877768255316974
0.5654434224880179 0.5379121498438183 0.4904966777817507
0.5684766375929378 0.5408985318768501 0.49325635941482077
0.5715421112336165 0.5439203602419237 0.4960537892343769
0.5746056085990271 0.5469429840658326 0.498855062041424
0.5776485494798346 0.5499472321559332 0.5016411411467926
0.5806550754485132 0.5529170794322925 0.5043967139630127
0.5836053366878071 0.5558325891404263 0.5071021094228587
0.5865112021262697 0.5587047685715957 0.5097669036391425
0.5893703928606389 0.5615306298692471 0.5123865191050138
0.5922011616329297 0.5643282684491788 0.5149776465242567
0.5950117628390926 0.5671063970073253 0.5175479384281833
0.5978179212084875 0.5698812099599803 0.5201129873999467
0.6006300651007461 0.5726637161592444 0.5226843408105809
0.6034655566813507 0.5754717269161546 0.5252807978234124
0.6063418262496337 0.5783231031358083 0.527921371958936
0.6092651764336583 0.5812249080206702 0.5306147434067885
0.6122540263800839 0.5841959209082855 0.5333806637983355
0.6152917036745797 0.5872197557162757 0.5362040163785567
0.6183762514948984 0.5902945140664474 0.5390850046499646
0.6214816523008968 0.5933942012886793 0.5420005436899585
0.6245838734456546 0.5964945144073815 0.5449284206108916
0.6276648710806064 0.5995769031006053 0.5478511337091571
0.6306905380821322 0.6026066757205372 0.5507345089291589
0.6336670163448157 0.6055894063193841 0.553583871974797
0.6365784123709768 0.608509373151806 0.556383202684575
0.6394490057788975 0.6113906595642454 0.5591547416641084
0.6422988872701334 0.6142535952421423 0.5619172682786712
0.6451468306576674 0.6171172454733503 0.5646882457004029
0.6480272656265402 0.6200158470432547 0.5674994371014255
0.6509490220203479 0.6229586470185587 0.5703584280038067
0.6539435928131517 0.6259777980985894 0.5732961309907091
0.6570066251263502 0.6290700878686193 0.5763093283393089
0.6601540349686009 0.6322522113600448 0.5794148806803238
0.6633674980231954 0.6355066590184212 0.5825962342279343
0.6666311433487723 0.6388175323311844 0.5858378169380594
0.6699240566934135 0.642162762542729 0.5891166271194588
0.6732003808586631 0.6454949853388046 0.5923844175344194
0.6764485531222404 0.6488011594337666 0.5956278344350686
0.6796128071384584 0.6520252713392511 0.5987920501671796
0.6826988500727437 0.6551727012903888 0.6018824817921431
0.6856804954460374 0.6582172981759531 0.6048730187002653
0.6885742655119669 0.6611754034217954 0.6077796363085071
0.6914012539540284 0.6640680384673083 0.6106228675984791
0.6941722678758221 0.6669057552389096 0.6134119295546617
0.696927219107956 0.6697283309427287 0.6161853378525826
