obsidian/Clippings/写真家活動/技法探求/デジネガ/QTR/プロファイル作成/QTR-DN/QTR-DN/QUAD/5%/PtPd-K45-Na2-5-V4-LUT_correction.cube
#Color Lookup Table 
TITLE "QuadToneProfiler Color Lookup Table for 256-step Linearity Correction
LUT_1D_SIZE 256
DOMAIN_MIN 0.0 0.0 0.0
DOMAIN_MAX 1.0 1.0 1.0
0.0 0.0 0.0
0.0069642953415961165 0.0069642953415961165 0.0069642953415961165
0.012571479587645835 0.012571479587645835 0.012571479587645835
0.017068668739478488 0.017068668739478488 0.017068668739478488
0.020686257337755837 0.020686257337755837 0.020686257337755837
0.023986850617339232 0.023986850617339232 0.023986850617339232
0.02713097924091785 0.02713097924091785 0.02713097924091785
0.03026094953287526 0.03026094953287526 0.03026094953287526
0.03360346444973257 0.03360346444973257 0.03360346444973257
0.03717534076056408 0.03717534076056408 0.03717534076056408
0.0409589404985882 0.0409589404985882 0.0409589404985882
0.04490908920640301 0.04490908920640301 0.04490908920640301
0.048794677355122176 0.048794677355122176 0.048794677355122176
0.05251860787272372 0.05251860787272372 0.05251860787272372
0.056188562617148136 0.056188562617148136 0.056188562617148136
0.05985194645604891 0.05985194645604891 0.05985194645604891
0.06354515558116991 0.06354515558116991 0.06354515558116991
0.06733085316521194 0.06733085316521194 0.06733085316521194
0.07122100601010495 0.07122100601010495 0.07122100601010495
0.07526399718515003 0.07526399718515003 0.07526399718515003
0.0794469406073015 0.0794469406073015 0.0794469406073015
0.08375742882269174 0.08375742882269174 0.08375742882269174
0.08814392577113757 0.08814392577113757 0.08814392577113757
0.09255190938632753 0.09255190938632753 0.09255190938632753
0.09693870459395544 0.09693870459395544 0.09693870459395544
0.10129185049693568 0.10129185049693568 0.10129185049693568
0.10562329334887362 0.10562329334887362 0.10562329334887362
0.10995949690927487 0.10995949690927487 0.10995949690927487
0.11437219151214466 0.11437219151214466 0.11437219151214466
0.11889486122137764 0.11889486122137764 0.11889486122137764
0.12360039747080774 0.12360039747080774 0.12360039747080774
0.1285368912457514 0.1285368912457514 0.1285368912457514
0.13374724480031588 0.13374724480031588 0.13374724480031588
0.13917094669104574 0.13917094669104574 0.13917094669104574
0.14459554291966645 0.14459554291966645 0.14459554291966645
0.14983311465902277 0.14983311465902277 0.14983311465902277
0.1547444746856926 0.1547444746856926 0.1547444746856926
0.1593884607624507 0.1593884607624507 0.1593884607624507
0.16380023491675677 0.16380023491675677 0.16380023491675677
0.1680661444816099 0.1680661444816099 0.1680661444816099
0.1722241697118649 0.1722241697118649 0.1722241697118649
0.1763631238754192 0.1763631238754192 0.1763631238754192
0.18049341873721858 0.18049341873721858 0.18049341873721858
0.1846760909065786 0.1846760909065786 0.1846760909065786
0.18890488263728977 0.18890488263728977 0.18890488263728977
0.19317935832971267 0.19317935832971267 0.19317935832971267
0.1974781686448818 0.1974781686448818 0.1974781686448818
0.2017610690829482 0.2017610690829482 0.2017610690829482
0.2059854376248671 0.2059854376248671 0.2059854376248671
0.21010976996259526 0.21010976996259526 0.21010976996259526
0.21411594145410562 0.21411594145410562 0.21411594145410562
0.21799887376632246 0.21799887376632246 0.21799887376632246
0.2217899610525536 0.2217899610525536 0.2217899610525536
0.22550929027580296 0.22550929027580296 0.22550929027580296
0.2291984339917423 0.2291984339917423 0.2291984339917423
0.2328937528912753 0.2328937528912753 0.2328937528912753
0.23662020533950404 0.23662020533950404 0.23662020533950404
0.24042259471434832 0.24042259471434832 0.24042259471434832
0.24431149436695285 0.24431149436695285 0.24431149436695285
0.24831015535084094 0.24831015535084094 0.24831015535084094
0.25241473363959427 0.25241473363959427 0.25241473363959427
0.2566061066692162 0.2566061066692162 0.2566061066692162
0.260857274014066 0.260857274014066 0.260857274014066
0.2651297451099608 0.2651297451099608 0.2651297451099608
0.26937874902373776 0.26937874902373776 0.26937874902373776
0.27357351815603814 0.27357351815603814 0.27357351815603814
0.2776974454099296 0.2776974454099296 0.2776974454099296
0.28174457742159226 0.28174457742159226 0.28174457742159226
0.28574738555747825 0.28574738555747825 0.28574738555747825
0.28971120906311065 0.28971120906311065 0.28971120906311065
0.2936964840501304 0.2936964840501304 0.2936964840501304
0.2977137246666125 0.2977137246666125 0.2977137246666125
0.3018226289902777 0.3018226289902777 0.3018226289902777
0.3060475219654848 0.3060475219654848 0.3060475219654848
0.31041335736315073 0.31041335736315073 0.31041335736315073
0.3149238297804462 0.3149238297804462 0.3149238297804462
0.31954887494964407 0.31954887494964407 0.31954887494964407
0.32425319308906625 0.32425319308906625 0.32425319308906625
0.3289925877439087 0.3289925877439087 0.3289925877439087
0.3336778819960013 0.3336778819960013 0.3336778819960013
0.33826588785435796 0.33826588785435796 0.33826588785435796
0.34270219210459557 0.34270219210459557 0.34270219210459557
0.34699426207179196 0.34699426207179196 0.34699426207179196
0.3511573560375973 0.3511573560375973 0.3511573560375973
0.35522892414731994 0.35522892414731994 0.35522892414731994
0.3592419487658851 0.3592419487658851 0.3592419487658851
0.36323597728266044 0.36323597728266044 0.36323597728266044
0.3672437527669803 0.3672437527669803 0.3672437527669803
0.3712841051645423 0.3712841051645423 0.3712841051645423
0.37537531800091595 0.37537531800091595 0.37537531800091595
0.37950183924297076 0.37950183924297076 0.37950183924297076
0.3836572383884381 0.3836572383884381 0.3836572383884381
0.38780040902396673 0.38780040902396673 0.38780040902396673
0.3919170973574049 0.3919170973574049 0.3919170973574049
0.39595381447295447 0.39595381447295447 0.39595381447295447
0.39989542571905773 0.39989542571905773 0.39989542571905773
0.40372128824666353 0.40372128824666353 0.40372128824666353
0.40742181843675374 0.40742181843675374 0.40742181843675374
0.4110343056120705 0.4110343056120705 0.4110343056120705
0.4145618862942124 0.4145618862942124 0.4145618862942124
0.4180493083758524 0.4180493083758524 0.4180493083758524
0.42151700325407143 0.42151700325407143 0.42151700325407143
0.42499005715886895 0.42499005715886895 0.42499005715886895
0.42849809855494214 0.42849809855494214 0.42849809855494214
0.43206014139721094 0.43206014139721094 0.43206014139721094
0.4356947536576567 0.4356947536576567 0.4356947536576567
0.4394241518838463 0.4394241518838463 0.4394241518838463
0.44323723791405484 0.44323723791405484 0.44323723791405484
0.44714397670715755 0.44714397670715755 0.44714397670715755
0.45110662952109754 0.45110662952109754 0.45110662952109754
0.4551124286386832 0.4551124286386832 0.4551124286386832
0.4591135794625019 0.4591135794625019 0.4591135794625019
0.46308298550827376 0.46308298550827376 0.46308298550827376
0.46699382778542636 0.46699382778542636 0.46699382778542636
0.4708222142967046 0.4708222142967046 0.4708222142967046
0.47459019244864065 0.47459019244864065 0.47459019244864065
0.47829178896846103 0.47829178896846103 0.47829178896846103
0.48196930954605494 0.48196930954605494 0.48196930954605494
0.4856431592594669 0.4856431592594669 0.4856431592594669
0.48933808370005216 0.48933808370005216 0.48933808370005216
0.49308214795865096 0.49308214795865096 0.49308214795865096
0.4968850135142363 0.4968850135142363 0.4968850135142363
0.5007656998499277 0.5007656998499277 0.5007656998499277
0.5047175611356017 0.5047175611356017 0.5047175611356017
0.5087295517416336 0.5087295517416336 0.5087295517416336
0.5127822069752447 0.5127822069752447 0.5127822069752447
0.5168489333052979 0.5168489333052979 0.5168489333052979
0.5209100542371546 0.5209100542371546 0.5209100542371546
0.5249423804637825 0.5249423804637825 0.5249423804637825
0.5289314961631489 0.5289314961631489 0.5289314961631489
0.5328548829008359 0.5328548829008359 0.5328548829008359
0.5367156456150621 0.5367156456150621 0.5367156456150621
0.5405047619920132 0.5405047619920132 0.5405047619920132
0.5442445658253279 0.5442445658253279 0.5442445658253279
0.5479552897186506 0.5479552897186506 0.5479552897186506
0.5516575100809806 0.5516575100809806 0.5516575100809806
0.5553845280992151 0.5553845280992151 0.5553845280992151
0.5591522242980235 0.5591522242980235 0.5591522242980235
0.5629822083411377 0.5629822083411377 0.5629822083411377
0.5668851998645483 0.5668851998645483 0.5668851998645483
0.5708615086977443 0.5708615086977443 0.5708615086977443
0.574909556202901 0.574909556202901 0.574909556202901
0.5790193075648267 0.5790193075648267 0.5790193075648267
0.5831771460209745 0.5831771460209745 0.5831771460209745
0.587355465802235 0.587355465802235 0.587355465802235
0.5915314185361393 0.5915314185361393 0.5915314185361393
0.5956548363935147 0.5956548363935147 0.5956548363935147
0.5997226301348575 0.5997226301348575 0.5997226301348575
0.6037167788301115 0.6037167788301115 0.6037167788301115
0.6076567195798996 0.6076567195798996 0.6076567195798996
0.6115718963774576 0.6115718963774576 0.6115718963774576
0.61547790858736 0.61547790858736 0.61547790858736
0.6194273425178641 0.6194273425178641 0.6194273425178641
0.6234270990866221 0.6234270990866221 0.6234270990866221
0.627528891808671 0.627528891808671 0.627528891808671
0.631738235311389 0.631738235311389 0.631738235311389
0.6360737728257864 0.6360737728257864 0.6360737728257864
0.6405137388232507 0.6405137388232507 0.6405137388232507
0.6450164823820994 0.6450164823820994 0.6450164823820994
0.6495145041022211 0.6495145041022211 0.6495145041022211
0.6539486459938884 0.6539486459938884 0.6539486459938884
0.658257176785868 0.658257176785868 0.658257176785868
0.6624337123151112 0.6624337123151112 0.6624337123151112
0.6664743593713308 0.6664743593713308 0.6664743593713308
0.6704010087098778 0.6704010087098778 0.6704010087098778
0.6742638874063661 0.6742638874063661 0.6742638874063661
0.678075704749429 0.678075704749429 0.678075704749429
0.6819104452002371 0.6819104452002371 0.6819104452002371
0.6857735641351179 0.6857735641351179 0.6857735641351179
0.689729222013895 0.689729222013895 0.689729222013895
0.6937865369015959 0.6937865369015959 0.6937865369015959
0.6979716638558393 0.6979716638558393 0.6979716638558393
0.702293135261745 0.702293135261745 0.702293135261745
0.7066831161035969 0.7066831161035969 0.7066831161035969
0.7111020977497704 0.7111020977497704 0.7111020977497704
0.7154565638873751 0.7154565638873751 0.7154565638873751
0.7197156051497999 0.7197156051497999 0.7197156051497999
0.7238468221089148 0.7238468221089148 0.7238468221089148
0.7278619640888276 0.7278619640888276 0.7278619640888276
0.7317713313473349 0.7317713313473349 0.7317713313473349
0.7356176937686837 0.7356176937686837 0.7356176937686837
0.7394260288253085 0.7394260288253085 0.7394260288253085
0.7432406968042988 0.7432406968042988 0.7432406968042988
0.747096529631726 0.747096529631726 0.747096529631726
0.7510204697930437 0.7510204697930437 0.7510204697930437
0.7550425989385074 0.7550425989385074 0.7550425989385074
0.7591610581761334 0.7591610581761334 0.7591610581761334
0.7633750129715913 0.7633750129715913 0.7633750129715913
0.7676504684163798 0.7676504684163798 0.7676504684163798
0.7719676213750596 0.7719676213750596 0.7719676213750596
0.7762558344519817 0.7762558344519817 0.7762558344519817
0.7804948891232908 0.7804948891232908 0.7804948891232908
0.7846073086086283 0.7846073086086283 0.7846073086086283
0.7886006783988094 0.7886006783988094 0.7886006783988094
0.7924726384477384 0.7924726384477384 0.7924726384477384
0.7962317457321224 0.7962317457321224 0.7962317457321224
0.7999235301059625 0.7999235301059625 0.7999235301059625
0.8035472227032351 0.8035472227032351 0.8035472227032351
0.807162633662379 0.807162633662379 0.807162633662379
0.810773361723358 0.810773361723358 0.810773361723358
0.8144066742623686 0.8144066742623686 0.8144066742623686
0.8180733978614496 0.8180733978614496 0.8180733978614496
0.8217776639423591 0.8217776639423591 0.8217776639423591
0.8255239227041349 0.8255239227041349 0.8255239227041349
0.8293043268727189 0.8293043268727189 0.8293043268727189
0.833111469372231 0.833111469372231 0.833111469372231
0.836920669339785 0.836920669339785 0.836920669339785
0.840695448292922 0.840695448292922 0.840695448292922
0.8444178408792227 0.8444178408792227 0.8444178408792227
0.8480591919627478 0.8480591919627478 0.8480591919627478
0.8516203356706794 0.8516203356706794 0.8516203356706794
0.8551189302846478 0.8551189302846478 0.8551189302846478
0.8585476241995543 0.8585476241995543 0.8585476241995543
0.8619580512357737 0.8619580512357737 0.8619580512357737
0.8653539851964398 0.8653539851964398 0.8653539851964398
0.8687681785710438 0.8687681785710438 0.8687681785710438
0.8722186578879918 0.8722186578879918 0.8722186578879918
0.8757207459487587 0.8757207459487587 0.8757207459487587
0.879296809104622 0.879296809104622 0.879296809104622
0.882959180592025 0.882959180592025 0.882959180592025
0.886694412405485 0.886694412405485 0.886694412405485
0.8905091038181938 0.8905091038181938 0.8905091038181938
0.8943387661313555 0.8943387661313555 0.8943387661313555
0.8981702620785699 0.8981702620785699 0.8981702620785699
0.90194994377552 0.90194994377552 0.90194994377552
0.9056568896244562 0.9056568896244562 0.9056568896244562
0.9092873610815145 0.9092873610815145 0.9092873610815145
0.9128333821526603 0.9128333821526603 0.9128333821526603
0.91632091769875 0.91632091769875 0.91632091769875
0.9197557601195715 0.9197557601195715 0.9197557601195715
0.9231606821783788 0.9231606821783788 0.9231606821783788
0.9265578187319384 0.9265578187319384 0.9265578187319384
0.9299589379658684 0.9299589379658684 0.9299589379658684
0.9333823146034992 0.9333823146034992 0.9333823146034992
0.9368479391286978 0.9368479391286978 0.9368479391286978
0.9403533624789834 0.9403533624789834 0.9403533624789834
0.9439040056290086 0.9439040056290086 0.9439040056290086
0.9475006968538422 0.9475006968538422 0.9475006968538422
0.9511717902401041 0.9511717902401041 0.9511717902401041
0.9548501142838532 0.9548501142838532 0.9548501142838532
0.9584337871675994 0.9584337871675994 0.9584337871675994
0.9618874779066465 0.9618874779066465 0.9618874779066465
0.9651990976495606 0.9651990976495606 0.9651990976495606
0.9683171945238344 0.9683171945238344 0.9683171945238344
0.9713991083897733 0.9713991083897733 0.9713991083897733
0.9745319947744028 0.9745319947744028 0.9745319947744028
0.977699961955912 0.977699961955912 0.977699961955912
0.9808836864423135 0.9808836864423135 0.9808836864423135
0.984135539893105 0.984135539893105 0.984135539893105
0.9871683711846838 0.9871683711846838 0.9871683711846838
0.9899442074129681 0.9899442074129681 0.9899442074129681
0.9925378977429401 0.9925378977429401 0.9925378977429401
0.9948808353338863 0.9948808353338863 0.9948808353338863
0.9968564315491139 0.9968564315491139 0.9968564315491139
0.9984479269906285 0.9984479269906285 0.9984479269906285
1.0 1.0 1.0
0.0 0.0 0.0
0.0069642953415961165 0.0069642953415961165 0.0069642953415961165
0.012571479587645835 0.012571479587645835 0.012571479587645835
0.017068668739478488 0.017068668739478488 0.017068668739478488
0.020686257337755837 0.020686257337755837 0.020686257337755837
0.023986850617339232 0.023986850617339232 0.023986850617339232
0.02713097924091785 0.02713097924091785 0.02713097924091785
0.03026094953287526 0.03026094953287526 0.03026094953287526
0.03360346444973257 0.03360346444973257 0.03360346444973257
0.03717534076056408 0.03717534076056408 0.03717534076056408
0.0409589404985882 0.0409589404985882 0.0409589404985882
0.04490908920640301 0.04490908920640301 0.04490908920640301
0.048794677355122176 0.048794677355122176 0.048794677355122176
0.05251860787272372 0.05251860787272372 0.05251860787272372
0.056188562617148136 0.056188562617148136 0.056188562617148136
0.05985194645604891 0.05985194645604891 0.05985194645604891
0.06354515558116991 0.06354515558116991 0.06354515558116991
0.06733085316521194 0.06733085316521194 0.06733085316521194
0.07122100601010495 0.07122100601010495 0.07122100601010495
0.07526399718515003 0.07526399718515003 0.07526399718515003
0.0794469406073015 0.0794469406073015 0.0794469406073015
0.08375742882269174 0.08375742882269174 0.08375742882269174
0.08814392577113757 0.08814392577113757 0.08814392577113757
0.09255190938632753 0.09255190938632753 0.09255190938632753
0.09693870459395544 0.09693870459395544 0.09693870459395544
0.10129185049693568 0.10129185049693568 0.10129185049693568
0.10562329334887362 0.10562329334887362 0.10562329334887362
0.10995949690927487 0.10995949690927487 0.10995949690927487
0.11437219151214466 0.11437219151214466 0.11437219151214466
0.11889486122137764 0.11889486122137764 0.11889486122137764
0.12360039747080774 0.12360039747080774 0.12360039747080774
0.1285368912457514 0.1285368912457514 0.1285368912457514
0.13374724480031588 0.13374724480031588 0.13374724480031588
0.13917094669104574 0.13917094669104574 0.13917094669104574
0.14459554291966645 0.14459554291966645 0.14459554291966645
0.14983311465902277 0.14983311465902277 0.14983311465902277
0.1547444746856926 0.1547444746856926 0.1547444746856926
0.1593884607624507 0.1593884607624507 0.1593884607624507
0.16380023491675677 0.16380023491675677 0.16380023491675677
0.1680661444816099 0.1680661444816099 0.1680661444816099
0.1722241697118649 0.1722241697118649 0.1722241697118649
0.1763631238754192 0.1763631238754192 0.1763631238754192
0.18049341873721858 0.18049341873721858 0.18049341873721858
0.1846760909065786 0.1846760909065786 0.1846760909065786
0.18890488263728977 0.18890488263728977 0.18890488263728977
0.19317935832971267 0.19317935832971267 0.19317935832971267
0.1974781686448818 0.1974781686448818 0.1974781686448818
0.2017610690829482 0.2017610690829482 0.2017610690829482
0.2059854376248671 0.2059854376248671 0.2059854376248671
0.21010976996259526 0.21010976996259526 0.21010976996259526
0.21411594145410562 0.21411594145410562 0.21411594145410562
0.21799887376632246 0.21799887376632246 0.21799887376632246
0.2217899610525536 0.2217899610525536 0.2217899610525536
0.22550929027580296 0.22550929027580296 0.22550929027580296
0.2291984339917423 0.2291984339917423 0.2291984339917423
0.2328937528912753 0.2328937528912753 0.2328937528912753
0.23662020533950404 0.23662020533950404 0.23662020533950404
0.24042259471434832 0.24042259471434832 0.24042259471434832
0.24431149436695285 0.24431149436695285 0.24431149436695285
0.24831015535084094 0.24831015535084094 0.24831015535084094
0.25241473363959427 0.25241473363959427 0.25241473363959427
0.2566061066692162 0.2566061066692162 0.2566061066692162
0.260857274014066 0.260857274014066 0.260857274014066
0.2651297451099608 0.2651297451099608 0.2651297451099608
0.26937874902373776 0.26937874902373776 0.26937874902373776
0.27357351815603814 0.27357351815603814 0.27357351815603814
0.2776974454099296 0.2776974454099296 0.2776974454099296
0.28174457742159226 0.28174457742159226 0.28174457742159226
0.28574738555747825 0.28574738555747825 0.28574738555747825
0.28971120906311065 0.28971120906311065 0.28971120906311065
0.2936964840501304 0.2936964840501304 0.2936964840501304
0.2977137246666125 0.2977137246666125 0.2977137246666125
0.3018226289902777 0.3018226289902777 0.3018226289902777
0.3060475219654848 0.3060475219654848 0.3060475219654848
0.31041335736315073 0.31041335736315073 0.31041335736315073
0.3149238297804462 0.3149238297804462 0.3149238297804462
0.31954887494964407 0.31954887494964407 0.31954887494964407
0.32425319308906625 0.32425319308906625 0.32425319308906625
0.3289925877439087 0.3289925877439087 0.3289925877439087
0.3336778819960013 0.3336778819960013 0.3336778819960013
0.33826588785435796 0.33826588785435796 0.33826588785435796
0.34270219210459557 0.34270219210459557 0.34270219210459557
0.34699426207179196 0.34699426207179196 0.34699426207179196
0.3511573560375973 0.3511573560375973 0.3511573560375973
0.35522892414731994 0.35522892414731994 0.35522892414731994
0.3592419487658851 0.3592419487658851 0.3592419487658851
0.36323597728266044 0.36323597728266044 0.36323597728266044
0.3672437527669803 0.3672437527669803 0.3672437527669803
0.3712841051645423 0.3712841051645423 0.3712841051645423
0.37537531800091595 0.37537531800091595 0.37537531800091595
0.37950183924297076 0.37950183924297076 0.37950183924297076
0.3836572383884381 0.3836572383884381 0.3836572383884381
0.38780040902396673 0.38780040902396673 0.38780040902396673
0.3919170973574049 0.3919170973574049 0.3919170973574049
0.39595381447295447 0.39595381447295447 0.39595381447295447
0.39989542571905773 0.39989542571905773 0.39989542571905773
0.40372128824666353 0.40372128824666353 0.40372128824666353
0.40742181843675374 0.40742181843675374 0.40742181843675374
0.4110343056120705 0.4110343056120705 0.4110343056120705
0.4145618862942124 0.4145618862942124 0.4145618862942124
0.4180493083758524 0.4180493083758524 0.4180493083758524
0.42151700325407143 0.42151700325407143 0.42151700325407143
0.42499005715886895 0.42499005715886895 0.42499005715886895
0.42849809855494214 0.42849809855494214 0.42849809855494214
0.43206014139721094 0.43206014139721094 0.43206014139721094
0.4356947536576567 0.4356947536576567 0.4356947536576567
0.4394241518838463 0.4394241518838463 0.4394241518838463
0.44323723791405484 0.44323723791405484 0.44323723791405484
0.44714397670715755 0.44714397670715755 0.44714397670715755
0.45110662952109754 0.45110662952109754 0.45110662952109754
0.4551124286386832 0.4551124286386832 0.4551124286386832
0.4591135794625019 0.4591135794625019 0.4591135794625019
0.46308298550827376 0.46308298550827376 0.46308298550827376
0.46699382778542636 0.46699382778542636 0.46699382778542636
0.4708222142967046 0.4708222142967046 0.4708222142967046
0.47459019244864065 0.47459019244864065 0.47459019244864065
0.47829178896846103 0.47829178896846103 0.47829178896846103
0.48196930954605494 0.48196930954605494 0.48196930954605494
0.4856431592594669 0.4856431592594669 0.4856431592594669
0.48933808370005216 0.48933808370005216 0.48933808370005216
0.49308214795865096 0.49308214795865096 0.49308214795865096
0.4968850135142363 0.4968850135142363 0.4968850135142363
0.5007656998499277 0.5007656998499277 0.5007656998499277
0.5047175611356017 0.5047175611356017 0.5047175611356017
0.5087295517416336 0.5087295517416336 0.5087295517416336
0.5127822069752447 0.5127822069752447 0.5127822069752447
0.5168489333052979 0.5168489333052979 0.5168489333052979
0.5209100542371546 0.5209100542371546 0.5209100542371546
0.5249423804637825 0.5249423804637825 0.5249423804637825
0.5289314961631489 0.5289314961631489 0.5289314961631489
0.5328548829008359 0.5328548829008359 0.5328548829008359
0.5367156456150621 0.5367156456150621 0.5367156456150621
0.5405047619920132 0.5405047619920132 0.5405047619920132
0.5442445658253279 0.5442445658253279 0.5442445658253279
0.5479552897186506 0.5479552897186506 0.5479552897186506
0.5516575100809806 0.5516575100809806 0.5516575100809806
0.5553845280992151 0.5553845280992151 0.5553845280992151
0.5591522242980235 0.5591522242980235 0.5591522242980235
0.5629822083411377 0.5629822083411377 0.5629822083411377
0.5668851998645483 0.5668851998645483 0.5668851998645483
0.5708615086977443 0.5708615086977443 0.5708615086977443
0.574909556202901 0.574909556202901 0.574909556202901
0.5790193075648267 0.5790193075648267 0.5790193075648267
0.5831771460209745 0.5831771460209745 0.5831771460209745
0.587355465802235 0.587355465802235 0.587355465802235
0.5915314185361393 0.5915314185361393 0.5915314185361393
0.5956548363935147 0.5956548363935147 0.5956548363935147
0.5997226301348575 0.5997226301348575 0.5997226301348575
0.6037167788301115 0.6037167788301115 0.6037167788301115
0.6076567195798996 0.6076567195798996 0.6076567195798996
0.6115718963774576 0.6115718963774576 0.6115718963774576
0.61547790858736 0.61547790858736 0.61547790858736
0.6194273425178641 0.6194273425178641 0.6194273425178641
0.6234270990866221 0.6234270990866221 0.6234270990866221
0.627528891808671 0.627528891808671 0.627528891808671
0.631738235311389 0.631738235311389 0.631738235311389
0.6360737728257864 0.6360737728257864 0.6360737728257864
