obsidian/Clippings/写真家活動/技法探求/デジネガ/QTR/プロファイル作成/QTR-DN/QTR-DN/古い/選択項目から作成したフォルダ 2/選択項目から作成したフォルダ/MC5/PtPd-K41-415s-v3-MC5-LUTcorrection.cube
#Color Lookup Table 
TITLE "QuadToneProfiler Color Lookup Table for 256-step Linearity Correction
LUT_1D_SIZE 256
DOMAIN_MIN 0.0 0.0 0.0
DOMAIN_MAX 1.0 1.0 1.0
0.0 0.0 0.0
0.007936587746203563 0.007936587746203563 0.007936587746203563
0.010909689767353917 0.010909689767353917 0.010909689767353917
0.013817449710532082 0.013817449710532082 0.013817449710532082
0.01786827671740165 0.01786827671740165 0.01786827671740165
0.024857750350708332 0.024857750350708332 0.024857750350708332
0.02987897273659002 0.02987897273659002 0.02987897273659002
0.035086362738569916 0.035086362738569916 0.035086362738569916
0.04007581077820655 0.04007581077820655 0.04007581077820655
0.04425848243592639 0.04425848243592639 0.04425848243592639
0.04815670052613465 0.04815670052613465 0.04815670052613465
0.05194283818991993 0.05194283818991993 0.05194283818991993
0.055591986873896194 0.055591986873896194 0.055591986873896194
0.059109410382206934 0.059109410382206934 0.059109410382206934
0.06258528908728243 0.06258528908728243 0.06258528908728243
0.066247226948253 0.066247226948253 0.066247226948253
0.0699343846244157 0.0699343846244157 0.0699343846244157
0.07345383446949649 0.07345383446949649 0.07345383446949649
0.07683958708601325 0.07683958708601325 0.07683958708601325
0.0800982852444275 0.0800982852444275 0.0800982852444275
0.08325175025132202 0.08325175025132202 0.08325175025132202
0.08633586804959799 0.08633586804959799 0.08633586804959799
0.08939178400990558 0.08939178400990558 0.08939178400990558
0.09244347283350392 0.09244347283350392 0.09244347283350392
0.0955223362262286 0.0955223362262286 0.0955223362262286
0.0986507099402559 0.0986507099402559 0.0986507099402559
0.10184187371722603 0.10184187371722603 0.10184187371722603
0.10518506614739666 0.10518506614739666 0.10518506614739666
0.1086740715219918 0.1086740715219918 0.1086740715219918
0.11238422823022859 0.11238422823022859 0.11238422823022859
0.11635151076340369 0.11635151076340369 0.11635151076340369
0.1205790664436095 0.1205790664436095 0.1205790664436095
0.12504336486743392 0.12504336486743392 0.12504336486743392
0.12953884971274995 0.12953884971274995 0.12953884971274995
0.13397445026262242 0.13397445026262242 0.13397445026262242
0.13819935888654034 0.13819935888654034 0.13819935888654034
0.14225033420389205 0.14225033420389205 0.14225033420389205
0.1461287287183568 0.1461287287183568 0.1461287287183568
0.149880938490043 0.149880938490043 0.149880938490043
0.1535502824709588 0.1535502824709588 0.1535502824709588
0.15716833965796753 0.15716833965796753 0.15716833965796753
0.16083362175017524 0.16083362175017524 0.16083362175017524
0.16453570601548406 0.16453570601548406 0.16453570601548406
0.16832276761925385 0.16832276761925385 0.16832276761925385
0.1721670078906094 0.1721670078906094 0.1721670078906094
0.17594408864197247 0.17594408864197247 0.17594408864197247
0.17964696963069912 0.17964696963069912 0.17964696963069912
0.18317819289965076 0.18317819289965076 0.18317819289965076
0.18656635547576148 0.18656635547576148 0.18656635547576148
0.18986252591925845 0.18986252591925845 0.18986252591925845
0.1930958967351887 0.1930958967351887 0.1930958967351887
0.19628375307111437 0.19628375307111437 0.19628375307111437
0.19949978885984845 0.19949978885984845 0.19949978885984845
0.2027425748684736 0.2027425748684736 0.2027425748684736
0.20605891246760524 0.20605891246760524 0.20605891246760524
0.20946379404269108 0.20946379404269108 0.20946379404269108
0.21297786708589417 0.21297786708589417 0.21297786708589417
0.21663548562404672 0.21663548562404672 0.21663548562404672
0.220447160959589 0.220447160959589 0.220447160959589
0.22442592482106516 0.22442592482106516 0.22442592482106516
0.22858327046718446 0.22858327046718446 0.22858327046718446
0.23292362606390957 0.23292362606390957 0.23292362606390957
0.2374540978951904 0.2374540978951904 0.2374540978951904
0.24217596406640562 0.24217596406640562 0.24217596406640562
0.24702531098368843 0.24702531098368843 0.24702531098368843
0.25196952834015457 0.25196952834015457 0.25196952834015457
0.25694259797736924 0.25694259797736924 0.25694259797736924
0.26190922460957805 0.26190922460957805 0.26190922460957805
0.2668332573636395 0.2668332573636395 0.2668332573636395
0.27160285000392675 0.27160285000392675 0.27160285000392675
0.27616843912181727 0.27616843912181727 0.27616843912181727
0.28041658480871146 0.28041658480871146 0.28041658480871146
0.28436802274442696 0.28436802274442696 0.28436802274442696
0.28804271326018116 0.28804271326018116 0.28804271326018116
0.2915561144193821 0.2915561144193821 0.2915561144193821
0.29501473977480347 0.29501473977480347 0.29501473977480347
0.2984355668192903 0.2984355668192903 0.2984355668192903
0.30190519001309524 0.30190519001309524 0.30190519001309524
0.3054326986446256 0.3054326986446256 0.3054326986446256
0.3091036373853145 0.3091036373853145 0.3091036373853145
0.31295223945421285 0.31295223945421285 0.31295223945421285
0.3169901628872802 0.3169901628872802 0.3169901628872802
0.3212542510650164 0.3212542510650164 0.3212542510650164
0.32564221512918273 0.32564221512918273 0.32564221512918273
0.330116212986521 0.330116212986521 0.330116212986521
0.33457325315711417 0.33457325315711417 0.33457325315711417
0.3390284079282794 0.3390284079282794 0.3390284079282794
0.3435601628276705 0.3435601628276705 0.3435601628276705
0.34826851235412787 0.34826851235412787 0.34826851235412787
0.353303712933226 0.353303712933226 0.353303712933226
0.358836671193551 0.358836671193551 0.358836671193551
0.3649510070168169 0.3649510070168169 0.3649510070168169
0.3719346819393153 0.3719346819393153 0.3719346819393153
0.37958835008315917 0.37958835008315917 0.37958835008315917
0.3869470811007916 0.3869470811007916 0.3869470811007916
0.39328035702690833 0.39328035702690833 0.39328035702690833
0.3987502997028365 0.3987502997028365 0.3987502997028365
0.40377004737828065 0.40377004737828065 0.40377004737828065
0.4085635708989988 0.4085635708989988 0.4085635708989988
0.4133555385881996 0.4133555385881996 0.4133555385881996
0.4182370551217735 0.4182370551217735 0.4182370551217735
0.4233316412731009 0.4233316412731009 0.4233316412731009
0.4285005265710906 0.4285005265710906 0.4285005265710906
0.4335633733292059 0.4335633733292059 0.4335633733292059
0.43834374019485933 0.43834374019485933 0.43834374019485933
0.44280054125148427 0.44280054125148427 0.44280054125148427
0.44692554704269244 0.44692554704269244 0.44692554704269244
0.4508006504812265 0.4508006504812265 0.4508006504812265
0.454462296407486 0.454462296407486 0.454462296407486
0.4579732209928677 0.4579732209928677 0.4579732209928677
0.4613617377080255 0.4613617377080255 0.4613617377080255
0.4646565263947211 0.4646565263947211 0.4646565263947211
0.46788348428498644 0.46788348428498644 0.46788348428498644
0.47105361704065624 0.47105361704065624 0.47105361704065624
0.474138921369299 0.474138921369299 0.474138921369299
0.477124007010808 0.477124007010808 0.477124007010808
0.48003356929914665 0.48003356929914665 0.48003356929914665
0.4828717550945823 0.4828717550945823 0.4828717550945823
0.4856208093460632 0.4856208093460632 0.4856208093460632
0.48831594804368783 0.48831594804368783 0.48831594804368783
0.490974530666426 0.490974530666426 0.490974530666426
0.4935977758970289 0.4935977758970289 0.4935977758970289
0.496201116815461 0.496201116815461 0.496201116815461
0.49879278931309284 0.49879278931309284 0.49879278931309284
0.5013812285251376 0.5013812285251376 0.5013812285251376
0.5039773456968089 0.5039773456968089 0.5039773456968089
0.5065753784825836 0.5065753784825836 0.5065753784825836
0.5091862846673204 0.5091862846673204 0.5091862846673204
0.5118411067665644 0.5118411067665644 0.5118411067665644
0.514534189940439 0.514534189940439 0.514534189940439
0.5172955623688583 0.5172955623688583 0.5172955623688583
0.5201837690539972 0.5201837690539972 0.5201837690539972
0.5232202304510782 0.5232202304510782 0.5232202304510782
0.526439346107041 0.526439346107041 0.526439346107041
0.5298460881107399 0.5298460881107399 0.5298460881107399
0.5334500326581701 0.5334500326581701 0.5334500326581701
0.5372403041760196 0.5372403041760196 0.5372403041760196
0.541138656477286 0.541138656477286 0.541138656477286
0.5451569191152789 0.5451569191152789 0.5451569191152789
0.5492533662789046 0.5492533662789046 0.5492533662789046
0.5534606272311854 0.5534606272311854 0.5534606272311854
0.5577996783684354 0.5577996783684354 0.5577996783684354
0.5623444604553779 0.5623444604553779 0.5623444604553779
0.5671529851096867 0.5671529851096867 0.5671529851096867
0.5721106087796669 0.5721106087796669 0.5721106087796669
0.5770093657998033 0.5770093657998033 0.5770093657998033
0.5815303854734715 0.5815303854734715 0.5815303854734715
0.5856893626311978 0.5856893626311978 0.5856893626311978
0.5894878732026928 0.5894878732026928 0.5894878732026928
0.593042119864208 0.593042119864208 0.593042119864208
0.5964160296808592 0.5964160296808592 0.5964160296808592
0.5996346716062284 0.5996346716062284 0.5996346716062284
0.602766711751441 0.602766711751441 0.602766711751441
0.6058270103476425 0.6058270103476425 0.6058270103476425
0.6088277079237921 0.6088277079237921 0.6088277079237921
0.6117801233000794 0.6117801233000794 0.6117801233000794
0.614672812454848 0.614672812454848 0.614672812454848
0.6175416311733294 0.6175416311733294 0.6175416311733294
0.620392713704891 0.620392713704891 0.620392713704891
0.6232311025839179 0.6232311025839179 0.6232311025839179
0.6261127793111074 0.6261127793111074 0.6261127793111074
0.6290244303795732 0.6290244303795732 0.6290244303795732
0.6319743573418591 0.6319743573418591 0.6319743573418591
0.6349911759393964 0.6349911759393964 0.6349911759393964
0.6380786424172826 0.6380786424172826 0.6380786424172826
0.6412129059602055 0.6412129059602055 0.6412129059602055
0.6444031613191459 0.6444031613191459 0.6444031613191459
0.6476735723145377 0.6476735723145377 0.6476735723145377
0.6510754206250361 0.6510754206250361 0.6510754206250361
0.6546534802052579 0.6546534802052579 0.6546534802052579
0.6585330647582349 0.6585330647582349 0.6585330647582349
0.6627837628270348 0.6627837628270348 0.6627837628270348
0.6677043561153497 0.6677043561153497 0.6677043561153497
0.6733955478267203 0.6733955478267203 0.6733955478267203
0.6799120618955186 0.6799120618955186 0.6799120618955186
0.6865592950111895 0.6865592950111895 0.6865592950111895
0.6926965250723012 0.6926965250723012 0.6926965250723012
0.6985253266461074 0.6985253266461074 0.6985253266461074
0.7041987637848096 0.7041987637848096 0.7041987637848096
0.7099093001886314 0.7099093001886314 0.7099093001886314
0.7156664510037959 0.7156664510037959 0.7156664510037959
0.721394843580931 0.721394843580931 0.721394843580931
0.7269067240662657 0.7269067240662657 0.7269067240662657
0.7319574658045656 0.7319574658045656 0.7319574658045656
0.7364619175608929 0.7364619175608929 0.7364619175608929
0.740473387025331 0.740473387025331 0.740473387025331
0.7440927129280213 0.7440927129280213 0.7440927129280213
0.7474247421526156 0.7474247421526156 0.7474247421526156
0.7505788531874386 0.7505788531874386 0.7505788531874386
0.7536105487948934 0.7536105487948934 0.7536105487948934
0.7565226984046605 0.7565226984046605 0.7565226984046605
0.7594130021791998 0.7594130021791998 0.7594130021791998
0.7622949915191823 0.7622949915191823 0.7622949915191823
0.7651863676756717 0.7651863676756717 0.7651863676756717
0.7681487880799561 0.7681487880799561 0.7681487880799561
0.7711861014040942 0.7711861014040942 0.7711861014040942
0.7743178888795851 0.7743178888795851 0.7743178888795851
0.7775617708363449 0.7775617708363449 0.7775617708363449
0.7809250650188708 0.7809250650188708 0.7809250650188708
0.7843849162641336 0.7843849162641336 0.7843849162641336
0.7879583508241373 0.7879583508241373 0.7879583508241373
0.7915524041415025 0.7915524041415025 0.7915524041415025
0.7951645442754416 0.7951645442754416 0.7951645442754416
0.7987520506380089 0.7987520506380089 0.7987520506380089
0.8022996771414889 0.8022996771414889 0.8022996771414889
0.8058436112029576 0.8058436112029576 0.8058436112029576
0.8094031401407596 0.8094031401407596 0.8094031401407596
0.8130305573904514 0.8130305573904514 0.8130305573904514
0.8168358334282517 0.8168358334282517 0.8168358334282517
0.8208961091512518 0.8208961091512518 0.8208961091512518
0.8254096722797916 0.8254096722797916 0.8254096722797916
0.83052378772349 0.83052378772349 0.83052378772349
0.8365253893286299 0.8365253893286299 0.8365253893286299
0.8431660742438332 0.8431660742438332 0.8431660742438332
0.8499194453364797 0.8499194453364797 0.8499194453364797
0.8564084773339367 0.8564084773339367 0.8564084773339367
0.8625040897790685 0.8625040897790685 0.8625040897790685
0.8680591543358596 0.8680591543358596 0.8680591543358596
0.8732045591022043 0.8732045591022043 0.8732045591022043
0.8781294384173358 0.8781294384173358 0.8781294384173358
0.8829773460398713 0.8829773460398713 0.8829773460398713
0.8879761235941771 0.8879761235941771 0.8879761235941771
0.8931720310388402 0.8931720310388402 0.8931720310388402
0.8985598556737361 0.8985598556737361 0.8985598556737361
0.9038653507464971 0.9038653507464971 0.9038653507464971
0.9089075304627116 0.9089075304627116 0.9089075304627116
0.913551224329136 0.913551224329136 0.913551224329136
0.9178501143862708 0.9178501143862708 0.9178501143862708
0.9218451371017425 0.9218451371017425 0.9218451371017425
0.9256680610387688 0.9256680610387688 0.9256680610387688
0.9293448739907357 0.9293448739907357 0.9293448739907357
0.9329180231919478 0.9329180231919478 0.9329180231919478
0.936410777034055 0.936410777034055 0.936410777034055
0.9398358624629556 0.9398358624629556 0.9398358624629556
0.9431882243116989 0.9431882243116989 0.9431882243116989
0.9465030859067083 0.9465030859067083 0.9465030859067083
0.9498369808181875 0.9498369808181875 0.9498369808181875
0.9532411124336284 0.9532411124336284 0.9532411124336284
0.9566484341864472 0.9566484341864472 0.9566484341864472
0.9601552904213595 0.9601552904213595 0.9601552904213595
0.9633538681479411 0.9633538681479411 0.9633538681479411
0.9660956007948189 0.9660956007948189 0.9660956007948189
0.9685091336821294 0.9685091336821294 0.9685091336821294
0.9707919087610436 0.9707919087610436 0.9707919087610436
0.9730279449557827 0.9730279449557827 0.9730279449557827
0.9753192042809589 0.9753192042809589 0.9753192042809589
0.9775688820057762 0.9775688820057762 0.9775688820057762
0.9797827266946687 0.9797827266946687 0.9797827266946687
0.9819780073235341 0.9819780073235341 0.9819780073235341
0.9841302997002651 0.9841302997002651 0.9841302997002651
0.986243885341576 0.986243885341576 0.986243885341576
0.9883020485505695 0.9883020485505695 0.9883020485505695
0.9901142511722881 0.9901142511722881 0.9901142511722881
0.9918942250978625 0.9918942250978625 0.9918942250978625
0.9939949119634113 0.9939949119634113 0.9939949119634113
1.0 1.0 1.0
0.0 0.0 0.0
0.007936587746203563 0.007936587746203563 0.007936587746203563
0.010909689767353917 0.010909689767353917 0.010909689767353917
0.013817449710532082 0.013817449710532082 0.013817449710532082
0.01786827671740165 0.01786827671740165 0.01786827671740165
0.024857750350708332 0.024857750350708332 0.024857750350708332
0.02987897273659002 0.02987897273659002 0.02987897273659002
0.035086362738569916 0.035086362738569916 0.035086362738569916
0.04007581077820655 0.04007581077820655 0.04007581077820655
0.04425848243592639 0.04425848243592639 0.04425848243592639
0.04815670052613465 0.04815670052613465 0.04815670052613465
0.05194283818991993 0.05194283818991993 0.05194283818991993
0.055591986873896194 0.055591986873896194 0.055591986873896194
0.059109410382206934 0.059109410382206934 0.059109410382206934
0.06258528908728243 0.06258528908728243 0.06258528908728243
0.066247226948253 0.066247226948253 0.066247226948253
0.0699343846244157 0.0699343846244157 0.0699343846244157
0.07345383446949649 0.07345383446949649 0.07345383446949649
0.07683958708601325 0.07683958708601325 0.07683958708601325
0.0800982852444275 0.0800982852444275 0.0800982852444275
0.08325175025132202 0.08325175025132202 0.08325175025132202
0.08633586804959799 0.08633586804959799 0.08633586804959799
0.08939178400990558 0.08939178400990558 0.08939178400990558
0.09244347283350392 0.09244347283350392 0.09244347283350392
0.0955223362262286 0.0955223362262286 0.0955223362262286
0.0986507099402559 0.0986507099402559 0.0986507099402559
0.10184187371722603 0.10184187371722603 0.10184187371722603
0.10518506614739666 0.10518506614739666 0.10518506614739666
0.1086740715219918 0.1086740715219918 0.1086740715219918
0.11238422823022859 0.11238422823022859 0.11238422823022859
0.11635151076340369 0.11635151076340369 0.11635151076340369
0.1205790664436095 0.1205790664436095 0.1205790664436095
0.12504336486743392 0.12504336486743392 0.12504336486743392
0.12953884971274995 0.12953884971274995 0.12953884971274995
0.13397445026262242 0.13397445026262242 0.13397445026262242
0.13819935888654034 0.13819935888654034 0.13819935888654034
0.14225033420389205 0.14225033420389205 0.14225033420389205
0.1461287287183568 0.1461287287183568 0.1461287287183568
0.149880938490043 0.149880938490043 0.149880938490043
0.1535502824709588 0.1535502824709588 0.1535502824709588
0.15716833965796753 0.15716833965796753 0.15716833965796753
0.16083362175017524 0.16083362175017524 0.16083362175017524
0.16453570601548406 0.16453570601548406 0.16453570601548406
0.16832276761925385 0.16832276761925385 0.16832276761925385
0.1721670078906094 0.1721670078906094 0.1721670078906094
0.17594408864197247 0.17594408864197247 0.17594408864197247
0.17964696963069912 0.17964696963069912 0.17964696963069912
0.18317819289965076 0.18317819289965076 0.18317819289965076
0.18656635547576148 0.18656635547576148 0.18656635547576148
0.18986252591925845 0.18986252591925845 0.18986252591925845
0.1930958967351887 0.1930958967351887 0.1930958967351887
0.19628375307111437 0.19628375307111437 0.19628375307111437
0.19949978885984845 0.19949978885984845 0.19949978885984845
0.2027425748684736 0.2027425748684736 0.2027425748684736
0.20605891246760524 0.20605891246760524 0.20605891246760524
0.20946379404269108 0.20946379404269108 0.20946379404269108
0.21297786708589417 0.21297786708589417 0.21297786708589417
0.21663548562404672 0.21663548562404672 0.21663548562404672
0.220447160959589 0.220447160959589 0.220447160959589
0.22442592482106516 0.22442592482106516 0.22442592482106516
0.22858327046718446 0.22858327046718446 0.22858327046718446
0.23292362606390957 0.23292362606390957 0.23292362606390957
0.2374540978951904 0.2374540978951904 0.2374540978951904
0.24217596406640562 0.24217596406640562 0.24217596406640562
0.24702531098368843 0.24702531098368843 0.24702531098368843
0.25196952834015457 0.25196952834015457 0.25196952834015457
0.25694259797736924 0.25694259797736924 0.25694259797736924
0.26190922460957805 0.26190922460957805 0.26190922460957805
0.2668332573636395 0.2668332573636395 0.2668332573636395
0.27160285000392675 0.27160285000392675 0.27160285000392675
0.27616843912181727 0.27616843912181727 0.27616843912181727
0.28041658480871146 0.28041658480871146 0.28041658480871146
0.28436802274442696 0.28436802274442696 0.28436802274442696
0.28804271326018116 0.28804271326018116 0.28804271326018116
0.2915561144193821 0.2915561144193821 0.2915561144193821
0.29501473977480347 0.29501473977480347 0.29501473977480347
0.2984355668192903 0.2984355668192903 0.2984355668192903
0.30190519001309524 0.30190519001309524 0.30190519001309524
0.3054326986446256 0.3054326986446256 0.3054326986446256
0.3091036373853145 0.3091036373853145 0.3091036373853145
0.31295223945421285 0.31295223945421285 0.31295223945421285
0.3169901628872802 0.3169901628872802 0.3169901628872802
0.3212542510650164 0.3212542510650164 0.3212542510650164
0.32564221512918273 0.32564221512918273 0.32564221512918273
0.330116212986521 0.330116212986521 0.330116212986521
0.33457325315711417 0.33457325315711417 0.33457325315711417
0.3390284079282794 0.3390284079282794 0.3390284079282794
0.3435601628276705 0.3435601628276705 0.3435601628276705
0.34826851235412787 0.34826851235412787 0.34826851235412787
0.353303712933226 0.353303712933226 0.353303712933226
0.358836671193551 0.358836671193551 0.358836671193551
0.3649510070168169 0.3649510070168169 0.3649510070168169
0.3719346819393153 0.3719346819393153 0.3719346819393153
0.37958835008315917 0.37958835008315917 0.37958835008315917
0.3869470811007916 0.3869470811007916 0.3869470811007916
0.39328035702690833 0.39328035702690833 0.39328035702690833
0.3987502997028365 0.3987502997028365 0.3987502997028365
0.40377004737828065 0.40377004737828065 0.40377004737828065
0.4085635708989988 0.4085635708989988 0.4085635708989988
0.4133555385881996 0.4133555385881996 0.4133555385881996
0.4182370551217735 0.4182370551217735 0.4182370551217735
0.4233316412731009 0.4233316412731009 0.4233316412731009
0.4285005265710906 0.4285005265710906 0.4285005265710906
0.4335633733292059 0.4335633733292059 0.4335633733292059
0.43834374019485933 0.43834374019485933 0.43834374019485933
0.44280054125148427 0.44280054125148427 0.44280054125148427
0.44692554704269244 0.44692554704269244 0.44692554704269244
0.4508006504812265 0.4508006504812265 0.4508006504812265
0.454462296407486 0.454462296407486 0.454462296407486
0.4579732209928677 0.4579732209928677 0.4579732209928677
0.4613617377080255 0.4613617377080255 0.4613617377080255
0.4646565263947211 0.4646565263947211 0.4646565263947211
0.46788348428498644 0.46788348428498644 0.46788348428498644
0.47105361704065624 0.47105361704065624 0.47105361704065624
0.474138921369299 0.474138921369299 0.474138921369299
0.477124007010808 0.477124007010808 0.477124007010808
0.48003356929914665 0.48003356929914665 0.48003356929914665
0.4828717550945823 0.4828717550945823 0.4828717550945823
0.4856208093460632 0.4856208093460632 0.4856208093460632
0.48831594804368783 0.48831594804368783 0.48831594804368783
0.490974530666426 0.490974530666426 0.490974530666426
0.4935977758970289 0.4935977758970289 0.4935977758970289
0.496201116815461 0.496201116815461 0.496201116815461
0.49879278931309284 0.49879278931309284 0.49879278931309284
0.5013812285251376 0.5013812285251376 0.5013812285251376
0.5039773456968089 0.5039773456968089 0.5039773456968089
0.5065753784825836 0.5065753784825836 0.5065753784825836
0.5091862846673204 0.5091862846673204 0.5091862846673204
0.5118411067665644 0.5118411067665644 0.5118411067665644
0.514534189940439 0.514534189940439 0.514534189940439
0.5172955623688583 0.5172955623688583 0.5172955623688583
0.5201837690539972 0.5201837690539972 0.5201837690539972
0.5232202304510782 0.5232202304510782 0.5232202304510782
0.526439346107041 0.526439346107041 0.526439346107041
0.5298460881107399 0.5298460881107399 0.5298460881107399
0.5334500326581701 0.5334500326581701 0.5334500326581701
0.5372403041760196 0.5372403041760196 0.5372403041760196
0.541138656477286 0.541138656477286 0.541138656477286
0.5451569191152789 0.5451569191152789 0.5451569191152789
0.5492533662789046 0.5492533662789046 0.5492533662789046
0.5534606272311854 0.5534606272311854 0.5534606272311854
0.5577996783684354 0.5577996783684354 0.5577996783684354
0.5623444604553779 0.5623444604553779 0.5623444604553779
0.5671529851096867 0.5671529851096867 0.5671529851096867
0.5721106087796669 0.5721106087796669 0.5721106087796669
0.5770093657998033 0.5770093657998033 0.5770093657998033
0.5815303854734715 0.5815303854734715 0.5815303854734715
0.5856893626311978 0.5856893626311978 0.5856893626311978
0.5894878732026928 0.5894878732026928 0.5894878732026928
0.593042119864208 0.593042119864208 0.593042119864208
0.5964160296808592 0.5964160296808592 0.5964160296808592
0.5996346716062284 0.5996346716062284 0.5996346716062284
0.602766711751441 0.602766711751441 0.602766711751441
0.6058270103476425 0.6058270103476425 0.6058270103476425
0.6088277079237921 0.6088277079237921 0.6088277079237921
0.6117801233000794 0.6117801233000794 0.6117801233000794
0.614672812454848 0.614672812454848 0.614672812454848
0.6175416311733294 0.6175416311733294 0.6175416311733294
