obsidian/Clippings/写真家活動/技法探求/デジネガ/QTR/プロファイル作成/QTR-DN/QTR-DN/古い/選択項目から作成したフォルダ 2/選択項目から作成したフォルダ/MC5/PtPd-K41-415s-v3-MC5measuredLUTsoftproof.cube
#Color Lookup Table 
TITLE "QuadToneProfiler Color Lookup Table for 256-step Soft Proof
LUT_1D_SIZE 256
DOMAIN_MIN 0.0 0.0 0.0
DOMAIN_MAX 1.0 1.0 1.0
0.23841903093829053 0.25422789430093806 0.2481449230222661
0.23935731166568575 0.25491335770656254 0.2508343837589317
0.24044369517005237 0.25739830849550127 0.2527785010163183
0.2420074657972156 0.26039818936382936 0.25519446756107894
0.24422929382753716 0.26287206195759566 0.2571569236908562
0.24650518625814055 0.2653623794078504 0.2591365925984643
0.24925115933724862 0.2678051196180381 0.2613526708654791
0.2520974824088288 0.27032267023319956 0.26365686030883784
0.25512218995660696 0.273055291571954 0.26608967219099894
0.2580928785128864 0.2757350336638818 0.26846327308021073
0.26076157521650584 0.27788333259603626 0.270380128413952
0.26328906706388605 0.2798690863854338 0.27214107791992015
0.26589468829580426 0.28203728966113745 0.27396201907388623
0.26858880785915074 0.2843052339516507 0.2758687480701345
0.2713705927296457 0.2867724676166874 0.2779332246007768
0.2742545416760771 0.2893561286805378 0.2801075062608808
0.2771817934891294 0.29198322067557736 0.28234743228428716
0.28016008783831853 0.2946612845543601 0.2846403944445675
0.28317344256446797 0.29737858636614006 0.2869693698371957
0.2862028927812687 0.30011228623641556 0.2893132715789585
0.2892106885860433 0.3028232970686607 0.2916320449838388
0.29217129204606074 0.305486159308509 0.2939016643837711
0.295013794323288 0.3080163693180021 0.29604698069916136
0.29774584106910695 0.31043209434532854 0.2980794483866969
0.3003365479119697 0.31270683476086214 0.2999891386937622
0.30282588791936893 0.31487953650026074 0.3018009652825184
0.3052545328117337 0.31702645329311446 0.30359638091781393
0.30766344992153727 0.31916235631643863 0.30538271712554993
0.3101240515454764 0.32139720946456146 0.3072696383245994
0.3126451638409366 0.32370598412265905 0.3092300659077741
0.31525160118386986 0.3261201480446708 0.3113076402400549
0.3179165859641906 0.32859899936217957 0.31345279138594184
0.3205450125847805 0.3310501397428625 0.31557807488340506
0.32313166479372607 0.3334621148788193 0.31766664234157127
0.32556438658895825 0.3357297744482263 0.3196236904833083
0.3278702059388164 0.3378735368495674 0.3214617778462041
0.3300421303902487 0.3398944019673812 0.3231884795785121
0.3320991676166593 0.3418043231011688 0.32480905649178676
0.3340850196465755 0.3436540338178837 0.326395379405862
0.3360078321027633 0.3454451416984623 0.3279342802457273
0.33788673450924894 0.34721462780758083 0.32948356060966816
0.33975031905586583 0.34897899032569757 0.3310422622207995
0.341698829343643 0.3508503040969487 0.3327085042974289
0.3437498248519399 0.35283519151783066 0.33448790778609827
0.34605370536939223 0.355078536241973 0.3364790281269947
0.3485944586397371 0.35756207669684487 0.33868430862938215
0.3514226089052067 0.360306427709489 0.3411026765363933
0.3545092841823716 0.36329444387415266 0.34373627682311825
0.3577636191479962 0.366417965943036 0.3464737597558945
0.36116914943485245 0.36967313401906776 0.34932274457544843
0.3645795742737838 0.37290738111656896 0.3521674763514173
0.3679971610469916 0.3761318169734476 0.35501293492590497
0.3713478732320359 0.3792835912933314 0.3578283332889324
0.37464135363418805 0.38237390289080503 0.360611853230424
0.3779198025251374 0.3854533524612129 0.36341818724125746
0.3811873369339318 0.38852482779477193 0.36624144147844245
0.38453546115975096 0.3916731213869845 0.36915047932664075
0.38796113619454836 0.39489587765193 0.3721408614729339
0.391514582560567 0.3982373337846546 0.37524507802842744
0.39519116190565906 0.40169417918459593 0.37846035752903
0.3989472077348726 0.405219815506657 0.3817443311251243
0.4027806410111109 0.40881316631249937 0.3850958347115956
0.4065617755013668 0.4123393905638056 0.3884004181350711
0.41029116153257456 0.41579965166113786 0.39165841198078916
0.41381728250083416 0.41904312184979775 0.39474201016943716
0.4171402113215134 0.4220697079505808 0.3976519383187028
0.42017356263398514 0.4248095556690308 0.40031036904547895
0.4229136926082137 0.427259465426105 0.40271687835262193
0.4253870898395852 0.42946116802041256 0.4048745058379854
0.42758690788814463 0.43141091557587635 0.4067789941154482
0.42964685017455745 0.43322856695110407 0.40852611496818464
0.4315653433405719 0.4349145174150744 0.41011010705027234
0.43345097039591357 0.4365731383629761 0.4116287564670994
0.4353076986151661 0.438210252946511 0.41307591662079685
0.4371639098216564 0.4398533834250322 0.414503023820018
0.4390215563697085 0.44150718499912284 0.41590437810176206
0.44087531324438944 0.4431649658314462 0.4173059166648985
0.44272675955948687 0.44483226245646373 0.418711390790441
0.44452887637890004 0.4464554294255468 0.42008777428781785
0.4462759454198087 0.4480319319065746 0.42144139544811293
0.4479413648759814 0.4495282577954877 0.4227305301939555
0.4495069408626245 0.45092737062668725 0.42394894580557646
0.45107252939099424 0.45233335467971153 0.425181135745152
0.45262865422959414 0.4537424855410959 0.4264292954887602
0.4543212629020675 0.4553043064241788 0.4278280589580589
0.45615640840178845 0.4570404571690752 0.4293985214064516
0.45819813460913 0.45900367053452734 0.4311941404202763
0.4604479430206841 0.4612181232874118 0.43323958835973037
0.46289981275018716 0.4636418311473201 0.4355039026443863
0.4655541725451962 0.4662843966504157 0.4380117615787404
0.46835484159279156 0.46906260066641997 0.4406708657890668
0.4713038795311389 0.47196323407632507 0.4434928334860993
0.47434449491806535 0.47493711338850936 0.44639371683833734
0.4774804834727429 0.47795828582566696 0.44935833726794167
0.4807088022906731 0.48105698575868555 0.4523915315089035
0.4840616814106217 0.48423850948017694 0.45548329150482286
0.48747635832463626 0.487473317347249 0.4586126820380138
0.49097325363521765 0.49076481057576754 0.46175126133244876
0.494455681622145 0.49404071397774535 0.4648627483350885
0.4979065321544041 0.4972823715478934 0.46790110945901703
0.5012908187580573 0.5004651113142152 0.4708744619664013
0.5045841061239649 0.5035863290687604 0.47376263319151407
0.5077830578955742 0.5066196119297727 0.4765631216111858
0.510875487794799 0.509573344813309 0.4792830044075059
0.5138275512595964 0.512380516677979 0.48186230016575754
0.5166353055799798 0.515015758513014 0.48429246736081616
0.5192620395412957 0.5174592401812999 0.486538686305201
0.5217024544383217 0.5196624826145346 0.4885771820112869
0.5240062885356629 0.5217237726816306 0.49047681155262507
0.526194895626733 0.5236399068246211 0.4922423077039851
0.528362702561583 0.5255425169801172 0.49398822245605717
0.5305350508320821 0.5274981997121753 0.49574700470985683
0.5327784707047313 0.529537200590669 0.49757869922809067
0.5350817416692358 0.5317298500346493 0.4994925053366252
0.537462538875653 0.5340091261124735 0.5014879312091205
0.5398517209344403 0.5363787190181609 0.5035395231198886
0.5423057396714662 0.5388171239321801 0.5056607874611802
0.5447782554894763 0.5413170832847323 0.5078637835577767
0.5473367191224997 0.5439034491320544 0.5101552136797236
0.5499720741273244 0.5465736822794172 0.5125732239458265
0.5527625366425029 0.5493979568999161 0.5151461271175513
0.5557579756515748 0.5524117618807953 0.5179553806966651
0.558985452347918 0.5556570592423352 0.5209951329652778
0.5625184908971343 0.559202187213735 0.5243754618114377
0.566260720238923 0.5629567379162247 0.5279638414577783
0.5701497980922806 0.5668793686814217 0.5317632690799652
0.5741562400087943 0.5709193872694089 0.535679102382608
0.5782138562953352 0.5750207295159361 0.5396946114339308
0.5823219641813441 0.5791726598996596 0.543760279168269
0.5864792424077169 0.5833483500427126 0.5478982025861308
0.5906348244183757 0.5875222579663988 0.5520350072322442
0.5947829754341625 0.5916515098370062 0.5561502787286209
0.5988677158024942 0.5957165535944707 0.5602028862110126
0.6028753835361845 0.5996537779526112 0.564128692317816
0.6067853917913235 0.6034912815603984 0.5679561034561409
0.6106179195485907 0.60721247499899 0.5716672072412888
0.6143690637789566 0.6108499321559332 0.5752956242666654
0.6180923460646677 0.6144457299480572 0.5788717837115546
0.6217381686125598 0.6179629161211659 0.5823695129845484
0.6252661268816578 0.6213747025558999 0.5857434382396233
0.6286687387148232 0.6246623369185414 0.5889927827667367
0.6319129905624464 0.6277884129080384 0.5920608435908257
0.6349975560961516 0.6307545140202392 0.5949682056192915
0.6378953817629619 0.6335317335078754 0.597700586928515
0.6406385592256443 0.6361541031427276 0.6002813799142309
0.6432470878702699 0.638650939785761 0.6027470532869431
0.6457693986901715 0.6410629724985457 0.6051302640645585
0.648286529911865 0.6434801615540376 0.6074831044379971
0.6508215209237079 0.6459168939788931 0.6098490463608187
0.6534667790670384 0.6484813580890434 0.6123078510573536
0.6561829415942583 0.6511200191103973 0.6148334061312697
0.6589257798807204 0.6538012994478583 0.6173995275931791
0.661670392615989 0.6564878375652898 0.619970455126486
0.6643224429389214 0.6590900240836182 0.6224970404450588
0.6668655325050133 0.6615853986292891 0.6249275223908062
0.6691817805791892 0.6638396733338334 0.6271646859745653
0.6713039293711085 0.6658962154697036 0.6292184277489469
0.67324691499892 0.6677602208886427 0.6310993750214444
0.675048019264298 0.6694785152245136 0.6328414013870088
0.6768271604366679 0.6711824732185748 0.6345218248513697
0.6786006272450661 0.672883178458901 0.6361837191309411
0.6805011663948857 0.6747108865462454 0.6379288540357281
0.6825188129626076 0.6766554840118881 0.639774756096033
0.6847263455936644 0.6787759774859689 0.6417706425872259
0.6871071236953803 0.6810641133392097 0.6439232447471489
0.6896774679768972 0.6835311903877247 0.6462408834542863
0.6924245562309345 0.6861703453377793 0.6487238246881321
0.6953346611733596 0.6889665099750085 0.6513771680217001
0.6983890456978825 0.6919040383741831 0.6541770565176098
0.7015084657415469 0.6948849078990376 0.657076877518625
0.7046881825451132 0.6979155373499448 0.6600532263452701
0.7078538056291642 0.7009189109268189 0.6630540193719426
0.7110240855239919 0.7039200507803348 0.6660790623015735
0.7142529762100011 0.7069835773766572 0.6691804936350569
0.7175503428726648 0.7101174633796384 0.6723597370687846
0.7210240443827033 0.7134312995791989 0.6757084744029241
0.7246641060970664 0.7169133597712323 0.6792187781884081
0.7284857203500156 0.720583101863062 0.6829225951965123
0.732476300336973 0.7244254371506704 0.6868022804195536
0.7365232089075674 0.7283356939869957 0.6907486053230713
0.740625205931137 0.7323087268233643 0.6947567820765103
0.7446426364493224 0.7362110310210411 0.6986965872705989
0.7485744248957664 0.7400376559492731 0.7025627042120182
0.7522186833274043 0.7435816688237258 0.7061602657104332
0.7555925919441175 0.7468592116478661 0.7095026066568169
0.7587475691870764 0.7499270202968588 0.7126550769642137
0.7616881605919019 0.7527880402870689 0.7156173165319761
0.7645356147796589 0.7555757013295953 0.7185189658025434
0.7672885202188997 0.7582860527946097 0.7213545573631827
0.76999552538304 0.7609749963555539 0.7241805386302339
0.7726571770483142 0.763641289474903 0.7269948368623919
0.7752964759507027 0.7663171219241945 0.7298024594776488
0.7779135721122926 0.7690022133968802 0.7326033510867755
0.7805322286353289 0.7717291025757352 0.7354214088949412
0.7831504139649136 0.7744977909819432 0.7382554033497833
0.7858316570465427 0.7773577369529299 0.7411828072011329
0.788574236447949 0.7803105870240522 0.7442055906316445
0.7914125399448736 0.7833615135356761 0.7473550340351182
0.794346096172702 0.7865105001911878 0.7506367415423781
0.7973913195579728 0.7897672396220042 0.7540595257035669
0.8005495053173417 0.793131951077818 0.7576327945889744
0.8038260920479214 0.7966065080067039 0.7613406372577994
0.8072268929550142 0.8001936207434864 0.7651946886501363
0.810708550673454 0.8038497169761434 0.769118261420767
0.8142786192076433 0.8075768896823143 0.7731136673547351
0.8178540343210627 0.8112977920087844 0.7770850212859408
0.8214436300273592 0.8150146633271178 0.7810245246180973
0.8249209165056165 0.818610669648845 0.78481349613522
0.8282817410711633 0.8220757100000479 0.788421702219003
0.8314721904656055 0.8253542619747599 0.7918251742608068
0.8344797400432128 0.8284210615627624 0.7949835207385249
0.8374134251546693 0.8313945100794913 0.79803749328677
0.840290409233853 0.834274177617138 0.8009760383418287
0.8431905254790978 0.8371718357811724 0.8039208890962889
0.8461442324432297 0.840112614825453 0.8068849778866756
0.8491012619200232 0.8430612200065553 0.8098349348962403
0.8520692687189185 0.8460305937870531 0.812757684053628
0.8549546853189318 0.8489237407661353 0.8155834007550832
0.8577369365138785 0.8517284711271295 0.8182712327298863
0.8603961776471309 0.8544099543597754 0.8208354014656363
0.8629180081091816 0.8569530866332952 0.8232590099749417
0.8653304050131624 0.8593820551941441 0.825586915027489
0.8676244794287911 0.8616793985338328 0.8278325142074602
0.8698970189758791 0.8639459781304141 0.8300776552540513
0.872164155563329 0.8661796235038466 0.83237948449372
0.8745294936367903 0.8685023772087548 0.8348020565676051
0.8770376738237021 0.8709388640098072 0.837441755427638
0.8797002845016794 0.873528060045177 0.8402525474058056
0.8825457158180245 0.876294673961553 0.8433077485145467
0.8855169328258203 0.8791878223988767 0.8464951809550104
0.8886110159164677 0.8822074312366733 0.8498326020767871
0.8917588974841273 0.8852821033948455 0.8532295438285029
0.8949424046135729 0.8883982203399634 0.8566868072832577
0.898098974030194 0.8914867681296832 0.8601279428684698
0.9012115694595161 0.8945282078220251 0.8635740643031352
0.9042109172089675 0.8974569026015355 0.8669153141480281
0.9070487075610237 0.9002259587508123 0.8701336672040058
0.9097588190017629 0.9028714736753422 0.873228806880824
0.9122908420994659 0.9053628117110253 0.8761651322864741
0.9148352867461189 0.9078547247169564 0.8791083891825339
0.9175750795616151 0.9104591230262428 0.8822046576661119
0.9202566330757445 0.9130279896203679 0.8852369130393135
0.9226891329227485 0.915531104544582 0.8879679645999916
0.9250097279404097 0.9179395878172076 0.8905886860384075
0.9271444254812244 0.9203251325095924 0.8930286352972209
0.9290724465947807 0.9225144965313179 0.8952884918893468
0.9305365530645414 0.9243565376947651 0.8973774335048934
0.9319132218948037 0.9261266156634022 0.8994037799623114
0.9333032780403722 0.9281323655925265 0.9017951880184834
0.9345508880418628 0.9299938590241452 0.9040168858013395
0.9352090081519238 0.9312091091584891 0.9050602308046822
0.9362334813791285 0.9328185200013815 0.906474582011401
0.9383236810482678 0.9363479627508806 0.9091511593559991
0.9403327547713072 0.9397686392186823 0.9117948747967763
0.9421067130669575 0.9410832813841564 0.9170889176280449
0.942822358867119 0.9413450307468428 0.9213362306159963
0.23841903093829053 0.25422789430093806 0.2481449230222661
0.23935731166568575 0.25491335770656254 0.2508343837589317
0.24044369517005237 0.25739830849550127 0.2527785010163183
0.2420074657972156 0.26039818936382936 0.25519446756107894
0.24422929382753716 0.26287206195759566 0.2571569236908562
0.24650518625814055 0.2653623794078504 0.2591365925984643
0.24925115933724862 0.2678051196180381 0.2613526708654791
0.2520974824088288 0.27032267023319956 0.26365686030883784
0.25512218995660696 0.273055291571954 0.26608967219099894
0.2580928785128864 0.2757350336638818 0.26846327308021073
0.26076157521650584 0.27788333259603626 0.270380128413952
0.26328906706388605 0.2798690863854338 0.27214107791992015
0.26589468829580426 0.28203728966113745 0.27396201907388623
0.26858880785915074 0.2843052339516507 0.2758687480701345
0.2713705927296457 0.2867724676166874 0.2779332246007768
0.2742545416760771 0.2893561286805378 0.2801075062608808
0.2771817934891294 0.29198322067557736 0.28234743228428716
0.28016008783831853 0.2946612845543601 0.2846403944445675
0.28317344256446797 0.29737858636614006 0.2869693698371957
0.2862028927812687 0.30011228623641556 0.2893132715789585
0.2892106885860433 0.3028232970686607 0.2916320449838388
0.29217129204606074 0.305486159308509 0.2939016643837711
0.295013794323288 0.3080163693180021 0.29604698069916136
0.29774584106910695 0.31043209434532854 0.2980794483866969
0.3003365479119697 0.31270683476086214 0.2999891386937622
0.30282588791936893 0.31487953650026074 0.3018009652825184
0.3052545328117337 0.31702645329311446 0.30359638091781393
0.30766344992153727 0.31916235631643863 0.30538271712554993
0.3101240515454764 0.32139720946456146 0.3072696383245994
0.3126451638409366 0.32370598412265905 0.3092300659077741
0.31525160118386986 0.3261201480446708 0.3113076402400549
0.3179165859641906 0.32859899936217957 0.31345279138594184
0.3205450125847805 0.3310501397428625 0.31557807488340506
0.32313166479372607 0.3334621148788193 0.31766664234157127
0.32556438658895825 0.3357297744482263 0.3196236904833083
0.3278702059388164 0.3378735368495674 0.3214617778462041
0.3300421303902487 0.3398944019673812 0.3231884795785121
0.3320991676166593 0.3418043231011688 0.32480905649178676
0.3340850196465755 0.3436540338178837 0.326395379405862
0.3360078321027633 0.3454451416984623 0.3279342802457273
0.33788673450924894 0.34721462780758083 0.32948356060966816
0.33975031905586583 0.34897899032569757 0.3310422622207995
0.341698829343643 0.3508503040969487 0.3327085042974289
0.3437498248519399 0.35283519151783066 0.33448790778609827
0.34605370536939223 0.355078536241973 0.3364790281269947
0.3485944586397371 0.35756207669684487 0.33868430862938215
0.3514226089052067 0.360306427709489 0.3411026765363933
0.3545092841823716 0.36329444387415266 0.34373627682311825
0.3577636191479962 0.366417965943036 0.3464737597558945
0.36116914943485245 0.36967313401906776 0.34932274457544843
0.3645795742737838 0.37290738111656896 0.3521674763514173
0.3679971610469916 0.3761318169734476 0.35501293492590497
0.3713478732320359 0.3792835912933314 0.3578283332889324
0.37464135363418805 0.38237390289080503 0.360611853230424
0.3779198025251374 0.3854533524612129 0.36341818724125746
0.3811873369339318 0.38852482779477193 0.36624144147844245
0.38453546115975096 0.3916731213869845 0.36915047932664075
0.38796113619454836 0.39489587765193 0.3721408614729339
0.391514582560567 0.3982373337846546 0.37524507802842744
0.39519116190565906 0.40169417918459593 0.37846035752903
0.3989472077348726 0.405219815506657 0.3817443311251243
0.4027806410111109 0.40881316631249937 0.3850958347115956
0.4065617755013668 0.4123393905638056 0.3884004181350711
0.41029116153257456 0.41579965166113786 0.39165841198078916
0.41381728250083416 0.41904312184979775 0.39474201016943716
0.4171402113215134 0.4220697079505808 0.3976519383187028
0.42017356263398514 0.4248095556690308 0.40031036904547895
0.4229136926082137 0.427259465426105 0.40271687835262193
0.4253870898395852 0.42946116802041256 0.4048745058379854
0.42758690788814463 0.43141091557587635 0.4067789941154482
0.42964685017455745 0.43322856695110407 0.40852611496818464
0.4315653433405719 0.4349145174150744 0.41011010705027234
0.43345097039591357 0.4365731383629761 0.4116287564670994
0.4353076986151661 0.438210252946511 0.41307591662079685
0.4371639098216564 0.4398533834250322 0.414503023820018
0.4390215563697085 0.44150718499912284 0.41590437810176206
0.44087531324438944 0.4431649658314462 0.4173059166648985
0.44272675955948687 0.44483226245646373 0.418711390790441
0.44452887637890004 0.4464554294255468 0.42008777428781785
0.4462759454198087 0.4480319319065746 0.42144139544811293
0.4479413648759814 0.4495282577954877 0.4227305301939555
0.4495069408626245 0.45092737062668725 0.42394894580557646
0.45107252939099424 0.45233335467971153 0.425181135745152
0.45262865422959414 0.4537424855410959 0.4264292954887602
0.4543212629020675 0.4553043064241788 0.4278280589580589
0.45615640840178845 0.4570404571690752 0.4293985214064516
0.45819813460913 0.45900367053452734 0.4311941404202763
0.4604479430206841 0.4612181232874118 0.43323958835973037
0.46289981275018716 0.4636418311473201 0.4355039026443863
0.4655541725451962 0.4662843966504157 0.4380117615787404
0.46835484159279156 0.46906260066641997 0.4406708657890668
0.4713038795311389 0.47196323407632507 0.4434928334860993
0.47434449491806535 0.47493711338850936 0.44639371683833734
0.4774804834727429 0.47795828582566696 0.44935833726794167
0.4807088022906731 0.48105698575868555 0.4523915315089035
0.4840616814106217 0.48423850948017694 0.45548329150482286
0.48747635832463626 0.487473317347249 0.4586126820380138
0.49097325363521765 0.49076481057576754 0.46175126133244876
0.494455681622145 0.49404071397774535 0.4648627483350885
0.4979065321544041 0.4972823715478934 0.46790110945901703
0.5012908187580573 0.5004651113142152 0.4708744619664013
0.5045841061239649 0.5035863290687604 0.47376263319151407
0.5077830578955742 0.5066196119297727 0.4765631216111858
0.510875487794799 0.509573344813309 0.4792830044075059
0.5138275512595964 0.512380516677979 0.48186230016575754
0.5166353055799798 0.515015758513014 0.48429246736081616
0.5192620395412957 0.5174592401812999 0.486538686305201
0.5217024544383217 0.5196624826145346 0.4885771820112869
0.5240062885356629 0.5217237726816306 0.49047681155262507
0.526194895626733 0.5236399068246211 0.4922423077039851
0.528362702561583 0.5255425169801172 0.49398822245605717
0.5305350508320821 0.5274981997121753 0.49574700470985683
0.5327784707047313 0.529537200590669 0.49757869922809067
0.5350817416692358 0.5317298500346493 0.4994925053366252
0.537462538875653 0.5340091261124735 0.5014879312091205
0.5398517209344403 0.5363787190181609 0.5035395231198886
0.5423057396714662 0.5388171239321801 0.5056607874611802
0.5447782554894763 0.5413170832847323 0.5078637835577767
0.5473367191224997 0.5439034491320544 0.5101552136797236
0.5499720741273244 0.5465736822794172 0.5125732239458265
0.5527625366425029 0.5493979568999161 0.5151461271175513
0.5557579756515748 0.5524117618807953 0.5179553806966651
0.558985452347918 0.5556570592423352 0.5209951329652778
0.5625184908971343 0.559202187213735 0.5243754618114377
0.566260720238923 0.5629567379162247 0.5279638414577783
0.5701497980922806 0.5668793686814217 0.5317632690799652
0.5741562400087943 0.5709193872694089 0.535679102382608
0.5782138562953352 0.5750207295159361 0.5396946114339308
0.5823219641813441 0.5791726598996596 0.543760279168269
0.5864792424077169 0.5833483500427126 0.5478982025861308
0.5906348244183757 0.5875222579663988 0.5520350072322442
0.5947829754341625 0.5916515098370062 0.5561502787286209
0.5988677158024942 0.5957165535944707 0.5602028862110126
0.6028753835361845 0.5996537779526112 0.564128692317816
0.6067853917913235 0.6034912815603984 0.5679561034561409
0.6106179195485907 0.60721247499899 0.5716672072412888
0.6143690637789566 0.6108499321559332 0.5752956242666654
0.6180923460646677 0.6144457299480572 0.5788717837115546
0.6217381686125598 0.6179629161211659 0.5823695129845484
0.6252661268816578 0.6213747025558999 0.5857434382396233
0.6286687387148232 0.6246623369185414 0.5889927827667367
0.6319129905624464 0.6277884129080384 0.5920608435908257
0.6349975560961516 0.6307545140202392 0.5949682056192915
0.6378953817629619 0.6335317335078754 0.597700586928515
0.6406385592256443 0.6361541031427276 0.6002813799142309
0.6432470878702699 0.638650939785761 0.6027470532869431
0.6457693986901715 0.6410629724985457 0.6051302640645585
0.648286529911865 0.6434801615540376 0.6074831044379971
0.6508215209237079 0.6459168939788931 0.6098490463608187
0.6534667790670384 0.6484813580890434 0.6123078510573536
0.6561829415942583 0.6511200191103973 0.6148334061312697
0.6589257798807204 0.6538012994478583 0.6173995275931791
0.661670392615989 0.6564878375652898 0.619970455126486
0.6643224429389214 0.6590900240836182 0.6224970404450588
0.6668655325050133 0.6615853986292891 0.6249275223908062
0.6691817805791892 0.6638396733338334 0.6271646859745653
0.6713039293711085 0.6658962154697036 0.6292184277489469
0.67324691499892 0.6677602208886427 0.6310993750214444
0.675048019264298 0.6694785152245136 0.6328414013870088
