obsidian/Clippings/写真家活動/技法探求/デジタルネガ探究/QTR/プロファイル作成/QTR-DN/QTR-DN/古い/選択項目から作成したフォルダ 2/選択項目から作成したフォルダ/MC7/PtPd-K41-415s-v3-MC7-measuredLUTsoftproof.cube
#Color Lookup Table 
TITLE "QuadToneProfiler Color Lookup Table for 256-step Soft Proof
LUT_1D_SIZE 256
DOMAIN_MIN 0.0 0.0 0.0
DOMAIN_MAX 1.0 1.0 1.0
0.23841903093829053 0.25422789430093806 0.2481449230222661
0.23935731166568575 0.25491335770656254 0.2508343837589317
0.24044369517005237 0.25739830849550127 0.2527785010163183
0.2420074657972156 0.26039818936382936 0.25519446756107894
0.24422929382753716 0.26287206195759566 0.2571569236908562
0.24650518625814055 0.2653623794078504 0.2591365925984643
0.24925115933724862 0.2678051196180381 0.2613526708654791
0.2520974824088288 0.27032267023319956 0.26365686030883784
0.25512218995660696 0.273055291571954 0.26608967219099894
0.2580928785128864 0.2757350336638818 0.26846327308021073
0.26077067831113965 0.277892528139555 0.27038928027907194
0.26329249877374516 0.27987255169974967 0.27214452644781395
0.2658343427516096 0.2819763715465517 0.27390140622381404
0.2684371114143794 0.28415214341014156 0.2757164510182193
0.2711611172326802 0.28650970711955565 0.27770473750675617
0.2740018177086163 0.2889919169960113 0.27981523973743405
0.2769147093159642 0.29157701147003995 0.28202617764001886
0.27991263407646494 0.2942516949372347 0.28432506692686266
0.2829524713467449 0.29701248731150476 0.28666781595338725
0.28603071677231 0.2998188318565876 0.2890479271246439
0.28908052565924836 0.3026068214051494 0.2914127266875212
0.2920997405174907 0.30536552650869714 0.29374803761137214
0.2950482386095303 0.30803649755143914 0.296020406640245
0.2979162133453693 0.31062252360954556 0.29821271619570716
0.3006642878246452 0.31308114701635775 0.30028035553323096
0.30331125993904956 0.31543612499544954 0.3022448420925579
0.3058573059592006 0.3177141455183546 0.30414929871874136
0.30833763642645645 0.3199321248861744 0.30599781022099587
0.3108208298666409 0.3221613476902562 0.3079079599256527
0.31329919749638574 0.3243877850507995 0.3098292258724855
0.31577166797933826 0.32662184583080917 0.3117671610615029
0.31823663337698715 0.32885228521469434 0.31370393907515937
0.3206596041412055 0.33105772341739725 0.3156182099226345
0.32305103447354117 0.33323703180263264 0.3175069821606479
0.32539088151467266 0.33538562328783494 0.31935136945269776
0.3276852057482574 0.3374960293991339 0.32115243164272217
0.3298958660978474 0.33955190700506555 0.32288863000439627
0.332037820648708 0.341550345500391 0.32456326035299504
0.3340710791901016 0.34347667111043306 0.32619370420397725
0.33602790444038705 0.3453419926896152 0.3277751007643197
0.3379402987664946 0.3471935446831118 0.3293819840529743
0.33983250426210965 0.34903896971164156 0.3310006429464605
0.3417724351658593 0.35095874059100196 0.33270179530473193
0.3437777817651361 0.35295726195868676 0.33448518459138155
0.3459708607524989 0.3551311046333575 0.3364478235256018
0.34834007790774596 0.35747477142745326 0.33858150067754433
0.3509655779114316 0.36003324377312157 0.34088407436958185
0.3538160867005266 0.3627933426159215 0.343361141155502
0.35684930443566865 0.3656755835089879 0.3459007223146135
0.36004646080284786 0.36868493050850243 0.3485302218379132
0.363342132162752 0.37176361429646076 0.3512071266653403
0.3667330655873288 0.37491849734002597 0.3539452955786345
0.3701959155932718 0.37814050012926886 0.3567865186183305
0.3737305604848646 0.38143079971038185 0.35972059209152185
0.377308541979673 0.38477849514657836 0.36274456334124133
0.3809345871599493 0.38818453233260614 0.3658506987045509
0.38460469416811466 0.3916507834322805 0.3690295206614147
0.3883218607272287 0.39517676412393665 0.3722777158457736
0.3920956902692461 0.39875961184868436 0.37557926290398047
0.39592482302555787 0.40239784753239954 0.3789330668003066
0.3997771008409321 0.4060494288975884 0.382306608892837
0.40365108897758334 0.4097138432974807 0.38569868017323794
0.40746284809555344 0.4133026252010956 0.38905745434424266
0.41121218656174 0.41681612283849206 0.39238154161913347
0.4147287436157268 0.42007227121317414 0.39552545598362365
0.418013115898333 0.42307128797843796 0.3984909060667271
0.42092699862561184 0.4256892726030607 0.4011300951759768
0.42346416208495724 0.42791935428007283 0.4034404788591929
0.4257562613820733 0.4299098427031454 0.4055014593172898
0.42779745107127976 0.43165597223285584 0.40730631636632014
0.42980852975474876 0.43338129762213373 0.4090157634878653
0.43179637553113087 0.4350949844682459 0.4106215779906814
0.4338115736168256 0.4368364015070797 0.41218708167962875
0.43586331296877157 0.4386150056429838 0.41370053365503406
0.4378645845581633 0.4403616716686835 0.41515698685814584
0.4398092831446504 0.4420778098698991 0.4165478328128285
0.4416412252880529 0.4437076202460706 0.41786594101389324
0.44334259255064806 0.44524637903955305 0.41911309151253323
0.4449474704359786 0.4467088842692632 0.42029624494071705
0.4464434686267988 0.4480948239907128 0.421422091902773
0.44788546418681346 0.44943496415136924 0.4225121489240152
0.4492674969922534 0.45072916370726895 0.4235731667415466
0.45065204647032503 0.45201444191969703 0.4246451415825968
0.45203254408073207 0.4532748349515862 0.4257287637213952
0.45355261230508154 0.4546706689411952 0.42696563207033145
0.4552229080179468 0.45620869675175973 0.4283809730925597
0.45715774814957627 0.4580249337524515 0.4300808409132319
0.45937917761650443 0.4601565939478544 0.4321124075557339
0.4618534570594423 0.4625528399105831 0.43441186133249216
0.46457987109164217 0.4652279621676127 0.437001176001331
0.4674765867689921 0.468074061595985 0.4397691875159868
0.4705283105229537 0.471077018682538 0.4427156740839323
0.47368961043152463 0.47418418160451264 0.44576627364337945
0.47695543804122137 0.4773819493830574 0.4489090551559067
0.4803054997003056 0.4806473405938643 0.45210665955967305
0.4837562355271146 0.4839663320819489 0.45532259220275756
0.48728228161556814 0.48734615421693955 0.4585846140703808
0.49092164368340735 0.49079507637681846 0.46187121927790215
0.4945662399890152 0.49425131356414104 0.46515018773670197
0.4982064308971376 0.49771130416611314 0.4683827847414687
0.5017702539597994 0.5010999606048808 0.4715348937318922
0.5052236977434634 0.5043979350735852 0.4745612811621271
0.5085649071290775 0.5075804886942512 0.47747475361186836
0.5118093219327855 0.5106539421791043 0.48028671410073803
0.5148634817294928 0.5135287241035632 0.482912430786592
0.5177247101755511 0.5161729903895583 0.4853579953922878
0.5203153872381878 0.5185312964211858 0.4875315062329602
0.5226047867209486 0.5205107846609246 0.489385839246473
0.5247062588191745 0.5222997608442579 0.49105178592641835
0.5266507834947414 0.5239175993061662 0.4925491470012244
0.5285931561062434 0.5255457973339194 0.49404745771154907
0.5305814236570807 0.5273023380198067 0.4956127477274062
0.5326602029421003 0.5291667626155685 0.49727643484273537
0.534772047283528 0.5311965474738869 0.49904252344041505
0.5369847075189091 0.5333380462302313 0.5009149761681944
0.5392290852505036 0.5356090232657471 0.5028814301155964
0.5415631106414225 0.5379737024166868 0.5049400180907123
0.54393673520046 0.5404217512117425 0.5070788513948723
0.5464190441033733 0.5429771660074821 0.5093241406615344
0.5490201007048635 0.5456345346112144 0.5116785351114393
0.5517957810130786 0.5484645649296436 0.514205341987171
0.5548130146357972 0.5515051409229089 0.5169755163966638
0.5580642812831215 0.5547787119254047 0.5199783590364487
0.5615891433150587 0.5583079602456464 0.5232984042727821
0.5653625526963203 0.5620857495208719 0.5268654678496766
0.5693938705273285 0.5661363108100653 0.5307643367244086
0.5736140850793827 0.570375899401632 0.5348506480143767
0.5779480548074755 0.5747720758930053 0.5391649152086199
0.5823361042650779 0.5792225002475218 0.5435330095684212
0.5866805355456358 0.5836240946584246 0.5479331471132559
0.590942999769371 0.5879440551109308 0.5522535811746822
0.5950954185973362 0.5920554141840816 0.5564490726462169
0.5991323244064466 0.5960490135853279 0.5605305919448011
0.6031194423624089 0.599933906340258 0.564509477500895
0.6070549191928514 0.6037646380867441 0.5684354801366122
0.6110242101810601 0.6076302795331566 0.5723304916024525
0.6149599380803124 0.6114622934908033 0.5761887342119524
0.6188253321524969 0.6152303299134904 0.5799118229768464
0.6225800776296951 0.6188882037591766 0.5835205605829954
0.6261712366936651 0.6223650563386325 0.5868964735653655
0.6295724452715641 0.6256504055011805 0.5900777873114073
0.6327314729183681 0.6286761610713114 0.5929826277698473
0.6356785311167809 0.6314880923166883 0.59567358712433
0.6384587465308387 0.6341120227740474 0.598184072954421
0.6410839528802582 0.6365781624136176 0.6005391122154989
0.6435894221292673 0.6389324340673098 0.6028239999341778
0.6460175722050522 0.6412105583167697 0.6050398120266864
0.6484254422305369 0.6434984216122752 0.6073118477434838
0.6508520725409261 0.6458101744060196 0.609615798751402
0.6533642900263127 0.6482451025334428 0.6120130804518127
0.6559588258605922 0.6507696062943072 0.6144933866398167
0.6586174735619318 0.653404368985093 0.6170580675217714
0.6613289185046305 0.6561020693056275 0.6196795738588837
0.6640195947631393 0.6587774524309847 0.6222936195602234
0.6666856000945497 0.6614278212444145 0.6248865199394683
0.6693186981436099 0.664015488049914 0.6274559241770469
0.6718494325123954 0.6664928809417565 0.6299266572774309
0.6740832371588367 0.6686687718869572 0.6320991288033436
0.6760715279011841 0.6705980714465887 0.6340275831067607
0.6778300148642888 0.6722928435690867 0.6356855715050257
0.6794147299571015 0.6738124863239376 0.6371578067900748
0.6810347796232022 0.6753436901980288 0.638574598302394
0.6826924703598077 0.6769040892921088 0.6399967410266394
0.6845986337787084 0.6786942083221196 0.6416292832878002
0.6867064698695073 0.6806785635676966 0.6434475611848547
0.6890148762308046 0.6828587406131453 0.6454700139231447
0.6915129318943982 0.6852262934354194 0.6476821461391908
0.6941638570445575 0.6877435424633567 0.6500763370546089
0.6969686926842763 0.6904130012936528 0.6526362154217337
0.6998919175074426 0.6932086245717188 0.6553803353837941
0.702944989752044 0.6961375456393964 0.6582848009251249
0.7061438180807551 0.6992022822002286 0.6613685996370827
0.7094929253249267 0.7024119236304989 0.664618987292541
0.7130423584840131 0.7058099564908186 0.6680247889298966
0.7167865267087721 0.70939583800036 0.6715995749527437
0.7207562419914663 0.7132179134953825 0.6754033266493906
0.7249312171276336 0.7172512333610318 0.6794134611856719
0.7291778957237527 0.7213491990977661 0.6835234668539384
0.7334939201385343 0.7255119093744413 0.687720293717325
0.7377581472809505 0.729611899042955 0.6918952639804965
0.7419636018829172 0.7336457451763987 0.696031947794178
0.7459109479747054 0.7374358556251678 0.6999169709336641
0.7496162809931293 0.7409943748757843 0.7035653115472884
0.7530610564091539 0.7443132705450106 0.7069586367738862
0.7562522991531508 0.7473947844829267 0.7101033245304313
0.7592338325325235 0.750278998869488 0.7130481333015781
0.7620099151400125 0.7529679698170515 0.7157959147919536
0.764679910275836 0.755571710670525 0.7185007008408575
0.7672453607933148 0.7580890837526196 0.7211559649275774
0.7698114132974834 0.7606413310951646 0.7238532023299169
0.7723783612109694 0.7632262245837816 0.7265896775630735
0.7750111564431467 0.7659140554250641 0.7294067703348517
0.7777093472063658 0.7687038773690295 0.7323038569106465
0.7804912743242021 0.7716080180551209 0.735291039607598
0.7833580756171856 0.7746291749532852 0.7383698261309669
0.786168585683359 0.777617047249266 0.7414153470925364
0.7889177263457878 0.7805692534431912 0.7444251789439406
0.7915989372068477 0.7834701176496165 0.7473984412738138
0.7941999125488869 0.7863104431906082 0.7503287151106087
0.7969315955322117 0.7892818740425614 0.7534346138155923
0.7997982768705685 0.7923888175579573 0.7567327868329128
0.8029019267388684 0.7957154785257745 0.7603026223612035
0.806259327774953 0.7992725577762754 0.7641737020190553
0.8097880173994474 0.8029839568371334 0.7682082594177736
0.8134967410674616 0.806850762520863 0.7724117554358584
0.8172734344963646 0.8107876604002692 0.7766386369596128
0.8211247962679887 0.8148022427950827 0.7808709758749175
0.824898755455244 0.8187285607425059 0.7849876173440511
0.828597676266718 0.8225614858540771 0.7889648394285905
0.8320778856708596 0.8261466006253684 0.7926917078168639
0.835323662777092 0.8294453945469099 0.7961262723861124
0.8384032948118202 0.8325516269797075 0.7993634677879096
0.8413247468256685 0.8354493783508212 0.8023816469530317
0.8442267213464401 0.8383118092494682 0.8053400613017135
0.8471568297556091 0.8411701466636332 0.8082441171359935
0.8500597567220699 0.8440031904043098 0.8110851970173083
0.8529511807668944 0.8468288436386402 0.8138363131876795
0.8557117645166908 0.8495423585449752 0.8164381677191214
0.8583093551091674 0.8521365866433794 0.818832666694148
0.8607121859215459 0.8545562080863588 0.8210381155827968
0.862860250138765 0.8567716437548649 0.8230013705248963
0.8649211924326852 0.8588986494852032 0.824902899222562
0.8668935670405165 0.8609331222404285 0.8267842349132412
0.8689563852083886 0.8630419419308756 0.8287855811403033
0.8711677904960873 0.8652515960039125 0.8310245185366972
0.8735660026563051 0.86763641894656 0.8334839941170444
0.87619654573671 0.8702164865005968 0.8362881426820991
0.8790190481146096 0.8729835179091368 0.8393073876741651
0.8820473408489012 0.875939445159608 0.8426177573233429
0.8852255451988161 0.8790461737226337 0.8460851863435092
0.888564362096959 0.8823176630471112 0.8497432019084983
0.8919356278127553 0.885616137295322 0.8534348102858363
0.8953298391819695 0.888914219959538 0.8571531448809862
0.8985998287401329 0.8920797771974903 0.8607477187967878
0.9016870974643676 0.8950223784313205 0.864155900512699
0.9046274419272348 0.8978170278289193 0.8674208133798049
0.9074126025927981 0.9004502818686734 0.8705424952187718
0.9101320522088076 0.9030256752025524 0.8736024701874325
0.9128191277381615 0.9056159780330019 0.8766487583222732
0.9154454880358174 0.9081609892788752 0.8796398449223458
0.9179251630249586 0.910665919234632 0.8825171947339793
0.9203514262236423 0.9131226229852991 0.8853310051338762
0.9227190372277692 0.9155609591162441 0.8879976502383727
0.9250075054404352 0.9179373689562429 0.8905864796062137
0.9271384392491602 0.9203191557277545 0.8930226918477683
0.9290724465947807 0.9225144965313179 0.8952884918893468
0.9305365530645414 0.9243565376947651 0.8973774335048934
0.9319132218948037 0.9261266156634022 0.8994037799623114
0.9333032780403722 0.9281323655925265 0.9017951880184834
0.9345508880418628 0.9299938590241452 0.9040168858013395
0.9352090081519238 0.9312091091584891 0.9050602308046822
0.9362334813791285 0.9328185200013815 0.906474582011401
0.9383236810482678 0.9363479627508806 0.9091511593559991
0.9403327547713072 0.9397686392186823 0.9117948747967763
0.9421067130669575 0.9410832813841564 0.9170889176280449
0.942822358867119 0.9413450307468428 0.9213362306159963
0.23841903093829053 0.25422789430093806 0.2481449230222661
0.23935731166568575 0.25491335770656254 0.2508343837589317
0.24044369517005237 0.25739830849550127 0.2527785010163183
0.2420074657972156 0.26039818936382936 0.25519446756107894
0.24422929382753716 0.26287206195759566 0.2571569236908562
0.24650518625814055 0.2653623794078504 0.2591365925984643
0.24925115933724862 0.2678051196180381 0.2613526708654791
0.2520974824088288 0.27032267023319956 0.26365686030883784
0.25512218995660696 0.273055291571954 0.26608967219099894
0.2580928785128864 0.2757350336638818 0.26846327308021073
0.26077067831113965 0.277892528139555 0.27038928027907194
0.26329249877374516 0.27987255169974967 0.27214452644781395
0.2658343427516096 0.2819763715465517 0.27390140622381404
0.2684371114143794 0.28415214341014156 0.2757164510182193
0.2711611172326802 0.28650970711955565 0.27770473750675617
0.2740018177086163 0.2889919169960113 0.27981523973743405
0.2769147093159642 0.29157701147003995 0.28202617764001886
0.27991263407646494 0.2942516949372347 0.28432506692686266
0.2829524713467449 0.29701248731150476 0.28666781595338725
0.28603071677231 0.2998188318565876 0.2890479271246439
0.28908052565924836 0.3026068214051494 0.2914127266875212
0.2920997405174907 0.30536552650869714 0.29374803761137214
0.2950482386095303 0.30803649755143914 0.296020406640245
0.2979162133453693 0.31062252360954556 0.29821271619570716
0.3006642878246452 0.31308114701635775 0.30028035553323096
0.30331125993904956 0.31543612499544954 0.3022448420925579
0.3058573059592006 0.3177141455183546 0.30414929871874136
0.30833763642645645 0.3199321248861744 0.30599781022099587
0.3108208298666409 0.3221613476902562 0.3079079599256527
0.31329919749638574 0.3243877850507995 0.3098292258724855
0.31577166797933826 0.32662184583080917 0.3117671610615029
0.31823663337698715 0.32885228521469434 0.31370393907515937
0.3206596041412055 0.33105772341739725 0.3156182099226345
0.32305103447354117 0.33323703180263264 0.3175069821606479
0.32539088151467266 0.33538562328783494 0.31935136945269776
0.3276852057482574 0.3374960293991339 0.32115243164272217
0.3298958660978474 0.33955190700506555 0.32288863000439627
0.332037820648708 0.341550345500391 0.32456326035299504
0.3340710791901016 0.34347667111043306 0.32619370420397725
0.33602790444038705 0.3453419926896152 0.3277751007643197
0.3379402987664946 0.3471935446831118 0.3293819840529743
0.33983250426210965 0.34903896971164156 0.3310006429464605
0.3417724351658593 0.35095874059100196 0.33270179530473193
0.3437777817651361 0.35295726195868676 0.33448518459138155
0.3459708607524989 0.3551311046333575 0.3364478235256018
0.34834007790774596 0.35747477142745326 0.33858150067754433
0.3509655779114316 0.36003324377312157 0.34088407436958185
0.3538160867005266 0.3627933426159215 0.343361141155502
0.35684930443566865 0.3656755835089879 0.3459007223146135
0.36004646080284786 0.36868493050850243 0.3485302218379132
0.363342132162752 0.37176361429646076 0.3512071266653403
0.3667330655873288 0.37491849734002597 0.3539452955786345
0.3701959155932718 0.37814050012926886 0.3567865186183305
0.3737305604848646 0.38143079971038185 0.35972059209152185
0.377308541979673 0.38477849514657836 0.36274456334124133
0.3809345871599493 0.38818453233260614 0.3658506987045509
0.38460469416811466 0.3916507834322805 0.3690295206614147
0.3883218607272287 0.39517676412393665 0.3722777158457736
0.3920956902692461 0.39875961184868436 0.37557926290398047
0.39592482302555787 0.40239784753239954 0.3789330668003066
0.3997771008409321 0.4060494288975884 0.382306608892837
0.40365108897758334 0.4097138432974807 0.38569868017323794
0.40746284809555344 0.4133026252010956 0.38905745434424266
0.41121218656174 0.41681612283849206 0.39238154161913347
0.4147287436157268 0.42007227121317414 0.39552545598362365
0.418013115898333 0.42307128797843796 0.3984909060667271
0.42092699862561184 0.4256892726030607 0.4011300951759768
0.42346416208495724 0.42791935428007283 0.4034404788591929
0.4257562613820733 0.4299098427031454 0.4055014593172898
0.42779745107127976 0.43165597223285584 0.40730631636632014
0.42980852975474876 0.43338129762213373 0.4090157634878653
0.43179637553113087 0.4350949844682459 0.4106215779906814
0.4338115736168256 0.4368364015070797 0.41218708167962875
0.43586331296877157 0.4386150056429838 0.41370053365503406
0.4378645845581633 0.4403616716686835 0.41515698685814584
0.4398092831446504 0.4420778098698991 0.4165478328128285
0.4416412252880529 0.4437076202460706 0.41786594101389324
0.44334259255064806 0.44524637903955305 0.41911309151253323
0.4449474704359786 0.4467088842692632 0.42029624494071705
0.4464434686267988 0.4480948239907128 0.421422091902773
0.44788546418681346 0.44943496415136924 0.4225121489240152
0.4492674969922534 0.45072916370726895 0.4235731667415466
0.45065204647032503 0.45201444191969703 0.4246451415825968
0.45203254408073207 0.4532748349515862 0.4257287637213952
0.45355261230508154 0.4546706689411952 0.42696563207033145
0.4552229080179468 0.45620869675175973 0.4283809730925597
0.45715774814957627 0.4580249337524515 0.4300808409132319
0.45937917761650443 0.4601565939478544 0.4321124075557339
0.4618534570594423 0.4625528399105831 0.43441186133249216
0.46457987109164217 0.4652279621676127 0.437001176001331
0.4674765867689921 0.468074061595985 0.4397691875159868
0.4705283105229537 0.471077018682538 0.4427156740839323
0.47368961043152463 0.47418418160451264 0.44576627364337945
0.47695543804122137 0.4773819493830574 0.4489090551559067
0.4803054997003056 0.4806473405938643 0.45210665955967305
0.4837562355271146 0.4839663320819489 0.45532259220275756
0.48728228161556814 0.48734615421693955 0.4585846140703808
0.49092164368340735 0.49079507637681846 0.46187121927790215
0.4945662399890152 0.49425131356414104 0.46515018773670197
0.4982064308971376 0.49771130416611314 0.4683827847414687
0.5017702539597994 0.5010999606048808 0.4715348937318922
0.5052236977434634 0.5043979350735852 0.4745612811621271
0.5085649071290775 0.5075804886942512 0.47747475361186836
0.5118093219327855 0.5106539421791043 0.48028671410073803
0.5148634817294928 0.5135287241035632 0.482912430786592
0.5177247101755511 0.5161729903895583 0.4853579953922878
0.5203153872381878 0.5185312964211858 0.4875315062329602
0.5226047867209486 0.5205107846609246 0.489385839246473
0.5247062588191745 0.5222997608442579 0.49105178592641835
0.5266507834947414 0.5239175993061662 0.4925491470012244
0.5285931561062434 0.5255457973339194 0.49404745771154907
0.5305814236570807 0.5273023380198067 0.4956127477274062
0.5326602029421003 0.5291667626155685 0.49727643484273537
0.534772047283528 0.5311965474738869 0.49904252344041505
0.5369847075189091 0.5333380462302313 0.5009149761681944
0.5392290852505036 0.5356090232657471 0.5028814301155964
0.5415631106414225 0.5379737024166868 0.5049400180907123
0.54393673520046 0.5404217512117425 0.5070788513948723
0.5464190441033733 0.5429771660074821 0.5093241406615344
0.5490201007048635 0.5456345346112144 0.5116785351114393
0.5517957810130786 0.5484645649296436 0.514205341987171
0.5548130146357972 0.5515051409229089 0.5169755163966638
0.5580642812831215 0.5547787119254047 0.5199783590364487
0.5615891433150587 0.5583079602456464 0.5232984042727821
0.5653625526963203 0.5620857495208719 0.5268654678496766
0.5693938705273285 0.5661363108100653 0.5307643367244086
0.5736140850793827 0.570375899401632 0.5348506480143767
0.5779480548074755 0.5747720758930053 0.5391649152086199
0.5823361042650779 0.5792225002475218 0.5435330095684212
0.5866805355456358 0.5836240946584246 0.5479331471132559
0.590942999769371 0.5879440551109308 0.5522535811746822
0.5950954185973362 0.5920554141840816 0.5564490726462169
0.5991323244064466 0.5960490135853279 0.5605305919448011
0.6031194423624089 0.599933906340258 0.564509477500895
0.6070549191928514 0.6037646380867441 0.5684354801366122
0.6110242101810601 0.6076302795331566 0.5723304916024525
0.6149599380803124 0.6114622934908033 0.5761887342119524
0.6188253321524969 0.6152303299134904 0.5799118229768464
0.6225800776296951 0.6188882037591766 0.5835205605829954
0.6261712366936651 0.6223650563386325 0.5868964735653655
0.6295724452715641 0.6256504055011805 0.5900777873114073
0.6327314729183681 0.6286761610713114 0.5929826277698473
0.6356785311167809 0.6314880923166883 0.59567358712433
0.6384587465308387 0.6341120227740474 0.598184072954421
0.6410839528802582 0.6365781624136176 0.6005391122154989
0.6435894221292673 0.6389324340673098 0.6028239999341778
0.6460175722050522 0.6412105583167697 0.6050398120266864
0.6484254422305369 0.6434984216122752 0.6073118477434838
0.6508520725409261 0.6458101744060196 0.609615798751402
0.6533642900263127 0.6482451025334428 0.6120130804518127
0.6559588258605922 0.6507696062943072 0.6144933866398167
0.6586174735619318 0.653404368985093 0.6170580675217714
0.6613289185046305 0.6561020693056275 0.6196795738588837
0.6640195947631393 0.6587774524309847 0.6222936195602234
0.6666856000945497 0.6614278212444145 0.6248865199394683
0.6693186981436099 0.664015488049914 0.6274559241770469
0.6718494325123954 0.6664928809417565 0.6299266572774309
0.6740832371588367 0.6686687718869572 0.6320991288033436
