obsidian/Clippings/写真家活動/技法探求/デジタルネガ探究/QTR/プロファイル作成/QTR-DN/QTR-DN/古い/選択項目から作成したフォルダ 2/選択項目から作成したフォルダ/MC7/PtPd-K41-415s-v3-MC7-LUTcorrection.cube
#Color Lookup Table 
TITLE "QuadToneProfiler Color Lookup Table for 256-step Linearity Correction
LUT_1D_SIZE 256
DOMAIN_MIN 0.0 0.0 0.0
DOMAIN_MAX 1.0 1.0 1.0
0.0 0.0 0.0
0.01163862461337195 0.01163862461337195 0.01163862461337195
0.02134744952728664 0.02134744952728664 0.02134744952728664
0.03358568928632764 0.03358568928632764 0.03358568928632764
0.04403342588531571 0.04403342588531571 0.04403342588531571
0.05260081535193376 0.05260081535193376 0.05260081535193376
0.060781907145402 0.060781907145402 0.060781907145402
0.06858842417408707 0.06858842417408707 0.06858842417408707
0.0761781678455169 0.0761781678455169 0.0761781678455169
0.08327711651031505 0.08327711651031505 0.08327711651031505
0.08968849719514965 0.08968849719514965 0.08968849719514965
0.09565979788778275 0.09565979788778275 0.09565979788778275
0.1016264152662884 0.1016264152662884 0.1016264152662884
0.10798396882456388 0.10798396882456388 0.10798396882456388
0.11496605897437483 0.11496605897437483 0.11496605897437483
0.12300506158273103 0.12300506158273103 0.12300506158273103
0.13226566338047702 0.13226566338047702 0.13226566338047702
0.14133911800312496 0.14133911800312496 0.14133911800312496
0.14904649970749143 0.14904649970749143 0.14904649970749143
0.15595521402824608 0.15595521402824608 0.15595521402824608
0.16261875806346293 0.16261875806346293 0.16261875806346293
0.16918731968164105 0.16918731968164105 0.16918731968164105
0.1754516947370253 0.1754516947370253 0.1754516947370253
0.18112166083073133 0.18112166083073133 0.18112166083073133
0.186198056218435 0.186198056218435 0.186198056218435
0.19097617900269484 0.19097617900269484 0.19097617900269484
0.19559966675209203 0.19559966675209203 0.19559966675209203
0.20024836642989918 0.20024836642989918 0.20024836642989918
0.20499722606851953 0.20499722606851953 0.20499722606851953
0.2099669660108905 0.2099669660108905 0.2099669660108905
0.21526980263213727 0.21526980263213727 0.21526980263213727
0.22110397373393417 0.22110397373393417 0.22110397373393417
0.2273090638996527 0.2273090638996527 0.2273090638996527
0.2334119299680963 0.2334119299680963 0.2334119299680963
0.239337527915217 0.239337527915217 0.239337527915217
0.2451979363337362 0.2451979363337362 0.2451979363337362
0.25133052975610626 0.25133052975610626 0.25133052975610626
0.25779392933080886 0.25779392933080886 0.25779392933080886
0.2644162292551249 0.2644162292551249 0.2644162292551249
0.2709006623922944 0.2709006623922944 0.2709006623922944
0.27689734629537294 0.27689734629537294 0.27689734629537294
0.28234270554820906 0.28234270554820906 0.28234270554820906
0.28720362452357256 0.28720362452357256 0.28720362452357256
0.2916701375837812 0.2916701375837812 0.2916701375837812
0.2958164605695608 0.2958164605695608 0.2958164605695608
0.2997622135939812 0.2997622135939812 0.2997622135939812
0.3036259038497079 0.3036259038497079 0.3036259038497079
0.30746025160711715 0.30746025160711715 0.30746025160711715
0.31133212489632733 0.31133212489632733 0.31133212489632733
0.315300121616703 0.315300121616703 0.315300121616703
0.31948411555535194 0.31948411555535194 0.31948411555535194
0.3239147816514881 0.3239147816514881 0.3239147816514881
0.32860384422848754 0.32860384422848754 0.32860384422848754
0.3335537309932082 0.3335537309932082 0.3335537309932082
0.33880758313652715 0.33880758313652715 0.33880758313652715
0.34434936566797963 0.34434936566797963 0.34434936566797963
0.3503439848285275 0.3503439848285275 0.3503439848285275
0.3569749731650459 0.3569749731650459 0.3569749731650459
0.36486608467113224 0.36486608467113224 0.36486608467113224
0.3744451999599008 0.3744451999599008 0.3744451999599008
0.3829684212408775 0.3829684212408775 0.3829684212408775
0.3896502129835148 0.3896502129835148 0.3896502129835148
0.39539085578137945 0.39539085578137945 0.39539085578137945
0.4008882122987524 0.4008882122987524 0.4008882122987524
0.40628063215888344 0.40628063215888344 0.40628063215888344
0.41170676641543497 0.41170676641543497 0.41170676641543497
0.4174060249259837 0.4174060249259837 0.4174060249259837
0.4233932278667737 0.4233932278667737 0.4233932278667737
0.42951765461768504 0.42951765461768504 0.42951765461768504
0.4354766921935838 0.4354766921935838 0.4354766921935838
0.44097953699204906 0.44097953699204906 0.44097953699204906
0.44603316193430875 0.44603316193430875 0.44603316193430875
0.45065087496440454 0.45065087496440454 0.45065087496440454
0.4548466160992831 0.4548466160992831 0.4548466160992831
0.45877009969130067 0.45877009969130067 0.45877009969130067
0.4624808225968281 0.4624808225968281 0.4624808225968281
0.4660687308759001 0.4660687308759001 0.4660687308759001
0.4695759534031437 0.4695759534031437 0.4695759534031437
0.47303181490315505 0.47303181490315505 0.47303181490315505
0.4764755781279852 0.4764755781279852 0.4764755781279852
0.479891741346411 0.479891741346411 0.479891741346411
0.4832407960166691 0.4832407960166691 0.4832407960166691
0.4865063464991994 0.4865063464991994 0.4865063464991994
0.48966744245078914 0.48966744245078914 0.48966744245078914
0.4927000490203695 0.4927000490203695 0.4927000490203695
0.4956640731994634 0.4956640731994634 0.4956640731994634
0.4985798676046232 0.4985798676046232 0.4985798676046232
0.5014553407072488 0.5014553407072488 0.5014553407072488
0.5043427732027242 0.5043427732027242 0.5043427732027242
0.5072674808106371 0.5072674808106371 0.5072674808106371
0.5102495589353255 0.5102495589353255 0.5102495589353255
0.5133312517493045 0.5133312517493045 0.5133312517493045
0.5165872152179234 0.5165872152179234 0.5165872152179234
0.5200074163495739 0.5200074163495739 0.5200074163495739
0.5236354414499496 0.5236354414499496 0.5236354414499496
0.5275109165403132 0.5275109165403132 0.5275109165403132
0.5316678037263789 0.5316678037263789 0.5316678037263789
0.5361178408788287 0.5361178408788287 0.5361178408788287
0.5407906057051979 0.5407906057051979 0.5407906057051979
0.5456893706730941 0.5456893706730941 0.5456893706730941
0.550776392674275 0.550776392674275 0.550776392674275
0.5561140811011773 0.5561140811011773 0.5561140811011773
0.5618386384745137 0.5618386384745137 0.5618386384745137
0.5680707105524461 0.5680707105524461 0.5680707105524461
0.5747955921968291 0.5747955921968291 0.5747955921968291
0.5810045267835554 0.5810045267835554 0.5810045267835554
0.5861859931954158 0.5861859931954158 0.5861859931954158
0.590565090273 0.590565090273 0.590565090273
0.5945049623839824 0.5945049623839824 0.5945049623839824
0.598154283598758 0.598154283598758 0.598154283598758
0.6016202471156132 0.6016202471156132 0.6016202471156132
0.6049603805779009 0.6049603805779009 0.6049603805779009
0.608184105430363 0.608184105430363 0.608184105430363
0.6112989305605799 0.6112989305605799 0.6112989305605799
0.6143315233835192 0.6143315233835192 0.6143315233835192
0.617327350418847 0.617327350418847 0.617327350418847
0.6202970189388202 0.6202970189388202 0.6202970189388202
0.6232428612005981 0.6232428612005981 0.6232428612005981
0.6262190542606977 0.6262190542606977 0.6262190542606977
0.6292052823895239 0.6292052823895239 0.6292052823895239
0.6322000787507022 0.6322000787507022 0.6322000787507022
0.6352046684593635 0.6352046684593635 0.6352046684593635
0.6382398568826515 0.6382398568826515 0.6382398568826515
0.6413050085519846 0.6413050085519846 0.6413050085519846
0.6444077643437045 0.6444077643437045 0.6444077643437045
0.6475643259910906 0.6475643259910906 0.6475643259910906
0.6508275039946563 0.6508275039946563 0.6508275039946563
0.6542455397016405 0.6542455397016405 0.6542455397016405
0.6579393634085678 0.6579393634085678 0.6579393634085678
0.6620050832063029 0.6620050832063029 0.6620050832063029
0.6666992750033239 0.6666992750033239 0.6666992750033239
0.672462844015002 0.672462844015002 0.672462844015002
0.6789719816610804 0.6789719816610804 0.6789719816610804
0.6855113139855225 0.6855113139855225 0.6855113139855225
0.6916931130805726 0.6916931130805726 0.6916931130805726
0.6974130271929507 0.6974130271929507 0.6974130271929507
0.702626647606906 0.702626647606906 0.702626647606906
0.7073872074569946 0.7073872074569946 0.7073872074569946
0.7118676291183604 0.7118676291183604 0.7118676291183604
0.7161818299257056 0.7161818299257056 0.7161818299257056
0.7204455666051682 0.7204455666051682 0.7204455666051682
0.724715290581758 0.724715290581758 0.724715290581758
0.7289004391673717 0.7289004391673717 0.7289004391673717
0.7329622598521743 0.7329622598521743 0.7329622598521743
0.7365233957079588 0.7365233957079588 0.7365233957079588
0.7397015777369126 0.7397015777369126 0.7397015777369126
0.7425322319654012 0.7425322319654012 0.7425322319654012
0.7451125073982869 0.7451125073982869 0.7451125073982869
0.7473429673383492 0.7473429673383492 0.7473429673383492
0.7495020035555154 0.7495020035555154 0.7495020035555154
0.7515045576128759 0.7515045576128759 0.7515045576128759
0.7534403860195872 0.7534403860195872 0.7534403860195872
0.7552478463335798 0.7552478463335798 0.7552478463335798
0.75702599667016 0.75702599667016 0.75702599667016
0.7587455577763282 0.7587455577763282 0.7587455577763282
0.7604406888457217 0.7604406888457217 0.7604406888457217
0.7620843145936109 0.7620843145936109 0.7620843145936109
0.7636977940924891 0.7636977940924891 0.7636977940924891
0.765290180455766 0.765290180455766 0.765290180455766
0.7668627996078087 0.7668627996078087 0.7668627996078087
0.7684137662570997 0.7684137662570997 0.7684137662570997
0.7699471359830234 0.7699471359830234 0.7699471359830234
0.7714604927591948 0.7714604927591948 0.7714604927591948
0.7729593738220188 0.7729593738220188 0.7729593738220188
0.7744534434485009 0.7744534434485009 0.7744534434485009
0.7759283638686358 0.7759283638686358 0.7759283638686358
0.7773979880953346 0.7773979880953346 0.7773979880953346
0.7788574337109009 0.7788574337109009 0.7788574337109009
0.7802995349364196 0.7802995349364196 0.7802995349364196
0.7817449638999632 0.7817449638999632 0.7817449638999632
0.7831756656512028 0.7831756656512028 0.7831756656512028
0.7845954006098378 0.7845954006098378 0.7845954006098378
0.7860176170973304 0.7860176170973304 0.7860176170973304
0.7874259676504571 0.7874259676504571 0.7874259676504571
0.7888304520866583 0.7888304520866583 0.7888304520866583
0.7902350014131505 0.7902350014131505 0.7902350014131505
0.7916282181900647 0.7916282181900647 0.7916282181900647
0.7930241264726406 0.7930241264726406 0.7930241264726406
0.7944185588767756 0.7944185588767756 0.7944185588767756
0.795804158035425 0.795804158035425 0.795804158035425
0.7972042920334007 0.7972042920334007 0.7972042920334007
0.7986031269683639 0.7986031269683639 0.7986031269683639
0.7999960929145762 0.7999960929145762 0.7999960929145762
0.8014128175043724 0.8014128175043724 0.8014128175043724
0.8028258108225209 0.8028258108225209 0.8028258108225209
0.8042436071397868 0.8042436071397868 0.8042436071397868
0.8056862271747027 0.8056862271747027 0.8056862271747027
0.8071284754482386 0.8071284754482386 0.8071284754482386
0.8085881724899109 0.8085881724899109 0.8085881724899109
0.8100660972717724 0.8100660972717724 0.8100660972717724
0.8115471916615558 0.8115471916615558 0.8115471916615558
0.8130887162140374 0.8130887162140374 0.8130887162140374
0.8146456742163279 0.8146456742163279 0.8146456742163279
0.8162329942422413 0.8162329942422413 0.8162329942422413
0.817875237790812 0.817875237790812 0.817875237790812
0.8195242706187653 0.8195242706187653 0.8195242706187653
0.8213039958282624 0.8213039958282624 0.8213039958282624
0.8230980050816814 0.8230980050816814 0.8230980050816814
0.8250272964689462 0.8250272964689462 0.8250272964689462
0.8270055193220786 0.8270055193220786 0.8270055193220786
0.8291124578584186 0.8291124578584186 0.8291124578584186
0.831263427526671 0.831263427526671 0.831263427526671
0.8336058755556861 0.8336058755556861 0.8336058755556861
0.8359947873304767 0.8359947873304767 0.8359947873304767
0.8384606208671463 0.8384606208671463 0.8384606208671463
0.8410009593916961 0.8410009593916961 0.8410009593916961
0.8435787725014317 0.8435787725014317 0.8435787725014317
0.8461579468353277 0.8461579468353277 0.8461579468353277
0.8487319509216011 0.8487319509216011 0.8487319509216011
0.8512982262714627 0.8512982262714627 0.8512982262714627
0.8538015117907676 0.8538015117907676 0.8538015117907676
0.8562616465219415 0.8562616465219415 0.8562616465219415
0.8586908086334034 0.8586908086334034 0.8586908086334034
0.861064457357693 0.861064457357693 0.861064457357693
0.8634268583184129 0.8634268583184129 0.8634268583184129
0.8657527569177637 0.8657527569177637 0.8657527569177637
0.8680649262231823 0.8680649262231823 0.8680649262231823
0.8703738679027251 0.8703738679027251 0.8703738679027251
0.8726609535338199 0.8726609535338199 0.8726609535338199
0.8749536942332936 0.8749536942332936 0.8749536942332936
0.8772376653854994 0.8772376653854994 0.8772376653854994
0.8795226172447866 0.8795226172447866 0.8795226172447866
0.881808292317082 0.881808292317082 0.881808292317082
0.8841061153267917 0.8841061153267917 0.8841061153267917
0.8864209987839482 0.8864209987839482 0.8864209987839482
0.8887579299178872 0.8887579299178872 0.8887579299178872
0.8911132963522523 0.8911132963522523 0.8911132963522523
0.8934870494170779 0.8934870494170779 0.8934870494170779
0.8958914285649234 0.8958914285649234 0.8958914285649234
0.8983150758867037 0.8983150758867037 0.8983150758867037
0.9007050590095944 0.9007050590095944 0.9007050590095944
0.9030814046191761 0.9030814046191761 0.9030814046191761
0.9054418038358779 0.9054418038358779 0.9054418038358779
0.9077494468577418 0.9077494468577418 0.9077494468577418
0.9100566670014141 0.9100566670014141 0.9100566670014141
0.9122952945927456 0.9122952945927456 0.9122952945927456
0.9145420971947914 0.9145420971947914 0.9145420971947914
0.9167804208527724 0.9167804208527724 0.9167804208527724
0.9190166160326314 0.9190166160326314 0.9190166160326314
0.9212714361866997 0.9212714361866997 0.9212714361866997
0.9235530755412086 0.9235530755412086 0.9235530755412086
0.9258856371096497 0.9258856371096497 0.9258856371096497
0.9282675279762667 0.9282675279762667 0.9282675279762667
0.9307449681846761 0.9307449681846761 0.9307449681846761
0.9333271005418757 0.9333271005418757 0.9333271005418757
0.9360786398963532 0.9360786398963532 0.9360786398963532
0.9390050748851485 0.9390050748851485 0.9390050748851485
0.9421458624537635 0.9421458624537635 0.9421458624537635
0.9455648047358942 0.9455648047358942 0.9455648047358942
0.9493759602301916 0.9493759602301916 0.9493759602301916
0.9537556889291798 0.9537556889291798 0.9537556889291798
0.9586970063884838 0.9586970063884838 0.9586970063884838
0.964005880291432 0.964005880291432 0.964005880291432
0.9688822450135842 0.9688822450135842 0.9688822450135842
0.9743481124214641 0.9743481124214641 0.9743481124214641
1.0 1.0 1.0
0.0 0.0 0.0
0.01163862461337195 0.01163862461337195 0.01163862461337195
0.02134744952728664 0.02134744952728664 0.02134744952728664
0.03358568928632764 0.03358568928632764 0.03358568928632764
0.04403342588531571 0.04403342588531571 0.04403342588531571
0.05260081535193376 0.05260081535193376 0.05260081535193376
0.060781907145402 0.060781907145402 0.060781907145402
0.06858842417408707 0.06858842417408707 0.06858842417408707
0.0761781678455169 0.0761781678455169 0.0761781678455169
0.08327711651031505 0.08327711651031505 0.08327711651031505
0.08968849719514965 0.08968849719514965 0.08968849719514965
0.09565979788778275 0.09565979788778275 0.09565979788778275
0.1016264152662884 0.1016264152662884 0.1016264152662884
0.10798396882456388 0.10798396882456388 0.10798396882456388
0.11496605897437483 0.11496605897437483 0.11496605897437483
0.12300506158273103 0.12300506158273103 0.12300506158273103
0.13226566338047702 0.13226566338047702 0.13226566338047702
0.14133911800312496 0.14133911800312496 0.14133911800312496
0.14904649970749143 0.14904649970749143 0.14904649970749143
0.15595521402824608 0.15595521402824608 0.15595521402824608
0.16261875806346293 0.16261875806346293 0.16261875806346293
0.16918731968164105 0.16918731968164105 0.16918731968164105
0.1754516947370253 0.1754516947370253 0.1754516947370253
0.18112166083073133 0.18112166083073133 0.18112166083073133
0.186198056218435 0.186198056218435 0.186198056218435
0.19097617900269484 0.19097617900269484 0.19097617900269484
0.19559966675209203 0.19559966675209203 0.19559966675209203
0.20024836642989918 0.20024836642989918 0.20024836642989918
0.20499722606851953 0.20499722606851953 0.20499722606851953
0.2099669660108905 0.2099669660108905 0.2099669660108905
0.21526980263213727 0.21526980263213727 0.21526980263213727
0.22110397373393417 0.22110397373393417 0.22110397373393417
0.2273090638996527 0.2273090638996527 0.2273090638996527
0.2334119299680963 0.2334119299680963 0.2334119299680963
0.239337527915217 0.239337527915217 0.239337527915217
0.2451979363337362 0.2451979363337362 0.2451979363337362
0.25133052975610626 0.25133052975610626 0.25133052975610626
0.25779392933080886 0.25779392933080886 0.25779392933080886
0.2644162292551249 0.2644162292551249 0.2644162292551249
0.2709006623922944 0.2709006623922944 0.2709006623922944
0.27689734629537294 0.27689734629537294 0.27689734629537294
0.28234270554820906 0.28234270554820906 0.28234270554820906
0.28720362452357256 0.28720362452357256 0.28720362452357256
0.2916701375837812 0.2916701375837812 0.2916701375837812
0.2958164605695608 0.2958164605695608 0.2958164605695608
0.2997622135939812 0.2997622135939812 0.2997622135939812
0.3036259038497079 0.3036259038497079 0.3036259038497079
0.30746025160711715 0.30746025160711715 0.30746025160711715
0.31133212489632733 0.31133212489632733 0.31133212489632733
0.315300121616703 0.315300121616703 0.315300121616703
0.31948411555535194 0.31948411555535194 0.31948411555535194
0.3239147816514881 0.3239147816514881 0.3239147816514881
0.32860384422848754 0.32860384422848754 0.32860384422848754
0.3335537309932082 0.3335537309932082 0.3335537309932082
0.33880758313652715 0.33880758313652715 0.33880758313652715
0.34434936566797963 0.34434936566797963 0.34434936566797963
0.3503439848285275 0.3503439848285275 0.3503439848285275
0.3569749731650459 0.3569749731650459 0.3569749731650459
0.36486608467113224 0.36486608467113224 0.36486608467113224
0.3744451999599008 0.3744451999599008 0.3744451999599008
0.3829684212408775 0.3829684212408775 0.3829684212408775
0.3896502129835148 0.3896502129835148 0.3896502129835148
0.39539085578137945 0.39539085578137945 0.39539085578137945
0.4008882122987524 0.4008882122987524 0.4008882122987524
0.40628063215888344 0.40628063215888344 0.40628063215888344
0.41170676641543497 0.41170676641543497 0.41170676641543497
0.4174060249259837 0.4174060249259837 0.4174060249259837
0.4233932278667737 0.4233932278667737 0.4233932278667737
0.42951765461768504 0.42951765461768504 0.42951765461768504
0.4354766921935838 0.4354766921935838 0.4354766921935838
0.44097953699204906 0.44097953699204906 0.44097953699204906
0.44603316193430875 0.44603316193430875 0.44603316193430875
0.45065087496440454 0.45065087496440454 0.45065087496440454
0.4548466160992831 0.4548466160992831 0.4548466160992831
0.45877009969130067 0.45877009969130067 0.45877009969130067
0.4624808225968281 0.4624808225968281 0.4624808225968281
0.4660687308759001 0.4660687308759001 0.4660687308759001
0.4695759534031437 0.4695759534031437 0.4695759534031437
0.47303181490315505 0.47303181490315505 0.47303181490315505
0.4764755781279852 0.4764755781279852 0.4764755781279852
0.479891741346411 0.479891741346411 0.479891741346411
0.4832407960166691 0.4832407960166691 0.4832407960166691
0.4865063464991994 0.4865063464991994 0.4865063464991994
0.48966744245078914 0.48966744245078914 0.48966744245078914
0.4927000490203695 0.4927000490203695 0.4927000490203695
0.4956640731994634 0.4956640731994634 0.4956640731994634
0.4985798676046232 0.4985798676046232 0.4985798676046232
0.5014553407072488 0.5014553407072488 0.5014553407072488
0.5043427732027242 0.5043427732027242 0.5043427732027242
0.5072674808106371 0.5072674808106371 0.5072674808106371
0.5102495589353255 0.5102495589353255 0.5102495589353255
0.5133312517493045 0.5133312517493045 0.5133312517493045
0.5165872152179234 0.5165872152179234 0.5165872152179234
0.5200074163495739 0.5200074163495739 0.5200074163495739
0.5236354414499496 0.5236354414499496 0.5236354414499496
0.5275109165403132 0.5275109165403132 0.5275109165403132
0.5316678037263789 0.5316678037263789 0.5316678037263789
0.5361178408788287 0.5361178408788287 0.5361178408788287
0.5407906057051979 0.5407906057051979 0.5407906057051979
0.5456893706730941 0.5456893706730941 0.5456893706730941
0.550776392674275 0.550776392674275 0.550776392674275
0.5561140811011773 0.5561140811011773 0.5561140811011773
0.5618386384745137 0.5618386384745137 0.5618386384745137
0.5680707105524461 0.5680707105524461 0.5680707105524461
0.5747955921968291 0.5747955921968291 0.5747955921968291
0.5810045267835554 0.5810045267835554 0.5810045267835554
0.5861859931954158 0.5861859931954158 0.5861859931954158
0.590565090273 0.590565090273 0.590565090273
0.5945049623839824 0.5945049623839824 0.5945049623839824
0.598154283598758 0.598154283598758 0.598154283598758
0.6016202471156132 0.6016202471156132 0.6016202471156132
0.6049603805779009 0.6049603805779009 0.6049603805779009
0.608184105430363 0.608184105430363 0.608184105430363
0.6112989305605799 0.6112989305605799 0.6112989305605799
0.6143315233835192 0.6143315233835192 0.6143315233835192
0.617327350418847 0.617327350418847 0.617327350418847
0.6202970189388202 0.6202970189388202 0.6202970189388202
0.6232428612005981 0.6232428612005981 0.6232428612005981
0.6262190542606977 0.6262190542606977 0.6262190542606977
0.6292052823895239 0.6292052823895239 0.6292052823895239
0.6322000787507022 0.6322000787507022 0.6322000787507022
0.6352046684593635 0.6352046684593635 0.6352046684593635
0.6382398568826515 0.6382398568826515 0.6382398568826515
0.6413050085519846 0.6413050085519846 0.6413050085519846
0.6444077643437045 0.6444077643437045 0.6444077643437045
0.6475643259910906 0.6475643259910906 0.6475643259910906
0.6508275039946563 0.6508275039946563 0.6508275039946563
0.6542455397016405 0.6542455397016405 0.6542455397016405
0.6579393634085678 0.6579393634085678 0.6579393634085678
0.6620050832063029 0.6620050832063029 0.6620050832063029
0.6666992750033239 0.6666992750033239 0.6666992750033239
0.672462844015002 0.672462844015002 0.672462844015002
0.6789719816610804 0.6789719816610804 0.6789719816610804
0.6855113139855225 0.6855113139855225 0.6855113139855225
0.6916931130805726 0.6916931130805726 0.6916931130805726
0.6974130271929507 0.6974130271929507 0.6974130271929507
0.702626647606906 0.702626647606906 0.702626647606906
0.7073872074569946 0.7073872074569946 0.7073872074569946
0.7118676291183604 0.7118676291183604 0.7118676291183604
0.7161818299257056 0.7161818299257056 0.7161818299257056
0.7204455666051682 0.7204455666051682 0.7204455666051682
0.724715290581758 0.724715290581758 0.724715290581758
0.7289004391673717 0.7289004391673717 0.7289004391673717
0.7329622598521743 0.7329622598521743 0.7329622598521743
0.7365233957079588 0.7365233957079588 0.7365233957079588
0.7397015777369126 0.7397015777369126 0.7397015777369126
0.7425322319654012 0.7425322319654012 0.7425322319654012
0.7451125073982869 0.7451125073982869 0.7451125073982869
0.7473429673383492 0.7473429673383492 0.7473429673383492
0.7495020035555154 0.7495020035555154 0.7495020035555154
0.7515045576128759 0.7515045576128759 0.7515045576128759
0.7534403860195872 0.7534403860195872 0.7534403860195872
0.7552478463335798 0.7552478463335798 0.7552478463335798
0.75702599667016 0.75702599667016 0.75702599667016
0.7587455577763282 0.7587455577763282 0.7587455577763282
0.7604406888457217 0.7604406888457217 0.7604406888457217
0.7620843145936109 0.7620843145936109 0.7620843145936109
0.7636977940924891 0.7636977940924891 0.7636977940924891
0.765290180455766 0.765290180455766 0.765290180455766
0.7668627996078087 0.7668627996078087 0.7668627996078087
0.7684137662570997 0.7684137662570997 0.7684137662570997
