obsidian/Clippings/写真家活動/技法探求/デジタルネガ探究/QTR/プロファイル作成/QTR-DN/QTR-DN/QUAD/決定/PtPd-K50-starter-PX1V-v4-Correction.cube
#Color Lookup Table 
TITLE "QuadToneProfiler Color Lookup Table for 256-step Linearity Correction
LUT_1D_SIZE 256
DOMAIN_MIN 0.0 0.0 0.0
DOMAIN_MAX 1.0 1.0 1.0
0.0 0.0 0.0
0.003274717426318727 0.003274717426318727 0.003274717426318727
0.005793649300491874 0.005793649300491874 0.005793649300491874
0.008785096013224764 0.008785096013224764 0.008785096013224764
0.01701674229350997 0.01701674229350997 0.01701674229350997
0.021561359255383838 0.021561359255383838 0.021561359255383838
0.025930915633455696 0.025930915633455696 0.025930915633455696
0.03042597467171617 0.03042597467171617 0.03042597467171617
0.034768083668171766 0.034768083668171766 0.034768083668171766
0.03904588097495073 0.03904588097495073 0.03904588097495073
0.04340991400414693 0.04340991400414693 0.04340991400414693
0.04800268749731901 0.04800268749731901 0.04800268749731901
0.053015592286985616 0.053015592286985616 0.053015592286985616
0.057774056327707914 0.057774056327707914 0.057774056327707914
0.062177776202299535 0.062177776202299535 0.062177776202299535
0.06641062584451332 0.06641062584451332 0.06641062584451332
0.07057617959033208 0.07057617959033208 0.07057617959033208
0.07486745478637802 0.07486745478637802 0.07486745478637802
0.07934356209377488 0.07934356209377488 0.07934356209377488
0.0841673602385682 0.0841673602385682 0.0841673602385682
0.08938603305267437 0.08938603305267437 0.08938603305267437
0.09511975849098045 0.09511975849098045 0.09511975849098045
0.10136142747697635 0.10136142747697635 0.10136142747697635
0.10795267139526978 0.10795267139526978 0.10795267139526978
0.11426061247355296 0.11426061247355296 0.11426061247355296
0.11995348434380439 0.11995348434380439 0.11995348434380439
0.12517990011346478 0.12517990011346478 0.12517990011346478
0.13025596772842823 0.13025596772842823 0.13025596772842823
0.1354078554748188 0.1354078554748188 0.1354078554748188
0.1408624484820635 0.1408624484820635 0.1408624484820635
0.14668089091988037 0.14668089091988037 0.14668089091988037
0.1525563902523027 0.1525563902523027 0.1525563902523027
0.15808912241730397 0.15808912241730397 0.15808912241730397
0.16303561135520273 0.16303561135520273 0.16303561135520273
0.16749471723332857 0.16749471723332857 0.16749471723332857
0.17155849690265815 0.17155849690265815 0.17155849690265815
0.17537602640183877 0.17537602640183877 0.17537602640183877
0.17901358485365865 0.17901358485365865 0.17901358485365865
0.18256905126953366 0.18256905126953366 0.18256905126953366
0.18608101848076677 0.18608101848076677 0.18608101848076677
0.18958578509594928 0.18958578509594928 0.18958578509594928
0.19312774195045482 0.19312774195045482 0.19312774195045482
0.1967061288846365 0.1967061288846365 0.1967061288846365
0.20033728065697795 0.20033728065697795 0.20033728065697795
0.20401687010582698 0.20401687010582698 0.20401687010582698
0.20771558219849667 0.20771558219849667 0.20771558219849667
0.21142879277190244 0.21142879277190244 0.21142879277190244
0.21508817481746004 0.21508817481746004 0.21508817481746004
0.21869245101265414 0.21869245101265414 0.21869245101265414
0.22217035949854871 0.22217035949854871 0.22217035949854871
0.2255273264903749 0.2255273264903749 0.2255273264903749
0.2288081038723907 0.2288081038723907 0.2288081038723907
0.23204586424711046 0.23204586424711046 0.23204586424711046
0.23524347151409702 0.23524347151409702 0.23524347151409702
0.23854590907220868 0.23854590907220868 0.23854590907220868
0.24193756310970854 0.24193756310970854 0.24193756310970854
0.2454772528653676 0.2454772528653676 0.2454772528653676
0.249206070178818 0.249206070178818 0.249206070178818
0.253139022168687 0.253139022168687 0.253139022168687
0.2572954275225442 0.2572954275225442 0.2572954275225442
0.26166933023385325 0.26166933023385325 0.26166933023385325
0.26625949216361955 0.26625949216361955 0.26625949216361955
0.2711472463380489 0.2711472463380489 0.2711472463380489
0.2763913505113437 0.2763913505113437 0.2763913505113437
0.2820080955908107 0.2820080955908107 0.2820080955908107
0.2879368869409391 0.2879368869409391 0.2879368869409391
0.2939950597860509 0.2939950597860509 0.2939950597860509
0.2999950629410082 0.2999950629410082 0.2999950629410082
0.3057899083507732 0.3057899083507732 0.3057899083507732
0.311166809427946 0.311166809427946 0.311166809427946
0.3161668066783308 0.3161668066783308 0.3161668066783308
0.32078472326984026 0.32078472326984026 0.32078472326984026
0.3251558681757492 0.3251558681757492 0.3251558681757492
0.3293384502123333 0.3293384502123333 0.3293384502123333
0.333449569535073 0.333449569535073 0.333449569535073
0.3375147456689981 0.3375147456689981 0.3375147456689981
0.3415902677937433 0.3415902677937433 0.3415902677937433
0.34568833356961 0.34568833356961 0.34568833356961
0.3498112057178934 0.3498112057178934 0.3498112057178934
0.35394295318511226 0.35394295318511226 0.35394295318511226
0.3579543435660781 0.3579543435660781 0.3579543435660781
0.36183325280439504 0.36183325280439504 0.36183325280439504
0.3655868673991786 0.3655868673991786 0.3655868673991786
0.36922696405819244 0.36922696405819244 0.36922696405819244
0.3728205398058469 0.3728205398058469 0.3728205398058469
0.3763785807489939 0.3763785807489939 0.3763785807489939
0.3799332545225254 0.3799332545225254 0.3799332545225254
0.3835119167206419 0.3835119167206419 0.3835119167206419
0.38704424717625135 0.38704424717625135 0.38704424717625135
0.3905109526646241 0.3905109526646241 0.3905109526646241
0.3938914917540412 0.3938914917540412 0.3938914917540412
0.3971699326771974 0.3971699326771974 0.3971699326771974
0.4003500634953923 0.4003500634953923 0.4003500634953923
0.40346848759000037 0.40346848759000037 0.40346848759000037
0.4065314274696397 0.4065314274696397 0.4065314274696397
0.409586188198823 0.409586188198823 0.409586188198823
0.41264740049863585 0.41264740049863585 0.41264740049863585
0.4157231404182412 0.4157231404182412 0.4157231404182412
0.418870399485841 0.418870399485841 0.418870399485841
0.42210371061098956 0.42210371061098956 0.42210371061098956
0.42541568146193853 0.42541568146193853 0.42541568146193853
0.42880503475818066 0.42880503475818066 0.42880503475818066
0.4322756920857257 0.4322756920857257 0.4322756920857257
0.4358347933797521 0.4358347933797521 0.4358347933797521
0.4394944754370564 0.4394944754370564 0.4394944754370564
0.44321880757384613 0.44321880757384613 0.44321880757384613
0.44696197988860176 0.44696197988860176 0.44696197988860176
0.4508214857203724 0.4508214857203724 0.4508214857203724
0.45481531568681743 0.45481531568681743 0.45481531568681743
0.45916057119982084 0.45916057119982084 0.45916057119982084
0.46416336144732184 0.46416336144732184 0.46416336144732184
0.4700833418488504 0.4700833418488504 0.4700833418488504
0.4773203570720731 0.4773203570720731 0.4773203570720731
0.4847226128028189 0.4847226128028189 0.4847226128028189
0.49073333738124597 0.49073333738124597 0.49073333738124597
0.4953216688547117 0.4953216688547117 0.4953216688547117
0.4991798965615478 0.4991798965615478 0.4991798965615478
0.5025478100999933 0.5025478100999933 0.5025478100999933
0.505647667341333 0.505647667341333 0.505647667341333
0.5085503140789707 0.5085503140789707 0.5085503140789707
0.5113902100777813 0.5113902100777813 0.5113902100777813
0.5142041292293797 0.5142041292293797 0.5142041292293797
0.5170668470212267 0.5170668470212267 0.5170668470212267
0.5199752812178563 0.5199752812178563 0.5199752812178563
0.5229624807425421 0.5229624807425421 0.5229624807425421
0.5260416861379259 0.5260416861379259 0.5260416861379259
0.5291740888763836 0.5291740888763836 0.5291740888763836
0.5323180680344106 0.5323180680344106 0.5323180680344106
0.5354208330285398 0.5354208330285398 0.5354208330285398
0.5384293162838254 0.5384293162838254 0.5384293162838254
0.5413219713210449 0.5413219713210449 0.5413219713210449
0.5440908739056796 0.5440908739056796 0.5440908739056796
0.5467742097665531 0.5467742097665531 0.5467742097665531
0.5493956691543014 0.5493956691543014 0.5493956691543014
0.5519423304157445 0.5519423304157445 0.5519423304157445
0.5544520975512132 0.5544520975512132 0.5544520975512132
0.5569380069285658 0.5569380069285658 0.5569380069285658
0.5594223477323274 0.5594223477323274 0.5594223477323274
0.5619526888584138 0.5619526888584138 0.5619526888584138
0.564538849906766 0.564538849906766 0.564538849906766
0.5672413726537681 0.5672413726537681 0.5672413726537681
0.570073435173498 0.570073435173498 0.570073435173498
0.5730728162871814 0.5730728162871814 0.5730728162871814
0.5762777758063056 0.5762777758063056 0.5762777758063056
0.5797393480201286 0.5797393480201286 0.5797393480201286
0.5834415000888226 0.5834415000888226 0.5834415000888226
0.5873548754818487 0.5873548754818487 0.5873548754818487
0.591489133323798 0.591489133323798 0.591489133323798
0.5958005960299982 0.5958005960299982 0.5958005960299982
0.6002923519085639 0.6002923519085639 0.6002923519085639
0.6049169118418054 0.6049169118418054 0.6049169118418054
0.6096009224225266 0.6096009224225266 0.6096009224225266
0.6142751874333799 0.6142751874333799 0.6142751874333799
0.6189802784637962 0.6189802784637962 0.6189802784637962
0.6238472283381765 0.6238472283381765 0.6238472283381765
0.6294618979145603 0.6294618979145603 0.6294618979145603
0.6361695996263981 0.6361695996263981 0.6361695996263981
0.6440300451055982 0.6440300451055982 0.6440300451055982
0.6517041558738427 0.6517041558738427 0.6517041558738427
0.658438150141628 0.658438150141628 0.658438150141628
0.6641289154813999 0.6641289154813999 0.6641289154813999
0.6689591237000043 0.6689591237000043 0.6689591237000043
0.6731761150110736 0.6731761150110736 0.6731761150110736
0.6769454645838952 0.6769454645838952 0.6769454645838952
0.6804396456203454 0.6804396456203454 0.6804396456203454
0.683742034104574 0.683742034104574 0.683742034104574
0.6869068483170347 0.6869068483170347 0.6869068483170347
0.6899941725897198 0.6899941725897198 0.6899941725897198
0.6929971664875548 0.6929971664875548 0.6929971664875548
0.6959892981463613 0.6959892981463613 0.6959892981463613
0.6989764470412707 0.6989764470412707 0.6989764470412707
0.7019591861637245 0.7019591861637245 0.7019591861637245
0.7050305893096446 0.7050305893096446 0.7050305893096446
0.7081621637100514 0.7081621637100514 0.7081621637100514
0.7113532087215044 0.7113532087215044 0.7113532087215044
0.7146035328479574 0.7146035328479574 0.7146035328479574
0.7179080597561526 0.7179080597561526 0.7179080597561526
0.7212071364149609 0.7212071364149609 0.7212071364149609
0.7245078694202095 0.7245078694202095 0.7245078694202095
0.7278428241280972 0.7278428241280972 0.7278428241280972
0.7312190751061768 0.7312190751061768 0.7312190751061768
0.7346687735432753 0.7346687735432753 0.7346687735432753
0.7382369042697526 0.7382369042697526 0.7382369042697526
0.7419189180008163 0.7419189180008163 0.7419189180008163
0.7456671581067745 0.7456671581067745 0.7456671581067745
0.7494746808509946 0.7494746808509946 0.7494746808509946
0.7532643234606131 0.7532643234606131 0.7532643234606131
0.7570408384509943 0.7570408384509943 0.7570408384509943
0.7608840684702335 0.7608840684702335 0.7608840684702335
0.7647992686769488 0.7647992686769488 0.7647992686769488
0.7689440119129108 0.7689440119129108 0.7689440119129108
0.7733711680616702 0.7733711680616702 0.7733711680616702
0.778188180165161 0.778188180165161 0.778188180165161
0.7833262218585882 0.7833262218585882 0.7833262218585882
0.7886062862673788 0.7886062862673788 0.7886062862673788
0.7935147901454553 0.7935147901454553 0.7935147901454553
0.7980065461582206 0.7980065461582206 0.7980065461582206
0.802059927342951 0.802059927342951 0.802059927342951
0.8057755468793774 0.8057755468793774 0.8057755468793774
0.809226184544829 0.809226184544829 0.809226184544829
0.8124845409235373 0.8124845409235373 0.8124845409235373
0.8156330412463713 0.8156330412463713 0.8156330412463713
0.8186545764474249 0.8186545764474249 0.8186545764474249
0.8216437575569447 0.8216437575569447 0.8216437575569447
0.8246056121895486 0.8246056121895486 0.8246056121895486
0.8275443527908066 0.8275443527908066 0.8275443527908066
0.8304857301984157 0.8304857301984157 0.8304857301984157
0.8334311989328214 0.8334311989328214 0.8334311989328214
0.8363938368551254 0.8363938368551254 0.8363938368551254
0.839386372096226 0.839386372096226 0.839386372096226
0.8424368395183851 0.8424368395183851 0.8424368395183851
0.8454765803146733 0.8454765803146733 0.8454765803146733
0.8485057857382724 0.8485057857382724 0.8485057857382724
0.8515107022073112 0.8515107022073112 0.8515107022073112
0.8544418036605148 0.8544418036605148 0.8544418036605148
0.8572832992364273 0.8572832992364273 0.8572832992364273
0.8600767965721705 0.8600767965721705 0.8600767965721705
0.86283037473736 0.86283037473736 0.86283037473736
0.8655116069139669 0.8655116069139669 0.8655116069139669
0.868193973825932 0.868193973825932 0.868193973825932
0.870877508906107 0.870877508906107 0.870877508906107
0.8735636072524318 0.8735636072524318 0.8735636072524318
0.8763185499657641 0.8763185499657641 0.8763185499657641
0.8791450243151943 0.8791450243151943 0.8791450243151943
0.8820774960975613 0.8820774960975613 0.8820774960975613
0.8852062847257498 0.8852062847257498 0.8852062847257498
0.8885470784436648 0.8885470784436648 0.8885470784436648
0.8921422808079562 0.8921422808079562 0.8921422808079562
0.8960554575740189 0.8960554575740189 0.8960554575740189
0.9003314720096283 0.9003314720096283 0.9003314720096283
0.9049933826506227 0.9049933826506227 0.9049933826506227
0.9100033891900386 0.9100033891900386 0.9100033891900386
0.9153131731407362 0.9153131731407362 0.9153131731407362
0.9206080907344258 0.9206080907344258 0.9206080907344258
0.9256347008235705 0.9256347008235705 0.9256347008235705
0.930194339486001 0.930194339486001 0.930194339486001
0.9343750013743194 0.9343750013743194 0.9343750013743194
0.9382445297318571 0.9382445297318571 0.9382445297318571
0.942000100185325 0.942000100185325 0.942000100185325
0.9457072776360459 0.9457072776360459 0.9457072776360459
0.9495351933756143 0.9495351933756143 0.9495351933756143
0.9536398100022084 0.9536398100022084 0.9536398100022084
0.9578681986488747 0.9578681986488747 0.9578681986488747
0.962125816703027 0.962125816703027 0.962125816703027
0.9661679926051009 0.9661679926051009 0.9661679926051009
0.9698064268041141 0.9698064268041141 0.9698064268041141
0.9728311961293186 0.9728311961293186 0.9728311961293186
0.9750635777183508 0.9750635777183508 0.9750635777183508
0.9772199618078676 0.9772199618078676 0.9772199618078676
0.9792467929184936 0.9792467929184936 0.9792467929184936
0.9812114952955682 0.9812114952955682 0.9812114952955682
0.9830954686176918 0.9830954686176918 0.9830954686176918
0.9851063022925146 0.9851063022925146 0.9851063022925146
0.9873492896066415 0.9873492896066415 0.9873492896066415
0.9912621578390745 0.9912621578390745 0.9912621578390745
1.0 1.0 1.0
0.0 0.0 0.0
0.003274717426318727 0.003274717426318727 0.003274717426318727
0.005793649300491874 0.005793649300491874 0.005793649300491874
0.008785096013224764 0.008785096013224764 0.008785096013224764
0.01701674229350997 0.01701674229350997 0.01701674229350997
0.021561359255383838 0.021561359255383838 0.021561359255383838
0.025930915633455696 0.025930915633455696 0.025930915633455696
0.03042597467171617 0.03042597467171617 0.03042597467171617
0.034768083668171766 0.034768083668171766 0.034768083668171766
0.03904588097495073 0.03904588097495073 0.03904588097495073
0.04340991400414693 0.04340991400414693 0.04340991400414693
0.04800268749731901 0.04800268749731901 0.04800268749731901
0.053015592286985616 0.053015592286985616 0.053015592286985616
0.057774056327707914 0.057774056327707914 0.057774056327707914
0.062177776202299535 0.062177776202299535 0.062177776202299535
0.06641062584451332 0.06641062584451332 0.06641062584451332
0.07057617959033208 0.07057617959033208 0.07057617959033208
0.07486745478637802 0.07486745478637802 0.07486745478637802
0.07934356209377488 0.07934356209377488 0.07934356209377488
0.0841673602385682 0.0841673602385682 0.0841673602385682
0.08938603305267437 0.08938603305267437 0.08938603305267437
0.09511975849098045 0.09511975849098045 0.09511975849098045
0.10136142747697635 0.10136142747697635 0.10136142747697635
0.10795267139526978 0.10795267139526978 0.10795267139526978
0.11426061247355296 0.11426061247355296 0.11426061247355296
0.11995348434380439 0.11995348434380439 0.11995348434380439
0.12517990011346478 0.12517990011346478 0.12517990011346478
0.13025596772842823 0.13025596772842823 0.13025596772842823
0.1354078554748188 0.1354078554748188 0.1354078554748188
0.1408624484820635 0.1408624484820635 0.1408624484820635
0.14668089091988037 0.14668089091988037 0.14668089091988037
0.1525563902523027 0.1525563902523027 0.1525563902523027
0.15808912241730397 0.15808912241730397 0.15808912241730397
0.16303561135520273 0.16303561135520273 0.16303561135520273
0.16749471723332857 0.16749471723332857 0.16749471723332857
0.17155849690265815 0.17155849690265815 0.17155849690265815
0.17537602640183877 0.17537602640183877 0.17537602640183877
0.17901358485365865 0.17901358485365865 0.17901358485365865
0.18256905126953366 0.18256905126953366 0.18256905126953366
0.18608101848076677 0.18608101848076677 0.18608101848076677
0.18958578509594928 0.18958578509594928 0.18958578509594928
0.19312774195045482 0.19312774195045482 0.19312774195045482
0.1967061288846365 0.1967061288846365 0.1967061288846365
0.20033728065697795 0.20033728065697795 0.20033728065697795
0.20401687010582698 0.20401687010582698 0.20401687010582698
0.20771558219849667 0.20771558219849667 0.20771558219849667
0.21142879277190244 0.21142879277190244 0.21142879277190244
0.21508817481746004 0.21508817481746004 0.21508817481746004
0.21869245101265414 0.21869245101265414 0.21869245101265414
0.22217035949854871 0.22217035949854871 0.22217035949854871
0.2255273264903749 0.2255273264903749 0.2255273264903749
0.2288081038723907 0.2288081038723907 0.2288081038723907
0.23204586424711046 0.23204586424711046 0.23204586424711046
0.23524347151409702 0.23524347151409702 0.23524347151409702
0.23854590907220868 0.23854590907220868 0.23854590907220868
0.24193756310970854 0.24193756310970854 0.24193756310970854
0.2454772528653676 0.2454772528653676 0.2454772528653676
0.249206070178818 0.249206070178818 0.249206070178818
0.253139022168687 0.253139022168687 0.253139022168687
0.2572954275225442 0.2572954275225442 0.2572954275225442
0.26166933023385325 0.26166933023385325 0.26166933023385325
0.26625949216361955 0.26625949216361955 0.26625949216361955
0.2711472463380489 0.2711472463380489 0.2711472463380489
0.2763913505113437 0.2763913505113437 0.2763913505113437
0.2820080955908107 0.2820080955908107 0.2820080955908107
0.2879368869409391 0.2879368869409391 0.2879368869409391
0.2939950597860509 0.2939950597860509 0.2939950597860509
0.2999950629410082 0.2999950629410082 0.2999950629410082
0.3057899083507732 0.3057899083507732 0.3057899083507732
0.311166809427946 0.311166809427946 0.311166809427946
0.3161668066783308 0.3161668066783308 0.3161668066783308
0.32078472326984026 0.32078472326984026 0.32078472326984026
0.3251558681757492 0.3251558681757492 0.3251558681757492
0.3293384502123333 0.3293384502123333 0.3293384502123333
0.333449569535073 0.333449569535073 0.333449569535073
0.3375147456689981 0.3375147456689981 0.3375147456689981
0.3415902677937433 0.3415902677937433 0.3415902677937433
0.34568833356961 0.34568833356961 0.34568833356961
0.3498112057178934 0.3498112057178934 0.3498112057178934
0.35394295318511226 0.35394295318511226 0.35394295318511226
0.3579543435660781 0.3579543435660781 0.3579543435660781
0.36183325280439504 0.36183325280439504 0.36183325280439504
0.3655868673991786 0.3655868673991786 0.3655868673991786
0.36922696405819244 0.36922696405819244 0.36922696405819244
0.3728205398058469 0.3728205398058469 0.3728205398058469
0.3763785807489939 0.3763785807489939 0.3763785807489939
0.3799332545225254 0.3799332545225254 0.3799332545225254
0.3835119167206419 0.3835119167206419 0.3835119167206419
0.38704424717625135 0.38704424717625135 0.38704424717625135
0.3905109526646241 0.3905109526646241 0.3905109526646241
0.3938914917540412 0.3938914917540412 0.3938914917540412
0.3971699326771974 0.3971699326771974 0.3971699326771974
0.4003500634953923 0.4003500634953923 0.4003500634953923
0.40346848759000037 0.40346848759000037 0.40346848759000037
0.4065314274696397 0.4065314274696397 0.4065314274696397
0.409586188198823 0.409586188198823 0.409586188198823
0.41264740049863585 0.41264740049863585 0.41264740049863585
0.4157231404182412 0.4157231404182412 0.4157231404182412
0.418870399485841 0.418870399485841 0.418870399485841
0.42210371061098956 0.42210371061098956 0.42210371061098956
0.42541568146193853 0.42541568146193853 0.42541568146193853
0.42880503475818066 0.42880503475818066 0.42880503475818066
0.4322756920857257 0.4322756920857257 0.4322756920857257
0.4358347933797521 0.4358347933797521 0.4358347933797521
0.4394944754370564 0.4394944754370564 0.4394944754370564
0.44321880757384613 0.44321880757384613 0.44321880757384613
0.44696197988860176 0.44696197988860176 0.44696197988860176
0.4508214857203724 0.4508214857203724 0.4508214857203724
0.45481531568681743 0.45481531568681743 0.45481531568681743
0.45916057119982084 0.45916057119982084 0.45916057119982084
0.46416336144732184 0.46416336144732184 0.46416336144732184
0.4700833418488504 0.4700833418488504 0.4700833418488504
0.4773203570720731 0.4773203570720731 0.4773203570720731
0.4847226128028189 0.4847226128028189 0.4847226128028189
0.49073333738124597 0.49073333738124597 0.49073333738124597
0.4953216688547117 0.4953216688547117 0.4953216688547117
0.4991798965615478 0.4991798965615478 0.4991798965615478
0.5025478100999933 0.5025478100999933 0.5025478100999933
0.505647667341333 0.505647667341333 0.505647667341333
0.5085503140789707 0.5085503140789707 0.5085503140789707
0.5113902100777813 0.5113902100777813 0.5113902100777813
0.5142041292293797 0.5142041292293797 0.5142041292293797
0.5170668470212267 0.5170668470212267 0.5170668470212267
0.5199752812178563 0.5199752812178563 0.5199752812178563
0.5229624807425421 0.5229624807425421 0.5229624807425421
0.5260416861379259 0.5260416861379259 0.5260416861379259
0.5291740888763836 0.5291740888763836 0.5291740888763836
0.5323180680344106 0.5323180680344106 0.5323180680344106
0.5354208330285398 0.5354208330285398 0.5354208330285398
0.5384293162838254 0.5384293162838254 0.5384293162838254
0.5413219713210449 0.5413219713210449 0.5413219713210449
0.5440908739056796 0.5440908739056796 0.5440908739056796
0.5467742097665531 0.5467742097665531 0.5467742097665531
0.5493956691543014 0.5493956691543014 0.5493956691543014
0.5519423304157445 0.5519423304157445 0.5519423304157445
0.5544520975512132 0.5544520975512132 0.5544520975512132
0.5569380069285658 0.5569380069285658 0.5569380069285658
0.5594223477323274 0.5594223477323274 0.5594223477323274
0.5619526888584138 0.5619526888584138 0.5619526888584138
0.564538849906766 0.564538849906766 0.564538849906766
0.5672413726537681 0.5672413726537681 0.5672413726537681
0.570073435173498 0.570073435173498 0.570073435173498
0.5730728162871814 0.5730728162871814 0.5730728162871814
0.5762777758063056 0.5762777758063056 0.5762777758063056
0.5797393480201286 0.5797393480201286 0.5797393480201286
0.5834415000888226 0.5834415000888226 0.5834415000888226
0.5873548754818487 0.5873548754818487 0.5873548754818487
0.591489133323798 0.591489133323798 0.591489133323798
0.5958005960299982 0.5958005960299982 0.5958005960299982
0.6002923519085639 0.6002923519085639 0.6002923519085639
0.6049169118418054 0.6049169118418054 0.6049169118418054
0.6096009224225266 0.6096009224225266 0.6096009224225266
0.6142751874333799 0.6142751874333799 0.6142751874333799
0.6189802784637962 0.6189802784637962 0.6189802784637962
0.6238472283381765 0.6238472283381765 0.6238472283381765
0.6294618979145603 0.6294618979145603 0.6294618979145603
0.6361695996263981 0.6361695996263981 0.6361695996263981
0.6440300451055982 0.6440300451055982 0.6440300451055982
