obsidian/Clippings/写真家活動/技法探求/デジタルネガ探究/QTR/プロファイル作成/QTR-DN/QTR-DN/QUAD/決定/PtPd-K50-starter-PX1V-v4-measured-softproof.cube
#Color Lookup Table 
TITLE "QuadToneProfiler Color Lookup Table for 256-step Soft Proof
LUT_1D_SIZE 256
DOMAIN_MIN 0.0 0.0 0.0
DOMAIN_MAX 1.0 1.0 1.0
0.25372847225286355 0.27601389004150145 0.2638585732725365
0.2572336325702718 0.2775567022256183 0.26545847892629415
0.25985805028219294 0.2783150210585457 0.2662089216307972
0.263133287580316 0.27973565014034857 0.26761723353345246
0.26749103632801813 0.2836741953161106 0.27185013517254
0.27259134683509506 0.2884063000481501 0.2768836697680948
0.2768456734279464 0.2930374802627968 0.2806369227392968
0.28067140888178577 0.29727541239814853 0.28393709938022554
0.2836186985346949 0.3002122096180795 0.28651937648022235
0.286001128985559 0.30255078968336213 0.288546126408806
0.28847408969303834 0.30473167995397676 0.290660757595896
0.2908478239346708 0.30679050730954815 0.2926753077391291
0.29331226099623847 0.3089149736392802 0.29475848237307767
0.29584104739767864 0.3111009675101201 0.2969031602811912
0.2986022966135318 0.31344922416592214 0.2992398462929065
0.3014394093037242 0.3158641313123514 0.3016467366909535
0.3041964353180608 0.3182400070123901 0.3039453687580821
0.3068719619153011 0.3205390831866021 0.30615776735229655
0.30937247372403015 0.3226198661919016 0.3081829808307641
0.3117218843063512 0.32454094711886605 0.3100546875746111
0.3139253903849688 0.3263178492066115 0.3117809308936765
0.3160277446093654 0.3279929851741946 0.31340581198547685
0.31808027137275474 0.3296673117703876 0.3150129363107721
0.32013075376091094 0.3313495262386703 0.3166243400184724
0.3222197657892039 0.33314181617551264 0.3182994686161958
0.3243952415212763 0.3350373400784767 0.3200663126062408
0.32668342063913847 0.3371126574393242 0.32194958560744874
0.32912782607335805 0.3393618728277591 0.32398915858623617
0.3317867803718253 0.34184640387726584 0.3262197437906474
0.3346637147844562 0.3445552816028644 0.3286604666353182
0.3378078320446483 0.34751995365463095 0.33131215241114687
0.34118087576839967 0.35071034869558604 0.3341739177348934
0.34472839093284724 0.3540696863707514 0.3371426194841559
0.34841820318312805 0.35756946762467534 0.34022937532643355
0.35209912530369253 0.3610873562936697 0.343291601385722
0.35578204488297516 0.36461690893859106 0.3463489820432636
0.3593552592782935 0.36806106486814494 0.34933054564892424
0.3628424346944286 0.3714284729374483 0.35223883549051654
0.3662134061636299 0.3746742202250575 0.3550846513504458
0.36949279031747184 0.3778256854926276 0.3578614415107788
0.3727824258191894 0.38095644935775214 0.3606624684468744
0.3760723982125551 0.38407301177856934 0.3634697218256856
0.3794565369487732 0.38725052118259323 0.36635182607606936
0.38290363544070455 0.39047427970920934 0.3692866322943486
0.38637422180642605 0.3937055276368465 0.37223327802832257
0.3898593409475531 0.39694250376657875 0.3751876984676884
0.39329046431498976 0.40014839469239655 0.37811915262337115
0.39666857362493385 0.4033140152258798 0.38101497274867624
0.3998842038402638 0.40636079717218054 0.3838180028013358
0.4029493524878631 0.409283413765919 0.386513121905809
0.40577181290967584 0.411982977807489 0.38904651344275987
0.40836722380224444 0.41446802929916043 0.3914059801807001
0.4107375042908107 0.41673091070159335 0.39361251066703257
0.41289294628186834 0.418780830860438 0.3956547962752158
0.41491650358430127 0.4207038668028105 0.397602886689395
0.41681538681692426 0.422505848684984 0.3994544481126406
0.4187615012687421 0.4243606951999739 0.40134627168269793
0.42075138005883694 0.4262637372607889 0.4032763049381207
0.42289859099058213 0.4283286221402955 0.40532243602305573
0.4251975712128814 0.4305490748376676 0.40748542596717713
0.42762544725896356 0.43290811642702576 0.40975703544256187
0.43018190758362057 0.43540444350849133 0.41213889074756344
0.4327821138386846 0.43794808762498 0.41458474952432367
0.4354275210031098 0.4405403435240614 0.41709515469358266
0.43807832385606094 0.44311724825672427 0.41961260078496115
0.4407343429411054 0.4456782299834175 0.42213694258458406
0.44345257881523437 0.4482888064189267 0.42471577551339773
0.44623364970319473 0.45094852457147144 0.42734910616156163
0.4491139724014948 0.45371961928248467 0.4300640844067103
0.4520966377386891 0.45660708162253344 0.4328611668275522
0.45510159565474645 0.4595531166824062 0.43565861843463954
0.4581225742509591 0.46255990051788337 0.4384452279609517
0.46112281453342346 0.4655819346837768 0.4412102160435827
0.46408710082730303 0.4686152713493969 0.44393827856801527
0.4671071633138599 0.4717261956242366 0.44674332196020733
0.47018121275398767 0.47492155860863056 0.449632370313411
0.47334311221623443 0.4782056551269272 0.4526229866459401
0.47660350251439126 0.4815893891373864 0.45573297615174174
0.47987715388194946 0.4849645669619593 0.4588469231922733
0.48317221393636584 0.48832616562861125 0.46196752384559475
0.48639313350016705 0.4915880147001193 0.4649990272256416
0.48955162299209304 0.4947437498052401 0.4679422293398066
0.49252855284603575 0.4977069577313154 0.4706948053599313
0.4953231664012942 0.5004681041706168 0.4732475792117859
0.4978561169981533 0.5029642408555365 0.4755350624806735
0.5001100040215073 0.5051752295360048 0.477534829210756
0.5021244569365004 0.507144808855901 0.4793019913250051
0.5038914489321973 0.5088632555851262 0.4808342677317243
0.5055054057946827 0.5104260858162983 0.4822358422140896
0.5069758174704867 0.5118399069270932 0.4835428886531839
0.5083782797230715 0.5131668093428058 0.4847894314025442
0.5097303908254618 0.5143974227866925 0.4860029349928821
0.5111181508056831 0.5156440335512322 0.4872454541383539
0.5125671262008463 0.5169002863858653 0.4885321507012759
0.5141856819792032 0.5183220788141258 0.48998290201091715
0.5160272183386292 0.5199552978358118 0.49164330344500445
0.5180508874916694 0.5217778299206373 0.4934808839635845
0.5202769483286396 0.5238251004407992 0.4955089282372908
0.5225558146092266 0.5259386877624339 0.49758811919014895
0.5248177368981723 0.5280814731133467 0.4996469055409904
0.527079354120537 0.5302382585059735 0.5017107141546904
0.529288122235881 0.5323956768462782 0.5037424361935485
0.5315358493848866 0.5345991162173609 0.5058154628037395
0.5338179245898559 0.5368659048436393 0.5079340787962666
0.5361867526338137 0.5392171804471566 0.5101352440016748
0.5386512634082881 0.5416537799615648 0.5124162982109043
0.5412585495394725 0.5442274497319047 0.5148377986821943
0.5440318096278581 0.5469380922109407 0.5174193174186039
0.5470254142171759 0.5498664550594926 0.5202193880860341
0.5502831611596628 0.5530439696759093 0.5232834275843964
0.5538079353222114 0.5564907069879078 0.5266143451949881
0.5576432218614132 0.5602623838972633 0.5302690818630671
0.5616646501577979 0.5642210794722335 0.5341101649513811
0.5658481348904083 0.5683489166977547 0.5381274091811601
0.5700349345678926 0.5724793003599632 0.5421488742467139
0.5741317817460168 0.5765142583815608 0.5460905343821042
0.5780995390522217 0.5804188754336688 0.5499073464835673
0.5818876542291643 0.5841328336485634 0.5535794985797774
0.5855133501866684 0.5876819517350694 0.5570944601293305
0.5889487624157818 0.5910119636477682 0.5604703632469072
0.5923204146182094 0.594278678722286 0.5637890170931598
0.5956943522222755 0.5975595167725153 0.5672104115848756
0.5991400402972907 0.6009137879109531 0.5707062811020741
0.6027243043604504 0.604451302691096 0.5744145405852644
0.6063831529638323 0.6080642878742504 0.5781972453017464
0.6100942761024127 0.6117680626792924 0.5820324437115267
0.6137031830585016 0.6153698729958319 0.5857662481922258
0.6170480624163013 0.6187396725835692 0.5891649076326007
0.6200712316111627 0.6217877500568811 0.5922448796457188
0.6226095312673315 0.6243699767775097 0.594738224704169
0.6247568911465124 0.626561379318388 0.5968431199691662
0.6265004813064384 0.6283530366144721 0.5984820831034862
0.6279841038971639 0.6298848019672112 0.5998616348630307
0.6293260847055236 0.6312815289576322 0.6011027466848877
0.6306386998076822 0.6326491962257889 0.6023147744624511
0.6320881571986025 0.6341673509151958 0.603687575035146
0.6337006388144864 0.6358494378864811 0.6052234510461787
0.6355758853791529 0.6378037339378375 0.6070196003245073
0.6376891480221204 0.6399969317562566 0.6090516863778784
0.6400917586141429 0.6424542739945853 0.6113316540246385
0.6426903853523447 0.6451053730280106 0.6138021844597243
0.6454245991608204 0.647841696983812 0.6163372307323955
0.6482525911770222 0.6506660734934505 0.6189570854502917
0.6511321664874185 0.6534992164009378 0.6215599097090628
0.6540725847327885 0.6563874125944072 0.6242136218568303
0.6571290223576295 0.6593608769929019 0.6269799589691818
0.6602750742881399 0.6624190970554603 0.6298344615580739
0.6635343137334418 0.6655528344941617 0.6328391992727381
0.6668910260097973 0.6687772324381503 0.6359470163275639
0.6703938540715845 0.672106591312149 0.6392457254743321
0.6739847382663935 0.675515575015321 0.6426406953518359
0.6776242425865937 0.6789389131766674 0.646101719522178
0.681275012846478 0.6823656051424039 0.6495777677038727
0.6848881252969679 0.6857126437804073 0.6529921914769377
0.6884378968023268 0.6889856759230527 0.6563377513799967
0.6918832964847865 0.6921161476048254 0.6595171362511537
0.6952328922559462 0.6951401400307009 0.6625844225551303
0.6985360873305019 0.6980942055174917 0.6655622238699548
0.7017931759389505 0.7009948488492673 0.6684812221959472
0.7050638689932314 0.7039230738275571 0.6714466759878654
0.7083303781437117 0.7068513022189452 0.6744184604172337
0.7115330010507883 0.7097578158237463 0.6773912959830748
0.714683405823927 0.7126266914737825 0.680334901974245
0.7176682323247136 0.715407205055119 0.6832014241006836
0.7205400266559782 0.718104002425827 0.6859890818479518
0.7232515963679255 0.7207314107408027 0.6887121012403205
0.7258656511063442 0.7232987059946465 0.6913773431415021
0.7284781445862774 0.7259038691268717 0.6940924289949866
0.7310906478367827 0.7285265690786802 0.696830489680546
0.7337208602244116 0.7311645191024537 0.6995870309848131
0.7363592888331744 0.7338095365433953 0.7023523154493458
0.7389819491604085 0.7364241469171735 0.7050645176571411
0.7415762738482594 0.7390029330612398 0.7077295206625248
0.7440838460819066 0.7414788414115817 0.7102823901393418
0.7464997005080293 0.7438541974023262 0.7127300300518283
0.7487628391940842 0.7460764863289414 0.7150125273305705
0.7508840446011608 0.7481566715700592 0.7171462542399175
0.7528860927782653 0.7501364818470758 0.719160048795388
0.7547768123775994 0.7520168109157963 0.7210623606538719
0.7565987831168394 0.7538587234571305 0.7229013013900356
0.7583585033579879 0.7556587929413313 0.7246817689993733
0.7601188233231831 0.7574602251109894 0.7264337388855076
0.7618798265985636 0.7592628973624461 0.7281655294888867
0.7637225096963187 0.7611101246002803 0.729922855280892
0.7656398456313572 0.7630035939216616 0.7317117602382064
0.7677019689582245 0.7649964509204547 0.7335998873442225
0.7699002550518975 0.7670884183749264 0.735586839749658
0.7722399685592434 0.7692899766175972 0.7377004884391293
0.774717565763965 0.7716017095170832 0.7399390648930272
0.777297494748766 0.774021124567099 0.7422816374247903
0.7799809215972136 0.7765489598627373 0.7447291579344597
0.7827719344347591 0.7792351451493719 0.7473317269727847
0.7856710359401954 0.7820794715098032 0.750089171939498
0.7887055846209559 0.7851059003623942 0.7530415515425837
0.7918754686589973 0.788316697009746 0.7561918457825967
0.7951424576375404 0.7916389437639088 0.7594636717323222
0.7985092058551914 0.7950770159564217 0.7628626818342247
0.801831735273457 0.7984620118919724 0.766212685185532
0.8051082247412715 0.8017903723142857 0.7695108537440146
0.8082761142453317 0.8049865992650681 0.7726765771361681
0.81133069645281 0.8080395640847743 0.7756984393939353
0.8143585854183377 0.811038653508566 0.7786709767346797
0.8173684121902013 0.8139828468916404 0.7815946230049794
0.8203961860840164 0.8169399173453695 0.784531542518374
0.8234474837160827 0.8199132209169826 0.7874852457567554
0.8265266099490297 0.8229370346499282 0.7904924066667178
0.8296297234679283 0.8260198933073503 0.7935632630741819
0.8327403563354909 0.8291436397151328 0.7966833971404947
0.835849316686637 0.8323207495548064 0.7998707746013204
0.8389031738887768 0.8354607408935286 0.8030149015267569
0.8418929044328841 0.8385681946688406 0.8061153546604007
0.8447424382868747 0.841531547393875 0.8090463317800975
0.847445866845374 0.8443411035799667 0.8117746363365349
0.8499491349248641 0.8469371150564791 0.8142671675082116
0.8522441913719007 0.849297443996048 0.8164775842916122
0.8543662760317177 0.8514761863688786 0.8185034640287268
0.8563106871414541 0.8534582348475028 0.8203249240473374
0.8581957666611034 0.8553810778861785 0.8221026921529921
0.8600320345151142 0.8572552682624086 0.8238676395136965
0.8619246884338148 0.8591867632332797 0.8257211509137926
0.8638999344583815 0.8612031744184878 0.8277391698972052
0.8659628384822599 0.8632996479492334 0.829872327574807
0.868145821763063 0.8654954372988103 0.8322016207780292
0.8703267411176888 0.8676769545958765 0.8345299917291147
0.8725075292006572 0.8698219917488946 0.8368611793395031
0.8745874121671207 0.8718485965862152 0.8390769930932152
0.8765524540977057 0.8737034839727845 0.841128982116309
0.878430345975649 0.875454744807536 0.8430770596421022
0.8802384562673642 0.8770779170298957 0.8448938769870277
0.8820661820249834 0.8787146844152813 0.8467219550267183
0.8839652653447215 0.8803997562555854 0.8485888173780213
0.8859545279906003 0.8821770970703011 0.8505516867263502
0.8880463273176695 0.8840667137061579 0.8526442724070329
0.8902661551532877 0.8860898907261346 0.8548781664567453
0.8926108117201287 0.8882654137358243 0.8573038740404153
0.8950910941458172 0.8905833598365719 0.8598728735346537
0.8977029262046153 0.8930705209226362 0.8626184201024027
0.9003966944828962 0.8956419887654232 0.8654343114940051
0.9031590201033036 0.8982973677243818 0.8682505668699882
0.905896170007306 0.9009196346144679 0.8710223507631972
0.9085975281920466 0.9034514140636456 0.8736224890466976
0.9111696118318686 0.9058635396408775 0.8760812551443828
0.9134532032205533 0.9080650824133017 0.8781484373868921
0.9157703493891712 0.9103132625242493 0.8802549198310633
0.9182309341493763 0.9128310953923077 0.8825625180421172
0.9207616371086126 0.9154374858583053 0.8849531608438828
0.9231802354527131 0.9181481157153683 0.8873911139624379
0.9255972886540957 0.9208356240216271 0.8898228844781829
0.9281505273160947 0.9233331858453919 0.8923189046281433
0.9306749549415051 0.9258147606705421 0.8947750335993738
0.9332194223056344 0.928575402223017 0.8970232245921914
0.9354037407814935 0.9309780145539182 0.8989309777718144
0.9361792132912101 0.9320179524237063 0.8999696626474414
0.937387902662412 0.9335383552152673 0.9015486613338755
0.9394338140503078 0.9388797291386395 0.910861496268665
0.9400660554680592 0.9428338005451058 0.9188012189361398
0.25372847225286355 0.27601389004150145 0.2638585732725365
0.2572336325702718 0.2775567022256183 0.26545847892629415
0.25985805028219294 0.2783150210585457 0.2662089216307972
0.263133287580316 0.27973565014034857 0.26761723353345246
0.26749103632801813 0.2836741953161106 0.27185013517254
0.27259134683509506 0.2884063000481501 0.2768836697680948
0.2768456734279464 0.2930374802627968 0.2806369227392968
0.28067140888178577 0.29727541239814853 0.28393709938022554
0.2836186985346949 0.3002122096180795 0.28651937648022235
0.286001128985559 0.30255078968336213 0.288546126408806
0.28847408969303834 0.30473167995397676 0.290660757595896
0.2908478239346708 0.30679050730954815 0.2926753077391291
0.29331226099623847 0.3089149736392802 0.29475848237307767
0.29584104739767864 0.3111009675101201 0.2969031602811912
0.2986022966135318 0.31344922416592214 0.2992398462929065
0.3014394093037242 0.3158641313123514 0.3016467366909535
0.3041964353180608 0.3182400070123901 0.3039453687580821
0.3068719619153011 0.3205390831866021 0.30615776735229655
0.30937247372403015 0.3226198661919016 0.3081829808307641
0.3117218843063512 0.32454094711886605 0.3100546875746111
0.3139253903849688 0.3263178492066115 0.3117809308936765
0.3160277446093654 0.3279929851741946 0.31340581198547685
0.31808027137275474 0.3296673117703876 0.3150129363107721
0.32013075376091094 0.3313495262386703 0.3166243400184724
0.3222197657892039 0.33314181617551264 0.3182994686161958
0.3243952415212763 0.3350373400784767 0.3200663126062408
0.32668342063913847 0.3371126574393242 0.32194958560744874
0.32912782607335805 0.3393618728277591 0.32398915858623617
0.3317867803718253 0.34184640387726584 0.3262197437906474
0.3346637147844562 0.3445552816028644 0.3286604666353182
0.3378078320446483 0.34751995365463095 0.33131215241114687
0.34118087576839967 0.35071034869558604 0.3341739177348934
0.34472839093284724 0.3540696863707514 0.3371426194841559
0.34841820318312805 0.35756946762467534 0.34022937532643355
0.35209912530369253 0.3610873562936697 0.343291601385722
0.35578204488297516 0.36461690893859106 0.3463489820432636
0.3593552592782935 0.36806106486814494 0.34933054564892424
0.3628424346944286 0.3714284729374483 0.35223883549051654
0.3662134061636299 0.3746742202250575 0.3550846513504458
0.36949279031747184 0.3778256854926276 0.3578614415107788
0.3727824258191894 0.38095644935775214 0.3606624684468744
0.3760723982125551 0.38407301177856934 0.3634697218256856
0.3794565369487732 0.38725052118259323 0.36635182607606936
0.38290363544070455 0.39047427970920934 0.3692866322943486
0.38637422180642605 0.3937055276368465 0.37223327802832257
0.3898593409475531 0.39694250376657875 0.3751876984676884
0.39329046431498976 0.40014839469239655 0.37811915262337115
0.39666857362493385 0.4033140152258798 0.38101497274867624
0.3998842038402638 0.40636079717218054 0.3838180028013358
0.4029493524878631 0.409283413765919 0.386513121905809
0.40577181290967584 0.411982977807489 0.38904651344275987
0.40836722380224444 0.41446802929916043 0.3914059801807001
0.4107375042908107 0.41673091070159335 0.39361251066703257
0.41289294628186834 0.418780830860438 0.3956547962752158
0.41491650358430127 0.4207038668028105 0.397602886689395
0.41681538681692426 0.422505848684984 0.3994544481126406
0.4187615012687421 0.4243606951999739 0.40134627168269793
0.42075138005883694 0.4262637372607889 0.4032763049381207
0.42289859099058213 0.4283286221402955 0.40532243602305573
0.4251975712128814 0.4305490748376676 0.40748542596717713
0.42762544725896356 0.43290811642702576 0.40975703544256187
0.43018190758362057 0.43540444350849133 0.41213889074756344
0.4327821138386846 0.43794808762498 0.41458474952432367
0.4354275210031098 0.4405403435240614 0.41709515469358266
0.43807832385606094 0.44311724825672427 0.41961260078496115
0.4407343429411054 0.4456782299834175 0.42213694258458406
0.44345257881523437 0.4482888064189267 0.42471577551339773
0.44623364970319473 0.45094852457147144 0.42734910616156163
0.4491139724014948 0.45371961928248467 0.4300640844067103
0.4520966377386891 0.45660708162253344 0.4328611668275522
0.45510159565474645 0.4595531166824062 0.43565861843463954
0.4581225742509591 0.46255990051788337 0.4384452279609517
0.46112281453342346 0.4655819346837768 0.4412102160435827
0.46408710082730303 0.4686152713493969 0.44393827856801527
0.4671071633138599 0.4717261956242366 0.44674332196020733
0.47018121275398767 0.47492155860863056 0.449632370313411
0.47334311221623443 0.4782056551269272 0.4526229866459401
0.47660350251439126 0.4815893891373864 0.45573297615174174
0.47987715388194946 0.4849645669619593 0.4588469231922733
0.48317221393636584 0.48832616562861125 0.46196752384559475
0.48639313350016705 0.4915880147001193 0.4649990272256416
0.48955162299209304 0.4947437498052401 0.4679422293398066
0.49252855284603575 0.4977069577313154 0.4706948053599313
0.4953231664012942 0.5004681041706168 0.4732475792117859
0.4978561169981533 0.5029642408555365 0.4755350624806735
0.5001100040215073 0.5051752295360048 0.477534829210756
0.5021244569365004 0.507144808855901 0.4793019913250051
0.5038914489321973 0.5088632555851262 0.4808342677317243
0.5055054057946827 0.5104260858162983 0.4822358422140896
0.5069758174704867 0.5118399069270932 0.4835428886531839
0.5083782797230715 0.5131668093428058 0.4847894314025442
0.5097303908254618 0.5143974227866925 0.4860029349928821
0.5111181508056831 0.5156440335512322 0.4872454541383539
0.5125671262008463 0.5169002863858653 0.4885321507012759
0.5141856819792032 0.5183220788141258 0.48998290201091715
0.5160272183386292 0.5199552978358118 0.49164330344500445
0.5180508874916694 0.5217778299206373 0.4934808839635845
0.5202769483286396 0.5238251004407992 0.4955089282372908
0.5225558146092266 0.5259386877624339 0.49758811919014895
0.5248177368981723 0.5280814731133467 0.4996469055409904
0.527079354120537 0.5302382585059735 0.5017107141546904
0.529288122235881 0.5323956768462782 0.5037424361935485
0.5315358493848866 0.5345991162173609 0.5058154628037395
0.5338179245898559 0.5368659048436393 0.5079340787962666
0.5361867526338137 0.5392171804471566 0.5101352440016748
0.5386512634082881 0.5416537799615648 0.5124162982109043
0.5412585495394725 0.5442274497319047 0.5148377986821943
0.5440318096278581 0.5469380922109407 0.5174193174186039
0.5470254142171759 0.5498664550594926 0.5202193880860341
0.5502831611596628 0.5530439696759093 0.5232834275843964
0.5538079353222114 0.5564907069879078 0.5266143451949881
0.5576432218614132 0.5602623838972633 0.5302690818630671
0.5616646501577979 0.5642210794722335 0.5341101649513811
0.5658481348904083 0.5683489166977547 0.5381274091811601
0.5700349345678926 0.5724793003599632 0.5421488742467139
0.5741317817460168 0.5765142583815608 0.5460905343821042
0.5780995390522217 0.5804188754336688 0.5499073464835673
0.5818876542291643 0.5841328336485634 0.5535794985797774
0.5855133501866684 0.5876819517350694 0.5570944601293305
0.5889487624157818 0.5910119636477682 0.5604703632469072
0.5923204146182094 0.594278678722286 0.5637890170931598
0.5956943522222755 0.5975595167725153 0.5672104115848756
0.5991400402972907 0.6009137879109531 0.5707062811020741
0.6027243043604504 0.604451302691096 0.5744145405852644
0.6063831529638323 0.6080642878742504 0.5781972453017464
0.6100942761024127 0.6117680626792924 0.5820324437115267
0.6137031830585016 0.6153698729958319 0.5857662481922258
0.6170480624163013 0.6187396725835692 0.5891649076326007
0.6200712316111627 0.6217877500568811 0.5922448796457188
0.6226095312673315 0.6243699767775097 0.594738224704169
0.6247568911465124 0.626561379318388 0.5968431199691662
0.6265004813064384 0.6283530366144721 0.5984820831034862
0.6279841038971639 0.6298848019672112 0.5998616348630307
0.6293260847055236 0.6312815289576322 0.6011027466848877
0.6306386998076822 0.6326491962257889 0.6023147744624511
0.6320881571986025 0.6341673509151958 0.603687575035146
0.6337006388144864 0.6358494378864811 0.6052234510461787
0.6355758853791529 0.6378037339378375 0.6070196003245073
0.6376891480221204 0.6399969317562566 0.6090516863778784
0.6400917586141429 0.6424542739945853 0.6113316540246385
0.6426903853523447 0.6451053730280106 0.6138021844597243
0.6454245991608204 0.647841696983812 0.6163372307323955
0.6482525911770222 0.6506660734934505 0.6189570854502917
0.6511321664874185 0.6534992164009378 0.6215599097090628
0.6540725847327885 0.6563874125944072 0.6242136218568303
0.6571290223576295 0.6593608769929019 0.6269799589691818
0.6602750742881399 0.6624190970554603 0.6298344615580739
0.6635343137334418 0.6655528344941617 0.6328391992727381
0.6668910260097973 0.6687772324381503 0.6359470163275639
0.6703938540715845 0.672106591312149 0.6392457254743321
0.6739847382663935 0.675515575015321 0.6426406953518359
0.6776242425865937 0.6789389131766674 0.646101719522178
0.681275012846478 0.6823656051424039 0.6495777677038727
0.6848881252969679 0.6857126437804073 0.6529921914769377
0.6884378968023268 0.6889856759230527 0.6563377513799967
0.6918832964847865 0.6921161476048254 0.6595171362511537
0.6952328922559462 0.6951401400307009 0.6625844225551303
0.6985360873305019 0.6980942055174917 0.6655622238699548
0.7017931759389505 0.7009948488492673 0.6684812221959472
