obsidian/Clippings/写真家活動/技法探求/デジタルネガ探究/QTR/プロファイル作成/QTR-DN/QTR-DN/古い/選択項目から作成したフォルダ 2/選択項目から作成したフォルダ/MC5/PtPd-K41-415s-v3-MC5-finalLUTsoftproof.cube
#Color Lookup Table 
TITLE "QuadToneProfiler Color Lookup Table for 256-step Soft Proof
LUT_1D_SIZE 256
DOMAIN_MIN 0.0 0.0 0.0
DOMAIN_MAX 1.0 1.0 1.0
0.23841903093829075 0.25422789430093806 0.24814492302226626
0.23993483424168582 0.2562332360367668 0.2518669855628495
0.24054848019365466 0.25759907031531887 0.2529401879654794
0.24125843042871153 0.25896025345097706 0.2540364303209857
0.24198086145909725 0.2603470846530829 0.25515331087724014
0.24313534481488036 0.26165396376858596 0.25619072928987613
0.24433567373692067 0.2629884564587921 0.2572494672185028
0.2455844467014044 0.26435484811413545 0.2583357462530764
0.24693164292980813 0.26574175304185094 0.25948077913150386
0.24848167810686933 0.26712062594769076 0.26073171437771714
0.2500863760850088 0.26854388161110804 0.2620288435549849
0.25174962863972417 0.27001500628255276 0.2633752812603758
0.25345210502083587 0.2715464981968894 0.2647464631949496
0.2552117464046151 0.27313607865822925 0.2661612355425196
0.2570395692108665 0.2747848979932462 0.2676217273148915
0.25901257766308794 0.2764753902829076 0.2691238832742459
0.26116680095273753 0.27820169989643606 0.27066246067770944
0.2634313812497202 0.27998750669028527 0.272240540907906
0.26569528989494723 0.2818713613010156 0.273822678320508
0.2680269897835095 0.2838322807617142 0.2754711536322872
0.2703734627457802 0.28588808235926044 0.27719326579928466
0.2727745480469038 0.2880302346893118 0.2789917644995799
0.27525473723108446 0.2902537672340668 0.2808729100491147
0.27782248826576655 0.29255933336036316 0.28284074105301726
0.28047899185902836 0.29494885990987696 0.2848868954960003
0.2832250766768353 0.2974251802245767 0.28700932388616385
0.2860653881474051 0.29998820690422406 0.28920689503029495
0.28899845794911866 0.3026320096071858 0.29146844901912045
0.2920178860274718 0.30534818225292804 0.2937840746325153
0.2951351238201151 0.30812365130267455 0.2961372508435725
0.2983377425556434 0.3109518072815049 0.29851578923296695
0.30161654228056894 0.3138240160319247 0.300920803506596
0.30493193712059685 0.3167412798421069 0.30335791560562875
0.3082565092237173 0.31970100838250104 0.30583753905274147
0.31155084016330375 0.3227038344235562 0.30837916044398345
0.3148363691954601 0.3257355522269081 0.31097668706736836
0.3181188347614968 0.3287876097151197 0.3136163382869183
0.3214055800711952 0.331852602301528 0.3162729719417975
0.32470023287734046 0.33492426231005307 0.31892854271500126
0.32800362051436294 0.3379976736163023 0.32156785128209064
0.33130869382569705 0.34107038675701323 0.3241863327252915
0.33460504583889994 0.3441384444640722 0.32681159575875973
0.33787292035336325 0.34720161829322166 0.32947217054706146
0.34108684719869153 0.3502625735672793 0.33218519375910605
0.34424824373051577 0.35332051906779566 0.33491868329041763
0.3473758614724943 0.35637092802968817 0.33762664381026875
0.35049311632741187 0.35940448549883985 0.34030790011167344
0.35360399429268125 0.3624181003888887 0.342963911526265
0.35671260251969805 0.3654092097632706 0.34558971678341166
0.359813782199849 0.3683776259641633 0.34818893901143877
0.362907386385122 0.3713215965579244 0.35077272039225676
0.36599238329938766 0.3742403645726049 0.353343831370161
0.36906289684121313 0.3771342999281338 0.35590845550964495
0.37211495341912304 0.38000337063978384 0.35847667532651484
0.3751463690475987 0.3828482789733233 0.3610441673883734
0.37815040084335994 0.3856701220511158 0.36361744254420925
0.38112797675895516 0.3884690314357771 0.36619015536481625
0.3840801868296815 0.39124503444243464 0.36875493093995254
0.38700741618782686 0.39399867735768274 0.3713083616134183
0.38991107348463117 0.3967295212669923 0.3738443289289163
0.39279168879047127 0.39943814679910283 0.3763619870758248
0.39564929473383875 0.4021242254718814 0.37886093061874127
0.3984866756881655 0.40478755118755927 0.3813417002009482
0.40130317019046324 0.4074282666455935 0.3838041527001422
0.4041021555993979 0.41004562774767894 0.3862508340107459
0.4068849262964558 0.41263923535609287 0.38868273600097974
0.40965417972652396 0.415208660919187 0.391101967746389
0.4124146515631764 0.4177529644615305 0.3935154399635492
0.41516813931332236 0.42027354631403074 0.39592499786379315
0.4179174788330472 0.42277179488308175 0.39833315179097073
0.42066460790594395 0.4252486101149384 0.40074163639724214
0.4234136437261801 0.4277045147491119 0.4031530105662374
0.42615866946431724 0.43014505422496163 0.40554250892016674
0.4289025772177162 0.4325718508821767 0.4078948769773544
0.431648875946212 0.43498799559120915 0.41017738491136646
0.43438855840696117 0.43739983660277626 0.41235954095036603
0.4371140137666718 0.4398092157955287 0.4144646640395001
0.4398172471109497 0.4422187607638978 0.41650598017257834
0.44249718864581206 0.4446255269178366 0.41853712631205564
0.44516185891580234 0.4470266181265548 0.4205782202372724
0.4478203872226067 0.4494195644893694 0.42263688983755665
0.45048129441929935 0.4518023980054448 0.424715817033513
0.45310947368580995 0.45418615692780967 0.42682665144744975
0.4556706832067869 0.456580938339237 0.428982861169505
0.4581779963093689 0.45898430686432007 0.43117643000519734
0.4606294695700413 0.4613975657717622 0.43340723082675314
0.4630679191890544 0.46380919109292557 0.4356627310391556
0.46548981934365435 0.46622032957868315 0.43795096026441377
0.4679156075624738 0.46862689168504096 0.44025383313197736
0.470351550266415 0.4710265420600466 0.4425815351123485
0.4727954998216028 0.47342212543837553 0.44491590268057885
0.47525338287705604 0.4758127378124208 0.4472529376724543
0.47772973300174265 0.47819753297895523 0.44959252232982566
0.48021312861421633 0.480581223017887 0.45192581813392824
0.48271590779383217 0.4829615366853635 0.4542423343582647
0.48522642923442844 0.48534192581039987 0.4565507387349949
0.48774220690828235 0.48772355788270466 0.458851295645154
0.49027302259422584 0.49010572699565785 0.46112279376542403
0.49280754412167355 0.4924903447430961 0.46339018852211494
0.4953470864710114 0.4948780999444347 0.4656476212266238
0.497892957003855 0.4972696197139627 0.4678891573917014
0.5004407584422998 0.49966569221903595 0.47012763886817405
0.5029834591061609 0.5020693317849031 0.4723589117209122
0.5055257865513174 0.5044792551473872 0.4745870377603724
0.5080710030463444 0.5068946471391701 0.47681638529519993
0.5106091361524586 0.5093189433977022 0.479048747279973
0.5131608857117782 0.5117465811083246 0.4812798317493316
0.5157381919244632 0.5141737772694953 0.48351601506298686
0.518340345911135 0.5166018601582373 0.4857505285750378
0.5209939229328632 0.5190228222534697 0.4879853545144606
0.5236896646961691 0.5214404889226246 0.49021574631147086
0.5264371696505145 0.5238525474205643 0.49243743669701817
0.5291793004657737 0.5262776784118666 0.49464937349359467
0.5318857570118273 0.5287258398725249 0.49684983760664886
0.5345312888583216 0.5312058373248818 0.49903514347163863
0.5371470706622975 0.5337071117478972 0.5012235355603796
0.5397092523852494 0.5362374180365647 0.503417189118218
0.5422688793364684 0.5387804979698197 0.5056289262196666
0.5448029153735826 0.5413420118836959 0.5078858700455796
0.5473465248012629 0.5439133844969957 0.5101642107428419
0.5498936172370383 0.5464941863431819 0.5125012382629135
0.5524533598129238 0.5490850313462358 0.5148610573180818
0.5550327097893519 0.5516820459511385 0.5172751946863724
0.5576257577345058 0.5542898523327803 0.5197145225851308
0.5602326428480707 0.5569085129509972 0.5221884067040767
0.5628537284590902 0.5595385267840606 0.5246969131673321
0.5654886338999302 0.562182105928696 0.527223488960401
0.5681288871666145 0.5648410120715296 0.5297889183917058
0.5707804635240757 0.5675153138257885 0.5323796572419007
0.5734478443738688 0.5702050485798466 0.5349867119704937
0.5761266875925519 0.5729110551197788 0.5376290652726364
0.5788206469632112 0.5756339860106088 0.5402951147072654
0.5815321346574849 0.5783743963972243 0.5429785861732604
0.5842698743938399 0.581129186718997 0.5456990790862509
0.5870298290723621 0.5839013600465133 0.5484462824104003
0.5898094949115541 0.5866932822783046 0.5512133808562499
0.5926229262480783 0.5895012982858476 0.5540073134688352
0.5954635216542422 0.5923287726236318 0.5568254514892879
0.5983270224275488 0.5951784659246822 0.5596664298238785
0.6012374206673925 0.598044611246903 0.5625241627172566
0.6041783819865906 0.6009326196821853 0.5654041450080429
0.6071476643887842 0.6038430341622714 0.5683068929503253
0.6101628739643461 0.6067706532515093 0.5712265720326424
0.6132046774911338 0.6097208452067038 0.5741693211935838
0.6162770511361713 0.6126926037711465 0.5771282083414874
0.6193779869508025 0.615686021335669 0.5801051932243999
0.6225028203259461 0.6187023964421677 0.5831007745661451
0.6256474401450842 0.6217431352147548 0.5861075731869478
0.6288173691546053 0.6248055552058915 0.5891333409229189
0.6320177758205557 0.6278891751846248 0.5921596089841183
0.6352462741318466 0.6309928836135127 0.5952027233897338
0.6385051302749865 0.6341146355055154 0.5982742406254177
0.6417895669327424 0.6372558349555644 0.6013693516834934
0.6450941643333873 0.6404172661153389 0.6044922664850949
0.6484143296759548 0.6436030089672808 0.6076023819895526
0.6517459487500916 0.6468130919984527 0.610708317476682
0.655080846511287 0.6500493756665419 0.6138086535501585
0.6584217332813426 0.6533085675704463 0.6169279568326347
0.6617728259474769 0.6565883453451323 0.6200680420656004
0.6651326636672364 0.6598850450344484 0.6232713819486085
0.6685180449892165 0.6631936992110657 0.6265236087436086
0.6719420751948877 0.6665084246785817 0.6298361947210678
0.6754126207918177 0.6698277116099671 0.6331857722585948
0.6788982935252312 0.6731694395790772 0.6364570470163139
0.6823926640666582 0.6765339031696006 0.6396593459138958
0.6859085658624916 0.6799121995460485 0.6428395640006498
0.6894397736868062 0.6833030478223591 0.6460265608350606
0.692981752196724 0.6867057299931051 0.6492318631511691
0.6965321690342158 0.6901182109215312 0.6524749039789906
0.7000974084993008 0.6935365338508979 0.6557651577866049
0.7036825339268858 0.6969570505606602 0.6591118975375185
0.7072849582123476 0.7003792263107832 0.662514789229222
0.7109011414124986 0.7038036678650512 0.6659617497135293
0.7145172094597994 0.707234713795111 0.6694352584500488
0.7181320010777967 0.7106723596731588 0.6729204650639644
0.721741519476991 0.7141176397252542 0.676400366816513
0.7253462682841938 0.7175684196997733 0.6798799053546686
0.7289430826700515 0.7210234785502939 0.6833672411468847
0.7325336426466345 0.7244808437579454 0.6868581964979994
0.7361140021552187 0.7279403086095606 0.6903495625592903
0.739686466272361 0.7313995070179147 0.6938394992988164
0.7432488983749042 0.7348572394122633 0.6973297605760236
0.746801138110405 0.7383118050070767 0.7008190154501407
0.7503456866775448 0.741760199163719 0.7043112497775451
0.753884271494084 0.7451996886893324 0.707810251932087
0.7574128685154743 0.7486291988544608 0.7113214186070642
0.7609271494700082 0.7520476233430782 0.7148506886331716
0.7644146133149886 0.7554572406923145 0.7183956579225055
0.7678653657404039 0.7588590459889137 0.7219567382852868
0.7712719443826355 0.7622536331997458 0.7255301311402754
0.7746306119346513 0.7656420325432572 0.7290941057197847
0.7779359436300769 0.7690255089317204 0.7326274248948704
0.781173876607633 0.772407617643764 0.7361159170288343
0.7843546397482289 0.7757822498637446 0.7395701427716388
0.7874892767334825 0.7791424125518979 0.743009733195899
0.7905928407068564 0.7824803793327536 0.7464454303689808
0.7936752854380636 0.7857903997386996 0.7498862737177332
0.7967393906241284 0.7890700009924871 0.7533267193653519
0.7997848699635315 0.7923172810607847 0.7567676039271537
0.802812209537322 0.7955313287524093 0.7601932378749552
0.8058211473878588 0.798710817447475 0.7636015010448942
0.8088106406295017 0.8018566740972554 0.7669793676902104
0.8117815754627006 0.8049699268099142 0.7703190532009313
0.8147345214085875 0.8080513264523637 0.7736200200008179
0.817666766804626 0.8111028970245144 0.7768769999539745
0.8205838303279636 0.8141243546675002 0.7800808610665956
0.8234777142422091 0.8171181674654509 0.7832408728940252
0.8263509092004426 0.8200849836252885 0.7863486988045048
0.8292053390607975 0.8230247982575101 0.7894069342709891
0.8320435390893102 0.8259368593426898 0.7924251519033403
0.8348734981636879 0.828820152779988 0.7953934124214196
0.8376935999724594 0.8316749449211619 0.7983236572046664
0.8405156648189538 0.8344992414261839 0.8012047640749121
0.8433186613927789 0.8372994105957082 0.8040494733244083
0.8461070818862254 0.8400756267906788 0.8068476961347696
0.848870761257745 0.8428313755232886 0.809604982452925
0.8516081444709845 0.845569256046171 0.8123035874534998
0.854320777511488 0.8482881330037274 0.8149626048884073
0.8570055246134564 0.8509911472707304 0.8175646405694842
0.8596678300400237 0.8536755124066575 0.8201330922763339
0.8623105324935502 0.8563404777229894 0.8226751941209274
0.8649359282160525 0.8589848673873182 0.8252062536389517
0.8675501182131826 0.8616049311984131 0.827759723876496
0.8701552853143372 0.8642004293087046 0.8303398700969871
0.8727609077692161 0.866765632318052 0.8329906677899855
0.875357961539484 0.869307164700342 0.8356739493055335
0.8779481774803877 0.8718242629421243 0.8384029113210751
0.8805199145204484 0.8743249853706575 0.8411325769815153
0.8830738888012862 0.8768089681664875 0.8438743376063313
0.8856107232611504 0.8792793549419988 0.8465963432742295
0.8881284226909499 0.8817364523427129 0.849312035110013
0.8906311060385957 0.8841805375370084 0.8520124862369756
0.893117729774021 0.8866121664606081 0.8547051839702593
0.8955896366879841 0.8890315017003797 0.8573923599137118
0.8980495696731969 0.8914384280811014 0.8600740820712858
0.9004980027472627 0.8938309487191831 0.8627840025583056
0.9029357877721945 0.896211803200604 0.8654947843567197
0.9053626015027731 0.898580683278118 0.8682213984675977
0.9077783251482622 0.9009381783870464 0.8709669054524891
0.9101809029280724 0.9032867691950418 0.8737182616829616
0.9125629295373127 0.90562927782396 0.8764798489698075
0.9149469085741694 0.9079608299014431 0.8792345274559303
0.9173753008210283 0.9102692159789676 0.8819788740166006
0.9197846955656372 0.9125758817743818 0.8847032302848856
0.9220920326921004 0.9149166607523285 0.8872975551663719
0.9243599520244015 0.9172651915420635 0.8898548478977668
0.9265340006491841 0.9196429557559581 0.8923308941981559
0.9286495127203556 0.9220342161367482 0.8947927419884238
0.9306094815158275 0.9244502962432187 0.8974847633854537
0.9324426560058373 0.9268904363659257 0.900314442303258
0.9341283093263215 0.9293632467930166 0.9032642287696829
0.9356634541391907 0.931922970291554 0.9056875703865088
0.9372296016488351 0.9345002205118702 0.9077499265807494
0.9387617440740784 0.9370936054816017 0.909727445827465
0.9402848824022676 0.9396871025115782 0.9117318589596526
0.942822358867119 0.9413450307468428 0.9213362306159963
0.23841903093829075 0.25422789430093806 0.24814492302226626
0.23993483424168582 0.2562332360367668 0.2518669855628495
0.24054848019365466 0.25759907031531887 0.2529401879654794
0.24125843042871153 0.25896025345097706 0.2540364303209857
0.24198086145909725 0.2603470846530829 0.25515331087724014
0.24313534481488036 0.26165396376858596 0.25619072928987613
0.24433567373692067 0.2629884564587921 0.2572494672185028
0.2455844467014044 0.26435484811413545 0.2583357462530764
0.24693164292980813 0.26574175304185094 0.25948077913150386
0.24848167810686933 0.26712062594769076 0.26073171437771714
0.2500863760850088 0.26854388161110804 0.2620288435549849
0.25174962863972417 0.27001500628255276 0.2633752812603758
0.25345210502083587 0.2715464981968894 0.2647464631949496
0.2552117464046151 0.27313607865822925 0.2661612355425196
0.2570395692108665 0.2747848979932462 0.2676217273148915
0.25901257766308794 0.2764753902829076 0.2691238832742459
0.26116680095273753 0.27820169989643606 0.27066246067770944
0.2634313812497202 0.27998750669028527 0.272240540907906
0.26569528989494723 0.2818713613010156 0.273822678320508
0.2680269897835095 0.2838322807617142 0.2754711536322872
0.2703734627457802 0.28588808235926044 0.27719326579928466
0.2727745480469038 0.2880302346893118 0.2789917644995799
0.27525473723108446 0.2902537672340668 0.2808729100491147
0.27782248826576655 0.29255933336036316 0.28284074105301726
0.28047899185902836 0.29494885990987696 0.2848868954960003
0.2832250766768353 0.2974251802245767 0.28700932388616385
0.2860653881474051 0.29998820690422406 0.28920689503029495
0.28899845794911866 0.3026320096071858 0.29146844901912045
0.2920178860274718 0.30534818225292804 0.2937840746325153
0.2951351238201151 0.30812365130267455 0.2961372508435725
0.2983377425556434 0.3109518072815049 0.29851578923296695
0.30161654228056894 0.3138240160319247 0.300920803506596
0.30493193712059685 0.3167412798421069 0.30335791560562875
0.3082565092237173 0.31970100838250104 0.30583753905274147
0.31155084016330375 0.3227038344235562 0.30837916044398345
0.3148363691954601 0.3257355522269081 0.31097668706736836
0.3181188347614968 0.3287876097151197 0.3136163382869183
0.3214055800711952 0.331852602301528 0.3162729719417975
0.32470023287734046 0.33492426231005307 0.31892854271500126
0.32800362051436294 0.3379976736163023 0.32156785128209064
0.33130869382569705 0.34107038675701323 0.3241863327252915
0.33460504583889994 0.3441384444640722 0.32681159575875973
0.33787292035336325 0.34720161829322166 0.32947217054706146
0.34108684719869153 0.3502625735672793 0.33218519375910605
0.34424824373051577 0.35332051906779566 0.33491868329041763
0.3473758614724943 0.35637092802968817 0.33762664381026875
0.35049311632741187 0.35940448549883985 0.34030790011167344
0.35360399429268125 0.3624181003888887 0.342963911526265
0.35671260251969805 0.3654092097632706 0.34558971678341166
0.359813782199849 0.3683776259641633 0.34818893901143877
0.362907386385122 0.3713215965579244 0.35077272039225676
0.36599238329938766 0.3742403645726049 0.353343831370161
0.36906289684121313 0.3771342999281338 0.35590845550964495
0.37211495341912304 0.38000337063978384 0.35847667532651484
0.3751463690475987 0.3828482789733233 0.3610441673883734
0.37815040084335994 0.3856701220511158 0.36361744254420925
0.38112797675895516 0.3884690314357771 0.36619015536481625
0.3840801868296815 0.39124503444243464 0.36875493093995254
0.38700741618782686 0.39399867735768274 0.3713083616134183
0.38991107348463117 0.3967295212669923 0.3738443289289163
0.39279168879047127 0.39943814679910283 0.3763619870758248
0.39564929473383875 0.4021242254718814 0.37886093061874127
0.3984866756881655 0.40478755118755927 0.3813417002009482
0.40130317019046324 0.4074282666455935 0.3838041527001422
0.4041021555993979 0.41004562774767894 0.3862508340107459
0.4068849262964558 0.41263923535609287 0.38868273600097974
0.40965417972652396 0.415208660919187 0.391101967746389
0.4124146515631764 0.4177529644615305 0.3935154399635492
0.41516813931332236 0.42027354631403074 0.39592499786379315
0.4179174788330472 0.42277179488308175 0.39833315179097073
0.42066460790594395 0.4252486101149384 0.40074163639724214
0.4234136437261801 0.4277045147491119 0.4031530105662374
0.42615866946431724 0.43014505422496163 0.40554250892016674
0.4289025772177162 0.4325718508821767 0.4078948769773544
0.431648875946212 0.43498799559120915 0.41017738491136646
0.43438855840696117 0.43739983660277626 0.41235954095036603
0.4371140137666718 0.4398092157955287 0.4144646640395001
0.4398172471109497 0.4422187607638978 0.41650598017257834
0.44249718864581206 0.4446255269178366 0.41853712631205564
0.44516185891580234 0.4470266181265548 0.4205782202372724
0.4478203872226067 0.4494195644893694 0.42263688983755665
0.45048129441929935 0.4518023980054448 0.424715817033513
0.45310947368580995 0.45418615692780967 0.42682665144744975
0.4556706832067869 0.456580938339237 0.428982861169505
0.4581779963093689 0.45898430686432007 0.43117643000519734
0.4606294695700413 0.4613975657717622 0.43340723082675314
0.4630679191890544 0.46380919109292557 0.4356627310391556
0.46548981934365435 0.46622032957868315 0.43795096026441377
0.4679156075624738 0.46862689168504096 0.44025383313197736
0.470351550266415 0.4710265420600466 0.4425815351123485
0.4727954998216028 0.47342212543837553 0.44491590268057885
0.47525338287705604 0.4758127378124208 0.4472529376724543
0.47772973300174265 0.47819753297895523 0.44959252232982566
0.48021312861421633 0.480581223017887 0.45192581813392824
0.48271590779383217 0.4829615366853635 0.4542423343582647
0.48522642923442844 0.48534192581039987 0.4565507387349949
0.48774220690828235 0.48772355788270466 0.458851295645154
0.49027302259422584 0.49010572699565785 0.46112279376542403
0.49280754412167355 0.4924903447430961 0.46339018852211494
0.4953470864710114 0.4948780999444347 0.4656476212266238
0.497892957003855 0.4972696197139627 0.4678891573917014
0.5004407584422998 0.49966569221903595 0.47012763886817405
0.5029834591061609 0.5020693317849031 0.4723589117209122
0.5055257865513174 0.5044792551473872 0.4745870377603724
0.5080710030463444 0.5068946471391701 0.47681638529519993
0.5106091361524586 0.5093189433977022 0.479048747279973
0.5131608857117782 0.5117465811083246 0.4812798317493316
0.5157381919244632 0.5141737772694953 0.48351601506298686
0.518340345911135 0.5166018601582373 0.4857505285750378
0.5209939229328632 0.5190228222534697 0.4879853545144606
0.5236896646961691 0.5214404889226246 0.49021574631147086
0.5264371696505145 0.5238525474205643 0.49243743669701817
0.5291793004657737 0.5262776784118666 0.49464937349359467
0.5318857570118273 0.5287258398725249 0.49684983760664886
0.5345312888583216 0.5312058373248818 0.49903514347163863
0.5371470706622975 0.5337071117478972 0.5012235355603796
0.5397092523852494 0.5362374180365647 0.503417189118218
0.5422688793364684 0.5387804979698197 0.5056289262196666
0.5448029153735826 0.5413420118836959 0.5078858700455796
0.5473465248012629 0.5439133844969957 0.5101642107428419
0.5498936172370383 0.5464941863431819 0.5125012382629135
0.5524533598129238 0.5490850313462358 0.5148610573180818
0.5550327097893519 0.5516820459511385 0.5172751946863724
0.5576257577345058 0.5542898523327803 0.5197145225851308
0.5602326428480707 0.5569085129509972 0.5221884067040767
0.5628537284590902 0.5595385267840606 0.5246969131673321
0.5654886338999302 0.562182105928696 0.527223488960401
0.5681288871666145 0.5648410120715296 0.5297889183917058
0.5707804635240757 0.5675153138257885 0.5323796572419007
0.5734478443738688 0.5702050485798466 0.5349867119704937
0.5761266875925519 0.5729110551197788 0.5376290652726364
0.5788206469632112 0.5756339860106088 0.5402951147072654
0.5815321346574849 0.5783743963972243 0.5429785861732604
0.5842698743938399 0.581129186718997 0.5456990790862509
0.5870298290723621 0.5839013600465133 0.5484462824104003
0.5898094949115541 0.5866932822783046 0.5512133808562499
0.5926229262480783 0.5895012982858476 0.5540073134688352
0.5954635216542422 0.5923287726236318 0.5568254514892879
0.5983270224275488 0.5951784659246822 0.5596664298238785
0.6012374206673925 0.598044611246903 0.5625241627172566
0.6041783819865906 0.6009326196821853 0.5654041450080429
0.6071476643887842 0.6038430341622714 0.5683068929503253
0.6101628739643461 0.6067706532515093 0.5712265720326424
0.6132046774911338 0.6097208452067038 0.5741693211935838
0.6162770511361713 0.6126926037711465 0.5771282083414874
0.6193779869508025 0.615686021335669 0.5801051932243999
0.6225028203259461 0.6187023964421677 0.5831007745661451
0.6256474401450842 0.6217431352147548 0.5861075731869478
0.6288173691546053 0.6248055552058915 0.5891333409229189
0.6320177758205557 0.6278891751846248 0.5921596089841183
0.6352462741318466 0.6309928836135127 0.5952027233897338
0.6385051302749865 0.6341146355055154 0.5982742406254177
0.6417895669327424 0.6372558349555644 0.6013693516834934
0.6450941643333873 0.6404172661153389 0.6044922664850949
0.6484143296759548 0.6436030089672808 0.6076023819895526
0.6517459487500916 0.6468130919984527 0.610708317476682
0.655080846511287 0.6500493756665419 0.6138086535501585
0.6584217332813426 0.6533085675704463 0.6169279568326347
