obsidian/Clippings/写真家活動/技法探求/デジネガ/QTR/プロファイル作成/QTR-DN/QTR-DN/古い/選択項目から作成したフォルダ 2/選択項目から作成したフォルダ/MC7/PtPd-K41-415s-v3-MC7-finalLUTsoftproof.cube
#Color Lookup Table 
TITLE "QuadToneProfiler Color Lookup Table for 256-step Soft Proof
LUT_1D_SIZE 256
DOMAIN_MIN 0.0 0.0 0.0
DOMAIN_MAX 1.0 1.0 1.0
0.23841903093829075 0.25422789430093806 0.24814492302226626
0.25079111366411644 0.2691672203559636 0.2625993586576373
0.25492551064560154 0.27287760911114317 0.265931495723833
0.25857062456558777 0.27611995189809296 0.26880690130891655
0.26211260864171465 0.27894614761371717 0.2713233027841581
0.2653061579790158 0.2815391958933238 0.27353635303704876
0.26820046879990345 0.2839543184074326 0.2755514392303102
0.2708366996916068 0.28622892887370505 0.2774679608275651
0.27329923387689037 0.28837799709380363 0.279293293734638
0.2756141651816734 0.2904228253578932 0.2810390994473472
0.27781344093137655 0.2923788461633396 0.28271540217205055
0.27991746167066195 0.2942560793981706 0.28432878791798355
0.28191848940075936 0.29607342379825624 0.28587100780193475
0.2838501359691228 0.29783086461451125 0.2873619540003433
0.28572009204191834 0.2995356460184725 0.2888077773457828
0.287536618153687 0.3011954595137579 0.29021566364602175
0.2893091697684894 0.302815738376628 0.29158959857151734
0.29104478892871816 0.30440160420573825 0.2929321141692592
0.29275095903243775 0.3059554535230364 0.2942499671803207
0.294433896981262 0.3074799849990514 0.29554698363619275
0.2960937140643866 0.30897919782468164 0.29681963424526875
0.29773124869866524 0.3104557439852508 0.298071341707213
0.2993554455523467 0.3119101658728702 0.29929564242363926
0.3009614813017243 0.3133455563861926 0.3005009417322941
0.3025545235100732 0.31476286623488914 0.30168326072428525
0.3041261899097413 0.31616526740135487 0.3028544549969192
0.30567810412209334 0.3175538088490411 0.3040152669822526
0.3072153839520778 0.31892857683911324 0.3051614751343937
0.3087367377044138 0.32029041206021075 0.30630483385807217
0.31023976602384873 0.3216397183712954 0.30746101740495535
0.31172936983670363 0.3229775421087033 0.30861231071569806
0.31320656521942963 0.32430457041170907 0.3097574218360143
0.31466595824877847 0.32562276580128935 0.3109005395863665
0.31611383910321406 0.32693146687813535 0.31203603140456065
0.31755041727101263 0.3282313672940336 0.3131647955711868
0.31897387192007 0.32952334408710765 0.31428642776985644
0.32038519987071395 0.33080795927186607 0.3154014319264405
0.3217867153699523 0.3320848690608773 0.3165084493642788
0.32317887082142566 0.33335442061208054 0.31760775700736116
0.3245562914587023 0.3346192585293737 0.3186935369360443
0.32592534121970795 0.3358772441460726 0.31977095037160286
0.32728615885393714 0.3371289747198458 0.32083919758512264
0.32863232700619843 0.33837684034246385 0.32189631174582456
0.32996832223591555 0.3396195087189315 0.3229452823060731
0.3312949150201687 0.34085721847947487 0.323982469696765
0.33260818098375433 0.34209071175365185 0.32502064865185526
0.33390621397020614 0.3433204773000852 0.3260615096389908
0.33519280358250125 0.344545944619059 0.32710024525649495
0.3364670674993281 0.3457671864612877 0.32814412219245137
0.3377248983446534 0.3469849986235305 0.3292010035861938
0.33897086899434525 0.34819864020176006 0.33026359025272
0.3402058767632429 0.34940846399817527 0.33132807025250843
0.3414256893852446 0.3506156000542987 0.3323977402138968
0.3426354960129566 0.35181886671512796 0.3334693480581709
0.343838774204801 0.3530177199853442 0.33453977036113997
0.34504141428781115 0.3542098158710125 0.33561605921679827
0.3462398472323085 0.3553971932380306 0.3366900769395419
0.3474348046226462 0.35657926781346067 0.33776624717289205
0.34862874226302354 0.3577560707130196 0.3388346729255506
0.3498295897961257 0.35892626782592935 0.3398878396607099
0.3510262844440687 0.36009202605214324 0.3409368310552794
0.3522244933955886 0.3612522440577897 0.34197809910646976
0.35341845369593156 0.3624083281855106 0.3430156202642207
0.35462054064338727 0.36355776805113593 0.3440347151441549
0.355824740243425 0.3647020311170088 0.34504294485399695
0.3570265150481028 0.3658423880279018 0.34604648141551886
0.35823355995149536 0.3669785416705151 0.34703926024988135
0.3594386905849358 0.36811287325029834 0.3480303977104796
0.36064669280254363 0.36924565428783307 0.34901779724614135
0.361858510534043 0.37037769310833696 0.3500021195321494
0.3630713067529913 0.3715106257251913 0.35098716813421205
0.3642891016314519 0.37264467914141963 0.3519718555466835
0.3655108252101131 0.37378135816108254 0.35295840153428076
0.36673651297135396 0.37492170505409883 0.35394812436743367
0.36796592538959777 0.37606563300831175 0.35495689968703453
0.36920120060628653 0.3772149901755882 0.35597042045171584
0.37044294581813647 0.378370461182598 0.356991592174344
0.37169133401929233 0.3795325711508602 0.3580279114018429
0.37294838496860017 0.3807027153247043 0.359071358907513
0.37421255385797203 0.381881786165089 0.360127981354126
0.37548332292424613 0.3830707832703527 0.36120201707935334
0.3767651602045915 0.3842701032042681 0.362285348047956
0.3780563980301137 0.3854809980150344 0.36338522617561914
0.37935837734128147 0.3867039917918475 0.3645005429364963
0.3806739431598807 0.3879397118918769 0.36562744097430583
0.381999054016707 0.3891899018586539 0.366772717729743
0.3833379557905813 0.39045443713342687 0.3679323965894079
0.38469241777512847 0.39173399831638755 0.3691061813455452
0.38605869455395625 0.3930300327593901 0.3703001265869443
0.3874422469257246 0.3943424165938411 0.3715091133701856
0.38884328437906085 0.3956718167687075 0.37273390907221277
0.3902622306585536 0.39701897277525233 0.3739753051606793
0.39170050238750903 0.39838443625221814 0.3752335503708563
0.39315791765648467 0.39976891135483067 0.3765096716282923
0.3946355305406949 0.4011728627000385 0.377803865823214
0.39613456667862323 0.4025966714691468 0.3791167552556514
0.39765750024529073 0.40404029167880046 0.3804504680315175
0.39920272015467 0.4055049908752114 0.38180363390566524
0.4007723433514753 0.40699085987922456 0.38317808305032325
0.4023661483799065 0.40849844834748844 0.3845736277613507
0.4039848447257505 0.41002808797094226 0.3859927866246685
0.40563198575673776 0.4115789027815625 0.38744421269050394
0.4073040446350009 0.413153117621513 0.3889175297916953
0.40900610439609153 0.41474884758511854 0.3904257101408606
0.4107345724660218 0.41636856992650556 0.39195811522214014
0.41249983512389116 0.41800845707718004 0.39353276494912703
0.4142958904620843 0.4196714898058229 0.3951384827499379
0.41613241036811427 0.4213540240907594 0.3967928383048381
0.41800099040478483 0.4230602165916407 0.39847995823038607
0.41991922292433687 0.42478386701864457 0.4002173310930097
0.42188091801397903 0.42652776474093473 0.40199875226357606
0.423891559494779 0.4282905274356891 0.4038247821437578
0.42594933709476146 0.4300750159998451 0.4056721812902508
0.4280595833833897 0.4318808666621412 0.4075291361419675
0.43020121122919236 0.43371983050005464 0.4093329859124528
0.43237333469953526 0.43559356822049233 0.4110698009871594
0.4345779938939389 0.4375007987278387 0.4127524457328164
0.43681124546615946 0.4394423440171266 0.41439042565492495
0.43906286955655577 0.4414191227192819 0.4160140194613204
0.4413300859166965 0.4434308113207052 0.41764208300351846
0.4435987934591553 0.4454798516961093 0.41930197719497797
0.44587228311116206 0.44756565964474887 0.42099224624566506
0.4481543727278657 0.44968678262177125 0.4227186031009167
0.450461136595324 0.45183722068408644 0.42449733635500964
0.4528258727276642 0.45400332990031494 0.42637429906912394
0.45520901491863236 0.4561959040555848 0.4283692009375771
0.457576793896516 0.45842705097419617 0.4304640751892192
0.45993682767168637 0.46069666313720364 0.43263065861581124
0.4623096246108703 0.4630004294375581 0.4348450895204441
0.4646927435513554 0.4653388633929059 0.43710903285936037
0.4671030105296076 0.46770701627953587 0.43941220799741215
0.46953922485921423 0.47010374468720934 0.44176068904735644
0.4720048708760534 0.4725283008630023 0.4441405203933357
0.4745018922735957 0.47497954299535833 0.4465479452351833
0.4770318046135949 0.4774563869767737 0.44898194598503266
0.4795982201567706 0.479957945487356 0.45143156452436156
0.4822120132776008 0.48248108523958927 0.45388345190481155
0.4848634184861163 0.4850276188994089 0.45634687966500914
0.48754804777512323 0.48759802054762663 0.45882462550827924
0.49028171356964595 0.4901886476513026 0.46129332822595953
0.49304048528782723 0.49280443733067897 0.46377751890268687
0.4958232480807468 0.4954461167012629 0.466266472887565
0.4986294787691556 0.4981135675199863 0.4687569711884763
0.5014602110346941 0.500805163397688 0.47126067758472595
0.5043084797837903 0.503523932083358 0.47375926294620957
0.5071839675154449 0.5062651379573877 0.4762706277308107
0.5100914588288825 0.5090266165445982 0.4787978561271287
0.5130343692415569 0.5118070545953983 0.48133993442212447
0.5160245227070515 0.5146017423384414 0.48390482304673205
0.519078242774122 0.517405133507529 0.4864935933457422
0.5222471751875976 0.5202015907914552 0.48909619375295615
0.5255366692899315 0.522990670933615 0.4916912445041112
0.5288753509035254 0.5257951072455376 0.49426962613559783
0.5321011798734291 0.528665390416206 0.49682904983242787
0.5351943387854236 0.5316052587992058 0.49939989534125734
0.5382234405904123 0.534591454466087 0.5020003276884765
0.541211047896383 0.5376170127084012 0.504629508296595
0.5441808928490425 0.54067309571405 0.5072996988640365
0.5471729919873835 0.5437474292349855 0.5100065977264066
0.5501986502845404 0.5468361522093724 0.5127514215918562
0.5532579100353927 0.5499380000523678 0.515547755150386
0.5563503110759545 0.5530529778741335 0.518395356516686
0.5594670757604596 0.5561832487691953 0.521299640268424
0.562608491295891 0.5593284883883993 0.5242620065837236
0.5657675884623198 0.5624927159317868 0.5272571888324329
0.5689354990774755 0.5656757482278463 0.5303210169192258
0.5721228249896262 0.5688777857165186 0.5334066833453679
0.5753148647197054 0.5721010721688925 0.5365436500475547
0.5785132837721128 0.5753453306001759 0.5397275519694305
0.5817307824224598 0.5786085645982797 0.5429304174925921
0.5849666605085049 0.581887648470302 0.5461972361780492
0.5882207181071236 0.5851850336816847 0.5494942206967504
0.5915024474126981 0.5884979694294653 0.5528188076287257
0.5948497879387925 0.5918122116844241 0.5562008825264678
0.5982179236670632 0.5951444204999399 0.5596060514773575
0.6016341020109874 0.5984866558248285 0.5630271689738925
0.6050815915746734 0.6018438399518462 0.5664668672233673
0.6085503396736386 0.605221018114614 0.5699028925302931
0.6120397049866159 0.6086190216189897 0.5733259755748071
0.6155490219291604 0.6120365452350446 0.5767561244780813
0.6190782344405974 0.6154767098082148 0.5801548882546097
0.622628980183703 0.6189355503758719 0.5835665320499778
0.6262192140614775 0.6224114000204276 0.5869413492238436
0.6298377769774003 0.6259045471292648 0.5903217715134588
0.633502015219047 0.6294113814031129 0.5936862158077606
0.6372079817110596 0.6329315791786805 0.5970546625087193
0.6409616888503891 0.6364633085831234 0.6004294321905422
0.6447377242269338 0.6400097969948982 0.6038718890744126
0.6485096836821581 0.6435786760578718 0.6073918300333271
0.6522623720440628 0.6471770902786202 0.6109615730245693
0.6559980917863094 0.6508085194681901 0.6145312644133366
0.6596975722308565 0.6544789916628206 0.6181023328861701
0.6634099959599841 0.6581713178512035 0.6217013766544119
0.6671471275462528 0.6618813865615121 0.6253368782773496
0.6709361297412987 0.665598830483009 0.6290350007402039
0.6747652038061135 0.6693305074193481 0.632760568525379
0.6786483937999478 0.6730776204537775 0.6364458644972262
0.6826247366909376 0.6768403314749308 0.6399386328528636
0.6866461310688088 0.6806217601013742 0.6433955122772983
0.690669112631679 0.684426563266392 0.6469349174896247
0.6946991719902045 0.6882530258154482 0.6505649045836419
0.6987342439588434 0.6921014932541782 0.6542935920302845
0.7027733376857854 0.6959728755854181 0.6581215031501779
0.7068335609636244 0.6998633090491917 0.6620380037528432
0.7109184480377677 0.703776652749635 0.6659868167530215
0.7150321214356352 0.7077156146078932 0.6699245302196049
0.719161790361227 0.7116827741886419 0.6738755260796931
0.7233037319328269 0.7156789797449756 0.6778502232781798
0.7274686320456931 0.7196998036821944 0.6818691978550384
0.7316607362958062 0.7237438566303044 0.6859377189113453
0.7358840342381106 0.7278099810117117 0.6900603564867233
0.740141267270203 0.7318977863917613 0.6942393889116452
0.7444267451460698 0.7360107841375971 0.6984561809122116
0.748738090730383 0.7401509876544728 0.7027006148827474
0.7530693825683399 0.7443213104746136 0.706966841319023
0.7574183465830019 0.7485227756974457 0.7112549968877308
0.7617886788320318 0.7527536767842048 0.715576930444064
0.7661519308927961 0.7570161433550062 0.7200242345549951
0.7704852101055335 0.7613198311490459 0.724571474784733
0.7747760210584014 0.7656740004554278 0.7291551643812728
0.7790292208826475 0.7700817133851579 0.7337210733113108
0.7832689766746905 0.7745352756137633 0.738274133580919
0.7874878445542298 0.7790337215204589 0.7428596577782147
0.7916930373175379 0.7835728719360565 0.7475044471145522
0.7958892309904328 0.7881479868597913 0.7522493929416167
0.800127787165947 0.7927419861461938 0.7571117580856173
0.8044407385805763 0.7973457584445529 0.7620767700020148
0.8088198565135389 0.8019656263499028 0.7671012224881166
0.8132617664584111 0.8066057610383388 0.7721454088162211
0.817743453317125 0.811277581231494 0.7771551139502142
0.8222607093540016 0.8159839838637197 0.7821099692074248
0.8268199522458748 0.820719329604342 0.7870533013015371
0.8314302830113677 0.8254794635176956 0.7919981758617366
0.8361236049652286 0.8302522395000218 0.7969671187851058
0.8409075459210409 0.8350355608698538 0.8019506226371588
0.84578593753921 0.8398328369598456 0.8068854053404226
0.8507287273453511 0.844656946573409 0.81172170627961
0.8556928283167936 0.8495237452687487 0.816420320399031
0.8606125033020382 0.8544558284604361 0.8209466223689582
0.8654580995780033 0.8594524570896187 0.8254150243347201
0.8703576513005645 0.8644420969258259 0.8302042854805416
0.8753642295187152 0.8694001391478695 0.8354008758439229
0.8804242078208496 0.8743550944070484 0.8408433926057184
0.885510137643966 0.8793250250963728 0.8463969705433001
0.8906096068013447 0.8843187409497452 0.8519827397552078
0.8957529632162587 0.8893238289203053 0.8576182465966293
0.9009593663786463 0.8943287473955485 0.8633524908918686
0.9062275189386262 0.8993298325695724 0.8692141806553082
0.9115021564678265 0.9043464303984899 0.8751556893480817
0.9166867004306911 0.9094148282576479 0.8810800705786339
0.9217405891636441 0.9145532702600726 0.8868955910371545
0.9266513957360348 0.9197747592704575 0.8924658498084375
0.9311362780626192 0.9251275935814353 0.8982601074170851
0.9349170797572189 0.9306699951175692 0.9045973750707194
0.9383882790550756 0.9364579099835255 0.9092361347343213
0.942822358867119 0.9413450307468428 0.9213362306159963
0.23841903093829075 0.25422789430093806 0.24814492302226626
0.25079111366411644 0.2691672203559636 0.2625993586576373
0.25492551064560154 0.27287760911114317 0.265931495723833
0.25857062456558777 0.27611995189809296 0.26880690130891655
0.26211260864171465 0.27894614761371717 0.2713233027841581
0.2653061579790158 0.2815391958933238 0.27353635303704876
0.26820046879990345 0.2839543184074326 0.2755514392303102
0.2708366996916068 0.28622892887370505 0.2774679608275651
0.27329923387689037 0.28837799709380363 0.279293293734638
0.2756141651816734 0.2904228253578932 0.2810390994473472
0.27781344093137655 0.2923788461633396 0.28271540217205055
0.27991746167066195 0.2942560793981706 0.28432878791798355
0.28191848940075936 0.29607342379825624 0.28587100780193475
0.2838501359691228 0.29783086461451125 0.2873619540003433
0.28572009204191834 0.2995356460184725 0.2888077773457828
0.287536618153687 0.3011954595137579 0.29021566364602175
0.2893091697684894 0.302815738376628 0.29158959857151734
0.29104478892871816 0.30440160420573825 0.2929321141692592
0.29275095903243775 0.3059554535230364 0.2942499671803207
0.294433896981262 0.3074799849990514 0.29554698363619275
0.2960937140643866 0.30897919782468164 0.29681963424526875
0.29773124869866524 0.3104557439852508 0.298071341707213
0.2993554455523467 0.3119101658728702 0.29929564242363926
0.3009614813017243 0.3133455563861926 0.3005009417322941
0.3025545235100732 0.31476286623488914 0.30168326072428525
0.3041261899097413 0.31616526740135487 0.3028544549969192
0.30567810412209334 0.3175538088490411 0.3040152669822526
0.3072153839520778 0.31892857683911324 0.3051614751343937
0.3087367377044138 0.32029041206021075 0.30630483385807217
0.31023976602384873 0.3216397183712954 0.30746101740495535
0.31172936983670363 0.3229775421087033 0.30861231071569806
0.31320656521942963 0.32430457041170907 0.3097574218360143
0.31466595824877847 0.32562276580128935 0.3109005395863665
0.31611383910321406 0.32693146687813535 0.31203603140456065
0.31755041727101263 0.3282313672940336 0.3131647955711868
0.31897387192007 0.32952334408710765 0.31428642776985644
0.32038519987071395 0.33080795927186607 0.3154014319264405
0.3217867153699523 0.3320848690608773 0.3165084493642788
0.32317887082142566 0.33335442061208054 0.31760775700736116
0.3245562914587023 0.3346192585293737 0.3186935369360443
0.32592534121970795 0.3358772441460726 0.31977095037160286
0.32728615885393714 0.3371289747198458 0.32083919758512264
0.32863232700619843 0.33837684034246385 0.32189631174582456
0.32996832223591555 0.3396195087189315 0.3229452823060731
0.3312949150201687 0.34085721847947487 0.323982469696765
0.33260818098375433 0.34209071175365185 0.32502064865185526
0.33390621397020614 0.3433204773000852 0.3260615096389908
0.33519280358250125 0.344545944619059 0.32710024525649495
0.3364670674993281 0.3457671864612877 0.32814412219245137
0.3377248983446534 0.3469849986235305 0.3292010035861938
0.33897086899434525 0.34819864020176006 0.33026359025272
0.3402058767632429 0.34940846399817527 0.33132807025250843
0.3414256893852446 0.3506156000542987 0.3323977402138968
0.3426354960129566 0.35181886671512796 0.3334693480581709
0.343838774204801 0.3530177199853442 0.33453977036113997
0.34504141428781115 0.3542098158710125 0.33561605921679827
0.3462398472323085 0.3553971932380306 0.3366900769395419
0.3474348046226462 0.35657926781346067 0.33776624717289205
0.34862874226302354 0.3577560707130196 0.3388346729255506
0.3498295897961257 0.35892626782592935 0.3398878396607099
0.3510262844440687 0.36009202605214324 0.3409368310552794
0.3522244933955886 0.3612522440577897 0.34197809910646976
0.35341845369593156 0.3624083281855106 0.3430156202642207
0.35462054064338727 0.36355776805113593 0.3440347151441549
0.355824740243425 0.3647020311170088 0.34504294485399695
0.3570265150481028 0.3658423880279018 0.34604648141551886
0.35823355995149536 0.3669785416705151 0.34703926024988135
0.3594386905849358 0.36811287325029834 0.3480303977104796
0.36064669280254363 0.36924565428783307 0.34901779724614135
0.361858510534043 0.37037769310833696 0.3500021195321494
0.3630713067529913 0.3715106257251913 0.35098716813421205
0.3642891016314519 0.37264467914141963 0.3519718555466835
0.3655108252101131 0.37378135816108254 0.35295840153428076
0.36673651297135396 0.37492170505409883 0.35394812436743367
0.36796592538959777 0.37606563300831175 0.35495689968703453
0.36920120060628653 0.3772149901755882 0.35597042045171584
0.37044294581813647 0.378370461182598 0.356991592174344
0.37169133401929233 0.3795325711508602 0.3580279114018429
0.37294838496860017 0.3807027153247043 0.359071358907513
0.37421255385797203 0.381881786165089 0.360127981354126
0.37548332292424613 0.3830707832703527 0.36120201707935334
0.3767651602045915 0.3842701032042681 0.362285348047956
0.3780563980301137 0.3854809980150344 0.36338522617561914
0.37935837734128147 0.3867039917918475 0.3645005429364963
0.3806739431598807 0.3879397118918769 0.36562744097430583
0.381999054016707 0.3891899018586539 0.366772717729743
0.3833379557905813 0.39045443713342687 0.3679323965894079
0.38469241777512847 0.39173399831638755 0.3691061813455452
0.38605869455395625 0.3930300327593901 0.3703001265869443
0.3874422469257246 0.3943424165938411 0.3715091133701856
0.38884328437906085 0.3956718167687075 0.37273390907221277
0.3902622306585536 0.39701897277525233 0.3739753051606793
0.39170050238750903 0.39838443625221814 0.3752335503708563
0.39315791765648467 0.39976891135483067 0.3765096716282923
0.3946355305406949 0.4011728627000385 0.377803865823214
0.39613456667862323 0.4025966714691468 0.3791167552556514
0.39765750024529073 0.40404029167880046 0.3804504680315175
0.39920272015467 0.4055049908752114 0.38180363390566524
0.4007723433514753 0.40699085987922456 0.38317808305032325
0.4023661483799065 0.40849844834748844 0.3845736277613507
0.4039848447257505 0.41002808797094226 0.3859927866246685
0.40563198575673776 0.4115789027815625 0.38744421269050394
0.4073040446350009 0.413153117621513 0.3889175297916953
0.40900610439609153 0.41474884758511854 0.3904257101408606
0.4107345724660218 0.41636856992650556 0.39195811522214014
0.41249983512389116 0.41800845707718004 0.39353276494912703
0.4142958904620843 0.4196714898058229 0.3951384827499379
0.41613241036811427 0.4213540240907594 0.3967928383048381
0.41800099040478483 0.4230602165916407 0.39847995823038607
0.41991922292433687 0.42478386701864457 0.4002173310930097
0.42188091801397903 0.42652776474093473 0.40199875226357606
0.423891559494779 0.4282905274356891 0.4038247821437578
0.42594933709476146 0.4300750159998451 0.4056721812902508
0.4280595833833897 0.4318808666621412 0.4075291361419675
0.43020121122919236 0.43371983050005464 0.4093329859124528
0.43237333469953526 0.43559356822049233 0.4110698009871594
0.4345779938939389 0.4375007987278387 0.4127524457328164
0.43681124546615946 0.4394423440171266 0.41439042565492495
0.43906286955655577 0.4414191227192819 0.4160140194613204
0.4413300859166965 0.4434308113207052 0.41764208300351846
0.4435987934591553 0.4454798516961093 0.41930197719497797
0.44587228311116206 0.44756565964474887 0.42099224624566506
0.4481543727278657 0.44968678262177125 0.4227186031009167
0.450461136595324 0.45183722068408644 0.42449733635500964
0.4528258727276642 0.45400332990031494 0.42637429906912394
0.45520901491863236 0.4561959040555848 0.4283692009375771
0.457576793896516 0.45842705097419617 0.4304640751892192
0.45993682767168637 0.46069666313720364 0.43263065861581124
0.4623096246108703 0.4630004294375581 0.4348450895204441
0.4646927435513554 0.4653388633929059 0.43710903285936037
0.4671030105296076 0.46770701627953587 0.43941220799741215
0.46953922485921423 0.47010374468720934 0.44176068904735644
0.4720048708760534 0.4725283008630023 0.4441405203933357
0.4745018922735957 0.47497954299535833 0.4465479452351833
0.4770318046135949 0.4774563869767737 0.44898194598503266
0.4795982201567706 0.479957945487356 0.45143156452436156
0.4822120132776008 0.48248108523958927 0.45388345190481155
0.4848634184861163 0.4850276188994089 0.45634687966500914
0.48754804777512323 0.48759802054762663 0.45882462550827924
0.49028171356964595 0.4901886476513026 0.46129332822595953
0.49304048528782723 0.49280443733067897 0.46377751890268687
0.4958232480807468 0.4954461167012629 0.466266472887565
0.4986294787691556 0.4981135675199863 0.4687569711884763
0.5014602110346941 0.500805163397688 0.47126067758472595
0.5043084797837903 0.503523932083358 0.47375926294620957
0.5071839675154449 0.5062651379573877 0.4762706277308107
0.5100914588288825 0.5090266165445982 0.4787978561271287
0.5130343692415569 0.5118070545953983 0.48133993442212447
0.5160245227070515 0.5146017423384414 0.48390482304673205
0.519078242774122 0.517405133507529 0.4864935933457422
0.5222471751875976 0.5202015907914552 0.48909619375295615
0.5255366692899315 0.522990670933615 0.4916912445041112
0.5288753509035254 0.5257951072455376 0.49426962613559783
0.5321011798734291 0.528665390416206 0.49682904983242787
0.5351943387854236 0.5316052587992058 0.49939989534125734
0.5382234405904123 0.534591454466087 0.5020003276884765
0.541211047896383 0.5376170127084012 0.504629508296595
