obsidian/Clippings/写真家活動/技法探求/デジネガ/QTR/プロファイル作成/QTR-DN/QTR-DN/古い/選択項目から作成したフォルダ 2/選択項目から作成したフォルダ/MC4/PtPd-K41-415s-v3-MC4-finalLUTsoftproof.cube
#Color Lookup Table 
TITLE "QuadToneProfiler Color Lookup Table for 256-step Soft Proof
LUT_1D_SIZE 256
DOMAIN_MIN 0.0 0.0 0.0
DOMAIN_MAX 1.0 1.0 1.0
0.23841903093829075 0.25422789430093806 0.24814492302226626
0.23982213652802453 0.2559754749254109 0.2516653246975371
0.2403988992096026 0.25729566537754495 0.25269819538502625
0.24107457761522616 0.2586075929169227 0.25375241328899545
0.24176862604650778 0.2599394823097001 0.2548250513823041
0.2427497302649228 0.2612246106437449 0.2558501252620279
0.24389452951785368 0.26249929565338476 0.2568612642398927
0.24507735216324433 0.26379997849169745 0.2578946521514852
0.24629333881542154 0.2651305573632446 0.25895233695718417
0.2477146033031163 0.2664382611593954 0.2601126713758017
0.24920874148142802 0.26776738703264485 0.2613184412196679
0.25074698562987413 0.2691281895472761 0.2625636357938319
0.25232172006023124 0.2705252586467873 0.26383723485755695
0.2539159262827682 0.27196552925271716 0.2651195188040109
0.255550736400969 0.2734418738202782 0.2664321138674264
0.257227595521278 0.274954507868275 0.2677719561871211
0.25902144666281807 0.2764825298200136 0.26913025371105703
0.26094010563560016 0.27802359561531637 0.27050451580775803
0.26293506505375547 0.27959095789901584 0.27189444207984775
0.26490822886606197 0.2812151709970512 0.27327051117339385
0.2668987596186575 0.2828810273845572 0.27467003430788844
0.26890601302335915 0.284587100703028 0.27610532171478885
0.27088104124669926 0.28634578142023714 0.27758603742303717
0.27288106953756186 0.28814061772329874 0.27910508695176584
0.27490606332567064 0.2899704119865277 0.28065768527179447
0.27694468487744334 0.2918364613908081 0.28224405984104023
0.2790120519718994 0.29373225113036205 0.2838559535749563
0.2811165593938727 0.2956528432262847 0.28549266606195195
0.2832681728976141 0.2975931196094966 0.2871545469047562
0.2854561249892876 0.29955517073132965 0.28883008165260715
0.2876890242231082 0.301534468192612 0.2905216778987444
0.289961828103929 0.30353083978090317 0.29222559956811545
0.2922656501385629 0.30554586037940196 0.2939401234174075
0.2945925578324626 0.30757990444835037 0.29566773027374865
0.29694399331819155 0.30963156393738706 0.29740521349188065
0.2992977885187733 0.31170595824081687 0.29915651587866526
0.301666936646717 0.31379795837558644 0.3009206639522878
0.30403094213692994 0.31591226085331586 0.3027041597355911
0.3064016486119803 0.31804453409427547 0.30450424952610566
0.3087673427684703 0.3201968654269512 0.306325130616863
0.3111344709486795 0.32236694332741184 0.3081643500676867
0.313499389310575 0.32455499056876236 0.3100210392533783
0.31586199054501357 0.326760354868641 0.3118937124366561
0.3182278943668608 0.32898061470047757 0.3137832306891774
0.3205949701056251 0.3312155053096772 0.3156931256526939
0.3229717682114716 0.33346196412542756 0.3176186678693813
0.3253646228006518 0.3357168960473447 0.31957118127528555
0.3277744465674261 0.3379803606741926 0.3215368325863004
0.3302065159997865 0.3402498746491952 0.3235205705696105
0.33265845514993647 0.34252627173294947 0.32551437291236046
0.3351278651455384 0.34480940019892387 0.3275226725403203
0.3376054233934344 0.3471022036743668 0.32953793995305697
0.34008605088073307 0.34940539366478995 0.33156309092930597
0.3425622872321697 0.3517217349755075 0.33358758939630706
0.3450371389953588 0.35404907750575343 0.33562321150874563
0.34750773765372417 0.3563882214535459 0.3376625389854843
0.34997691220607385 0.3587373417171311 0.3397147001321475
0.352444145549592 0.36109643117989265 0.3417785628462602
0.35491218560343885 0.3634640644883833 0.34385504773820724
0.3573825627834936 0.36583945759261444 0.34594497013734543
0.35985619749522846 0.3682221528303975 0.34804817115968195
0.3623331851083763 0.37061159680250405 0.35016369190471164
0.3648185117264599 0.3730054236805691 0.35229993862371933
0.3673110195640041 0.37540427778192303 0.3544497933764744
0.3698132034263842 0.37780729526822643 0.35661382683864634
0.3723281926065798 0.38021322259497253 0.35879337022733854
0.37485651509778556 0.3826225424016208 0.3609880492756439
0.37740123987507 0.3850345816639527 0.363198093110852
0.37996127593841034 0.387450407466934 0.36542196213702616
0.3825362189689175 0.3898704049310737 0.367659835644216
0.3851258947490448 0.3922948896072808 0.3699127781340781
0.38773033401359686 0.39472419058678077 0.37218091231359024
0.39035002934874263 0.39715887654909093 0.3744604226847159
0.39298334869155477 0.3995995749461294 0.37675060795256
0.3956307702062701 0.40204677576604325 0.3790496210011893
0.39829301455948846 0.4045006711576556 0.38135498284382513
0.4009709812745464 0.40696100745999036 0.38366656226811086
0.4036611313743766 0.4094294737625089 0.3859819930020758
0.40636342273773884 0.41190614696962785 0.38830151018703213
0.4090773901476868 0.41439149410593273 0.39062467720995775
0.4118014027984904 0.4168861548819563 0.39294988829824334
0.414535506849264 0.4193904309228323 0.39527509687239515
0.4172810829750719 0.421903865008503 0.397602720757345
0.4200379348608285 0.42442672714259916 0.3999320644327524
0.42280727700915427 0.4269584482320329 0.402265844478405
0.42558899782613596 0.42949897230339384 0.4046063005851836
0.42838479562597864 0.4320475759270693 0.4069553232717737
0.43119493569806594 0.43460406187263984 0.4093172495256771
0.43402045701509906 0.43716863975889975 0.41168553677409314
0.43686639330534305 0.4397402116400516 0.41405372337125035
0.4397404309733428 0.44231702055366706 0.4164141473081701
0.4426503090367737 0.4448969920613383 0.4187619683357949
0.4455823788057803 0.44748365782132754 0.4211067032862839
0.44850345621518856 0.4500861853167452 0.4234613999185898
0.4513958494479416 0.452709563156842 0.42583357575964764
0.4542398653225938 0.45535923440038534 0.42823032110811
0.4570487447801264 0.45803092572970644 0.4306526909561301
0.4598324355141226 0.46072162836082714 0.4331020294266052
0.4625977630447092 0.46342864134156997 0.43558438102031194
0.465365960152697 0.46614551979968094 0.438096553607277
0.4681432435801092 0.4688703367890192 0.44063879670877076
0.47093882435049556 0.47160070373176893 0.4432044752737209
0.47375701154100053 0.4743352238455048 0.4457936554164192
0.47659839496663453 0.4770741047772689 0.44839969206828784
0.4794684553788911 0.47981561418213753 0.45102224649640116
0.4823608031871229 0.4825622799706169 0.4536549119123648
0.4852842326254742 0.48531128616101343 0.456296654092535
0.48822214688652305 0.48806798293762094 0.45894365259938635
0.4911810870456235 0.49083071578361354 0.4615907879730325
0.4941476680280186 0.4936032238315656 0.4642412601149701
0.4971168737370158 0.49638798543338475 0.4668835195033711
0.5000949512721921 0.499182110771285 0.46952803609315824
0.5030763648884476 0.5019882875862098 0.4721626529461442
0.5060682864806217 0.5048031622561349 0.47479866578766045
0.5090676178614418 0.50762811766528 0.47743042418972487
0.5120772776194819 0.5104619020040174 0.4800629277412068
0.515090292463504 0.5133068749005818 0.48269071565333604
0.5181115157938266 0.5161612101362367 0.4853174933847986
0.5211370831596481 0.5190264265611166 0.48793754697618913
0.5241735591085029 0.5219004220242492 0.49055078666843693
0.5272213904191679 0.5247831448920708 0.49315620652623776
0.5302831690244894 0.5276736534238874 0.49575282283196137
0.533355361291988 0.5305724305714955 0.4983486761328146
0.5364307368425876 0.5334813563618831 0.5009468769947881
0.5394980327164092 0.5364028667911489 0.5035605368550727
0.5425514634860055 0.5393381319489442 0.506195699433453
0.5455796101525525 0.5422893467238638 0.5088716089425385
0.5485999924287921 0.5452516960706566 0.5115761972070233
0.5515981899469977 0.5482273019399929 0.5143378898333041
0.5545983418015289 0.5512111394380163 0.5171211358250416
0.5575837821110387 0.5542052544814163 0.5199642910353757
0.5605739325913836 0.5572066434081184 0.5228238085958717
0.5635614129954771 0.5602157855236927 0.5257213189476633
0.5665537977580712 0.5632318683699795 0.5286350302215947
0.5695553463500698 0.5662532433588778 0.5315652815862683
0.5725655666504811 0.5692801059802616 0.5345101679650854
0.5755840698010818 0.5723130445220328 0.5374618598240757
0.5786162445181393 0.5753503814573842 0.5404179436792114
0.5816548519331307 0.5783940340582466 0.5433809887075218
0.5847057197484826 0.5814427102989855 0.5463428196370994
0.587765681764944 0.5844969615762216 0.549307180749546
0.5908337223683002 0.5875567772892705 0.5522768686395801
0.5939193866301496 0.5906193305076636 0.5552479962088323
0.5970114131755477 0.5936877219717406 0.5582245121144119
0.6001199608972129 0.5967582913409832 0.5612121498196856
0.6032409280759581 0.5998323262051874 0.5642084559297315
0.6063712236235828 0.6029107312314328 0.5672137338215043
0.6095202444998039 0.6059894360651691 0.5702410222900828
0.6126770955269976 0.6090730164693685 0.573274390770289
0.6158537497607294 0.6121561918250779 0.5763325010169981
0.6190414062098247 0.6152426862374104 0.5794014593480253
0.6222367903860224 0.6183324834784043 0.5824935674747248
0.6254396531103745 0.6214259579818935 0.5856045215977868
0.628644266353322 0.6245251317413745 0.5887304014256461
0.6318498728764399 0.6276301663522752 0.5918707085131995
0.6350569269928512 0.6307425530668468 0.5950050710227843
0.6382655105251773 0.633862313798514 0.598131443487262
0.6414776862521366 0.6369903480454361 0.6012286922803758
0.6446945606614746 0.6401256880936764 0.6043052108520842
0.6479211830300936 0.6432676865191447 0.6073481302977969
0.651156704059732 0.6464150003376673 0.6103764769976238
0.6544091674850963 0.6495654673531346 0.6133861367352961
0.6576756497976272 0.6527185560087121 0.6163950114003962
0.660959904957521 0.6558726552002478 0.6194071343705243
0.6642595180285549 0.6590269510810506 0.6224419568038043
0.6675679727970513 0.6621837292348793 0.6254968089331889
0.670877068459577 0.6653449023755906 0.6285790693117754
0.6741791974374549 0.6685119550846004 0.6316996996986386
0.6774746647905023 0.6716862684373768 0.6348398807072873
0.680766770115271 0.6748690317294708 0.637969837370173
0.684054907158431 0.6780609743255076 0.6410836672761224
0.6873403661480062 0.6812620002319114 0.6441764558705485
0.6906343933100713 0.6844672565537075 0.6472645027181285
0.6939377950802814 0.687676108989157 0.6503535790407744
0.6972642340429286 0.690883526352668 0.6534511058030085
0.7006062649004554 0.6940918672280911 0.6565572352844153
0.7039677443558119 0.6972989743484401 0.6596839147225458
0.7073418562108077 0.7005072137979458 0.6628277220637557
0.7107283560522903 0.7037156658007326 0.6660014884837473
0.7141233087529697 0.7069256840959989 0.6692029204837354
0.7175243421208728 0.7101376421886673 0.672437406410067
0.7209225204356164 0.7133549614206711 0.6756959113348467
0.7243144646461986 0.7165792269720815 0.678972753812956
0.7276950814805785 0.7198130549649895 0.6822550659928572
0.7310663079521283 0.7230560665993566 0.6855391842488442
0.7344293259250931 0.7263083405792682 0.6888198759358771
0.7377870866882353 0.7295689370189946 0.6920977537167512
0.7411400567811701 0.7328368468539874 0.6953834715784712
0.744489485572914 0.7361113680026984 0.6986804134498777
0.7478375065210205 0.7393915599737502 0.701993164402185
0.7511853252576548 0.7426766150613752 0.7053270939850489
0.7545334167271914 0.7459665302218308 0.708680788448829
0.7578809738312788 0.7492613518027524 0.7120565794359164
0.7612276900306272 0.7525613180031248 0.7154533600326237
0.7645696300057703 0.7558677696113512 0.7188707839974056
0.767903820917277 0.7591816725829587 0.7223081811960226
0.7712226069238225 0.7625058051337968 0.725762345701833
0.7745215958169009 0.765841607859536 0.7292332334845493
0.7777967865751869 0.7691904107399866 0.7327203765920922
0.7810489182095592 0.7725517428299328 0.7362281529912712
0.784283231001047 0.7759241230592966 0.7397548172434603
0.7875080320880417 0.779305444654963 0.7432960956743819
0.7907288979084209 0.7826942439136488 0.7468499858901122
0.7939517692082992 0.7860888988522663 0.7504145788652951
0.7971802783268201 0.7894886663996108 0.7539875573068299
0.8004169014502246 0.7928930456102047 0.7575679106875602
0.8036637215220046 0.7963016859440571 0.7611552998207746
0.806923288541072 0.7997141000373797 0.7647495297449236
0.8101951591626368 0.8031308604041516 0.7683496614773581
0.8134806283925224 0.8065522913694325 0.7719535108515999
0.8167800766947738 0.8099786813642846 0.7755600034890415
0.8200952967544389 0.8134101003221603 0.7791657636383207
0.8234274614444168 0.8168469443649483 0.7827667796867253
0.8267805486198391 0.8202889861086589 0.7863536414190483
0.8301487250946827 0.8237385216995428 0.7899263455437734
0.833532706724413 0.8271968779289829 0.7934690025776016
0.8369245580615489 0.8306661146417117 0.7969916932677295
0.8403243090994227 0.8341468854363145 0.8004897545568069
0.8437331685361391 0.8376373502473063 0.8039817069445464
0.8471540921277964 0.8411357631978374 0.8074739628530913
0.8505938898991527 0.8446380462060383 0.8109779131714311
0.854050551576452 0.8481419171279349 0.8144973761099563
0.8575279753987991 0.8516398052513281 0.8180375019056139
0.8610138039071829 0.8551233064335981 0.8215843425886806
0.8644881794478706 0.8585687828747353 0.8251185564396993
0.8679003042924281 0.8619219285815827 0.8285913562069493
0.8711349174656452 0.8650830895337082 0.831886796779645
0.8740971384299427 0.8679601848411606 0.8349091749273921
0.8768461128553691 0.8706273452063249 0.837722867092879
0.8795215670818403 0.8732210036652914 0.8404743821185812
0.8821818905047057 0.8758027552844824 0.8432276195450872
0.884833124929522 0.8783804107923997 0.8459937710997051
0.8874738336632354 0.8809567079183398 0.8487750516388557
0.8901034300392008 0.8835329619620139 0.8515760299606292
0.8927222889164401 0.8861104108862974 0.8543917470119066
0.8953266411304803 0.8886900687081455 0.8572318719284285
0.8979244889508436 0.8912709890041819 0.8600823981768225
0.900507333480176 0.8938546348108334 0.8629622718152137
0.9030940212883063 0.8964374925706265 0.8658449776995608
0.905699076844548 0.8990127956074786 0.8687602192689446
0.9083110089839151 0.9015855728625164 0.871692146488296
0.9109582839223382 0.904142545107282 0.874696312077153
0.9136230868079274 0.9066923352885441 0.8777362489954074
0.9162964054839318 0.9092416230906489 0.8807653706573045
0.9189685065288861 0.9117937712355613 0.8837810284892572
0.9215679844093829 0.9143772787201767 0.8867086825535401
0.9240960220514969 0.916991183656775 0.8895565023145509
0.9265326265171906 0.9196414201218305 0.8923293235334689
0.9288984238868248 0.9223168764900234 0.895084506262165
0.9310619448552365 0.925032020334482 0.8981506978188255
0.9330632828172252 0.9277860007638717 0.9013822115452778
0.934881631151903 0.9306045368795721 0.9045411762935657
0.9366380207102317 0.9335014143909702 0.9069924692949215
0.9383696764624183 0.9364262476999811 0.9092116637806871
0.9400886866053083 0.9393529543877376 0.9114736113334387
0.942822358867119 0.9413450307468428 0.9213362306159963
0.23841903093829075 0.25422789430093806 0.24814492302226626
0.23982213652802453 0.2559754749254109 0.2516653246975371
0.2403988992096026 0.25729566537754495 0.25269819538502625
0.24107457761522616 0.2586075929169227 0.25375241328899545
0.24176862604650778 0.2599394823097001 0.2548250513823041
0.2427497302649228 0.2612246106437449 0.2558501252620279
0.24389452951785368 0.26249929565338476 0.2568612642398927
0.24507735216324433 0.26379997849169745 0.2578946521514852
0.24629333881542154 0.2651305573632446 0.25895233695718417
0.2477146033031163 0.2664382611593954 0.2601126713758017
0.24920874148142802 0.26776738703264485 0.2613184412196679
0.25074698562987413 0.2691281895472761 0.2625636357938319
0.25232172006023124 0.2705252586467873 0.26383723485755695
0.2539159262827682 0.27196552925271716 0.2651195188040109
0.255550736400969 0.2734418738202782 0.2664321138674264
0.257227595521278 0.274954507868275 0.2677719561871211
0.25902144666281807 0.2764825298200136 0.26913025371105703
0.26094010563560016 0.27802359561531637 0.27050451580775803
0.26293506505375547 0.27959095789901584 0.27189444207984775
0.26490822886606197 0.2812151709970512 0.27327051117339385
0.2668987596186575 0.2828810273845572 0.27467003430788844
0.26890601302335915 0.284587100703028 0.27610532171478885
0.27088104124669926 0.28634578142023714 0.27758603742303717
0.27288106953756186 0.28814061772329874 0.27910508695176584
0.27490606332567064 0.2899704119865277 0.28065768527179447
0.27694468487744334 0.2918364613908081 0.28224405984104023
0.2790120519718994 0.29373225113036205 0.2838559535749563
0.2811165593938727 0.2956528432262847 0.28549266606195195
0.2832681728976141 0.2975931196094966 0.2871545469047562
0.2854561249892876 0.29955517073132965 0.28883008165260715
0.2876890242231082 0.301534468192612 0.2905216778987444
0.289961828103929 0.30353083978090317 0.29222559956811545
0.2922656501385629 0.30554586037940196 0.2939401234174075
0.2945925578324626 0.30757990444835037 0.29566773027374865
0.29694399331819155 0.30963156393738706 0.29740521349188065
0.2992977885187733 0.31170595824081687 0.29915651587866526
0.301666936646717 0.31379795837558644 0.3009206639522878
0.30403094213692994 0.31591226085331586 0.3027041597355911
0.3064016486119803 0.31804453409427547 0.30450424952610566
0.3087673427684703 0.3201968654269512 0.306325130616863
0.3111344709486795 0.32236694332741184 0.3081643500676867
0.313499389310575 0.32455499056876236 0.3100210392533783
0.31586199054501357 0.326760354868641 0.3118937124366561
0.3182278943668608 0.32898061470047757 0.3137832306891774
0.3205949701056251 0.3312155053096772 0.3156931256526939
0.3229717682114716 0.33346196412542756 0.3176186678693813
0.3253646228006518 0.3357168960473447 0.31957118127528555
0.3277744465674261 0.3379803606741926 0.3215368325863004
0.3302065159997865 0.3402498746491952 0.3235205705696105
0.33265845514993647 0.34252627173294947 0.32551437291236046
0.3351278651455384 0.34480940019892387 0.3275226725403203
0.3376054233934344 0.3471022036743668 0.32953793995305697
0.34008605088073307 0.34940539366478995 0.33156309092930597
0.3425622872321697 0.3517217349755075 0.33358758939630706
0.3450371389953588 0.35404907750575343 0.33562321150874563
0.34750773765372417 0.3563882214535459 0.3376625389854843
0.34997691220607385 0.3587373417171311 0.3397147001321475
0.352444145549592 0.36109643117989265 0.3417785628462602
0.35491218560343885 0.3634640644883833 0.34385504773820724
0.3573825627834936 0.36583945759261444 0.34594497013734543
0.35985619749522846 0.3682221528303975 0.34804817115968195
0.3623331851083763 0.37061159680250405 0.35016369190471164
0.3648185117264599 0.3730054236805691 0.35229993862371933
0.3673110195640041 0.37540427778192303 0.3544497933764744
0.3698132034263842 0.37780729526822643 0.35661382683864634
0.3723281926065798 0.38021322259497253 0.35879337022733854
0.37485651509778556 0.3826225424016208 0.3609880492756439
0.37740123987507 0.3850345816639527 0.363198093110852
0.37996127593841034 0.387450407466934 0.36542196213702616
0.3825362189689175 0.3898704049310737 0.367659835644216
0.3851258947490448 0.3922948896072808 0.3699127781340781
0.38773033401359686 0.39472419058678077 0.37218091231359024
0.39035002934874263 0.39715887654909093 0.3744604226847159
0.39298334869155477 0.3995995749461294 0.37675060795256
0.3956307702062701 0.40204677576604325 0.3790496210011893
0.39829301455948846 0.4045006711576556 0.38135498284382513
0.4009709812745464 0.40696100745999036 0.38366656226811086
0.4036611313743766 0.4094294737625089 0.3859819930020758
0.40636342273773884 0.41190614696962785 0.38830151018703213
0.4090773901476868 0.41439149410593273 0.39062467720995775
0.4118014027984904 0.4168861548819563 0.39294988829824334
0.414535506849264 0.4193904309228323 0.39527509687239515
0.4172810829750719 0.421903865008503 0.397602720757345
0.4200379348608285 0.42442672714259916 0.3999320644327524
0.42280727700915427 0.4269584482320329 0.402265844478405
0.42558899782613596 0.42949897230339384 0.4046063005851836
0.42838479562597864 0.4320475759270693 0.4069553232717737
0.43119493569806594 0.43460406187263984 0.4093172495256771
0.43402045701509906 0.43716863975889975 0.41168553677409314
0.43686639330534305 0.4397402116400516 0.41405372337125035
0.4397404309733428 0.44231702055366706 0.4164141473081701
0.4426503090367737 0.4448969920613383 0.4187619683357949
0.4455823788057803 0.44748365782132754 0.4211067032862839
0.44850345621518856 0.4500861853167452 0.4234613999185898
0.4513958494479416 0.452709563156842 0.42583357575964764
0.4542398653225938 0.45535923440038534 0.42823032110811
0.4570487447801264 0.45803092572970644 0.4306526909561301
0.4598324355141226 0.46072162836082714 0.4331020294266052
0.4625977630447092 0.46342864134156997 0.43558438102031194
0.465365960152697 0.46614551979968094 0.438096553607277
0.4681432435801092 0.4688703367890192 0.44063879670877076
0.47093882435049556 0.47160070373176893 0.4432044752737209
0.47375701154100053 0.4743352238455048 0.4457936554164192
0.47659839496663453 0.4770741047772689 0.44839969206828784
0.4794684553788911 0.47981561418213753 0.45102224649640116
0.4823608031871229 0.4825622799706169 0.4536549119123648
0.4852842326254742 0.48531128616101343 0.456296654092535
0.48822214688652305 0.48806798293762094 0.45894365259938635
0.4911810870456235 0.49083071578361354 0.4615907879730325
0.4941476680280186 0.4936032238315656 0.4642412601149701
0.4971168737370158 0.49638798543338475 0.4668835195033711
0.5000949512721921 0.499182110771285 0.46952803609315824
0.5030763648884476 0.5019882875862098 0.4721626529461442
0.5060682864806217 0.5048031622561349 0.47479866578766045
0.5090676178614418 0.50762811766528 0.47743042418972487
0.5120772776194819 0.5104619020040174 0.4800629277412068
0.515090292463504 0.5133068749005818 0.48269071565333604
0.5181115157938266 0.5161612101362367 0.4853174933847986
0.5211370831596481 0.5190264265611166 0.48793754697618913
0.5241735591085029 0.5219004220242492 0.49055078666843693
0.5272213904191679 0.5247831448920708 0.49315620652623776
0.5302831690244894 0.5276736534238874 0.49575282283196137
0.533355361291988 0.5305724305714955 0.4983486761328146
0.5364307368425876 0.5334813563618831 0.5009468769947881
0.5394980327164092 0.5364028667911489 0.5035605368550727
0.5425514634860055 0.5393381319489442 0.506195699433453
0.5455796101525525 0.5422893467238638 0.5088716089425385
0.5485999924287921 0.5452516960706566 0.5115761972070233
0.5515981899469977 0.5482273019399929 0.5143378898333041
0.5545983418015289 0.5512111394380163 0.5171211358250416
0.5575837821110387 0.5542052544814163 0.5199642910353757
0.5605739325913836 0.5572066434081184 0.5228238085958717
0.5635614129954771 0.5602157855236927 0.5257213189476633
0.5665537977580712 0.5632318683699795 0.5286350302215947
0.5695553463500698 0.5662532433588778 0.5315652815862683
0.5725655666504811 0.5692801059802616 0.5345101679650854
0.5755840698010818 0.5723130445220328 0.5374618598240757
0.5786162445181393 0.5753503814573842 0.5404179436792114
0.5816548519331307 0.5783940340582466 0.5433809887075218
0.5847057197484826 0.5814427102989855 0.5463428196370994
0.587765681764944 0.5844969615762216 0.549307180749546
0.5908337223683002 0.5875567772892705 0.5522768686395801
0.5939193866301496 0.5906193305076636 0.5552479962088323
0.5970114131755477 0.5936877219717406 0.5582245121144119
0.6001199608972129 0.5967582913409832 0.5612121498196856
0.6032409280759581 0.5998323262051874 0.5642084559297315
0.6063712236235828 0.6029107312314328 0.5672137338215043
0.6095202444998039 0.6059894360651691 0.5702410222900828
0.6126770955269976 0.6090730164693685 0.573274390770289
0.6158537497607294 0.6121561918250779 0.5763325010169981
0.6190414062098247 0.6152426862374104 0.5794014593480253
0.6222367903860224 0.6183324834784043 0.5824935674747248
0.6254396531103745 0.6214259579818935 0.5856045215977868
0.628644266353322 0.6245251317413745 0.5887304014256461
0.6318498728764399 0.6276301663522752 0.5918707085131995
0.6350569269928512 0.6307425530668468 0.5950050710227843
0.6382655105251773 0.633862313798514 0.598131443487262
0.6414776862521366 0.6369903480454361 0.6012286922803758
