obsidian/Clippings/写真家活動/技法探求/デジネガ/QTR/プロファイル作成/QTR-DN/QTR-DN/QUAD/20%/PtPd-K50-starter-PX1V-v2-measured-softproof.cube
#Color Lookup Table 
TITLE "QuadToneProfiler Color Lookup Table for 256-step Soft Proof
LUT_1D_SIZE 256
DOMAIN_MIN 0.0 0.0 0.0
DOMAIN_MAX 1.0 1.0 1.0
0.2629433247043114 0.27542020999349887 0.26536213579422696
0.26167335592325935 0.27393738944471996 0.2658524737675293
0.26310912462058883 0.2747508738825223 0.26529142929080757
0.2657286431741465 0.2767533599399305 0.2658562026642108
0.26832158498094394 0.27986387379350347 0.26855441289742615
0.2716770568707472 0.2837811286095787 0.27208631044943304
0.27595518721310053 0.2885150347481396 0.27648631153921827
0.2802631081861859 0.2932752312179912 0.2809140897946308
0.2835329603270762 0.29674380352689245 0.28450419763479357
0.286131205685448 0.29951963833879003 0.28743717287409903
0.2882148659015277 0.301681752815044 0.28976304108182255
0.2899997165285253 0.3035347539863007 0.2917825216574742
0.292101868147974 0.3055657987411115 0.29375001836255776
0.2943181012119405 0.3076967351795299 0.29579274195560934
0.2968840136722744 0.3100474484066152 0.2979703655039342
0.29956196707015065 0.31249409487913193 0.30023263488109236
0.30214593633131587 0.31487827964141374 0.30248687464480556
0.30463186001406606 0.3171679540510183 0.30465491255880345
0.3069231804952434 0.31919291110485526 0.3065592530478265
0.30902535729132047 0.32101572524685973 0.30826260963783636
0.3109474809992187 0.32263214864014134 0.3097362249417693
0.3127241455353897 0.3240972429313513 0.3110548066349367
0.31444784435930645 0.32550520973271846 0.31227144464096707
0.31614980989893765 0.3268903309060005 0.31345573733922916
0.31794392146193895 0.32837910154234234 0.3146915386928797
0.3198549631444583 0.3299878205713825 0.3160341448054348
0.32201804338828993 0.33184727520589813 0.31761721265165976
0.3244043861145787 0.3339301396941887 0.3194194951541992
0.3270424670432784 0.3362659002313334 0.32151108640990483
0.3298826444452614 0.3388042187495804 0.3238142436822217
0.3327911076004648 0.34142943219173494 0.3262403491557723
0.33576037261759734 0.34412090041039384 0.32874336560750594
0.33861904652648017 0.3467322425577277 0.3312010774925644
0.34141590516950293 0.3492915692640372 0.3336186045569746
0.3440982995585666 0.351793896753119 0.3359859833380388
0.34673470752874314 0.35427101704181796 0.3383305902960658
0.34942994638611824 0.3568709042459312 0.3407596934566392
0.35220663524324636 0.359577650654143 0.3432798252562029
0.35513884750804336 0.362468486800726 0.34594172759024644
0.3582260688847418 0.3655267770042866 0.34875196211472803
0.3615030805245095 0.36875647640927933 0.3517177488570913
0.3649481500789043 0.3721458990634919 0.3548349556056725
0.36854579784965885 0.37564210410172855 0.35805760541032483
0.372257067945925 0.37922913031994326 0.36136978571416506
0.3759485846566375 0.3827550958432199 0.36463027623204247
0.3796011948369185 0.3862198435442415 0.3678345259818579
0.38303727983977226 0.3894720464669396 0.37081768356335143
0.38627587864075824 0.3925286609053399 0.3736007964095317
0.3892790056143853 0.3953825190841003 0.376167995046836
0.3920682283361988 0.3980421472023541 0.3785333625577777
0.3947169660045536 0.4005947708943762 0.38078894534309965
0.39723122431598684 0.40303456524223225 0.38293010323777915
0.3996619035544159 0.40541567427938685 0.3850004782010034
0.4020092543944331 0.40773068815463515 0.38699642757059854
0.4042898192742123 0.4099722520579123 0.3889438002131443
0.40649759583346806 0.41213601582011694 0.3908319400821686
0.40858884945143376 0.41415450593116204 0.39261547756101417
0.41055617992834353 0.416026260567016 0.394284700470098
0.41227151262572875 0.41762020750726475 0.39572136860968987
0.4137383736431939 0.41894388701024265 0.39692622910878245
0.414953777854504 0.420014096699907 0.3979154617464213
0.41592198295974525 0.42083528381206586 0.3986898159128146
0.41685060439243626 0.4216389176322768 0.3994611880760786
0.4177378961627598 0.42242224075291035 0.4002261924419634
0.4187768074460884 0.42337896089157895 0.4011428868014578
0.41996707318815657 0.424509159753204 0.40221100392218245
0.42131420818284704 0.42579969368961607 0.40341614398090064
0.4228205555712362 0.4272531683847576 0.4047590562422788
0.42440653838347125 0.42878241726130756 0.40616795075763684
0.42607322328008396 0.4303878977401677 0.40764188661960465
0.42775411330985985 0.43200521130728337 0.40912309543991143
0.42945084932933253 0.4336354695247582 0.4106116804371452
0.4310750589880297 0.43518935396743463 0.4120298769249392
0.43261733865755536 0.4366563184921805 0.413368922393248
0.4341379096689602 0.4381019417526761 0.4146914783089399
0.43562534331099145 0.43951497458820477 0.4159882966590377
0.43727644868959364 0.4410950544226898 0.41745669145077974
0.439101399620819 0.442853947149629 0.4191113642566261
0.4411819912235867 0.44487366931315914 0.42102497759185986
0.44353484270380844 0.44717379653085937 0.4232173146210499
0.44609569101822316 0.44968484152713356 0.4256088751426356
0.4488748691258719 0.4524191057446813 0.4282050630711792
0.4517167715755673 0.4552174933975455 0.43087276289651283
0.4546118452715972 0.4580716305019987 0.43361040226892894
0.45744677444874965 0.4608612711187617 0.4362938920611211
0.46019713899727294 0.4635579787813246 0.4389044594799354
0.4628975205741001 0.4661933834467428 0.44145927076772984
0.46553995841678114 0.4687472510250961 0.4439437707735135
0.46824933539947716 0.47135602568685325 0.44648793516649593
0.4710573343263507 0.4740364003064324 0.44911493797947194
0.47399503605647025 0.47683487846641853 0.4518598864629407
0.4771016132640025 0.47977422178784684 0.4547466323826728
0.48028051354901174 0.48278408760996755 0.457692425984254
0.4835215702498787 0.485851891845508 0.460667000252393
0.48680236050623066 0.48896584629086143 0.46367347424371835
0.4901252975815233 0.49214095300668187 0.4667010940291751
0.49341117107901306 0.49528661417179337 0.4696825079611516
0.4966481122849546 0.4984077307919416 0.472587021122262
0.49972115825150415 0.5013720658075311 0.47532666206808155
0.5025718771985292 0.5041388701957067 0.4778389819978857
0.5052253621628514 0.5067112665908868 0.4801578171339093
0.5076513387156939 0.5090671523914329 0.48225979572211536
0.5099376819106954 0.5112890676869933 0.4842345213666503
0.5120802420696948 0.5133906823593724 0.48611332375853705
0.5141713099873653 0.5154480035456032 0.48795794936653397
0.5162217009783454 0.5174974079325081 0.48983945556044356
0.5182681742935079 0.5195475520799868 0.4917330393011566
0.5202966013753223 0.5216031800986989 0.49368999235148964
0.5223684251159517 0.5237013023549367 0.49569421482383363
0.5245000463547695 0.5258539039515545 0.4977821320520945
0.5267146401292515 0.528087415333643 0.49995130158149187
0.5290442273742891 0.5304223422470246 0.5022281999446162
0.5314526218232859 0.5328351711126463 0.5045827687942626
0.5339521449164217 0.5353322525694368 0.5070245572839621
0.5364764093965304 0.5378520524013463 0.509491726225584
0.5390252443956582 0.5403786714627398 0.5119907327053034
0.5414976040053043 0.5428277052435412 0.5144167350231518
0.5438389675343377 0.5451344722045043 0.5167417107256843
0.546037804403538 0.5472978681529194 0.5189263909961374
0.5480314403668004 0.5492457771594902 0.5209187599914353
0.5499723302167524 0.5511407694758054 0.5228594480367186
0.5519149685974495 0.553035525420228 0.5248105773099626
0.554009460820196 0.5550817444860884 0.5269121959366141
0.5564152436916453 0.5574308529847737 0.529321018791911
0.5590792067360506 0.5600375529904431 0.5319848747843242
0.5620776987504147 0.56295759908543 0.5349426310066244
0.5652333936440767 0.566034882851056 0.5380561638464311
0.5684173179076778 0.5691637207978539 0.5411860942605776
0.5715949896443355 0.572286199257982 0.5443098962476659
0.5746623327444258 0.5753433317645151 0.5473348217453992
0.5775970515831554 0.5782681925942749 0.5502284666495425
0.5802695440302896 0.5809884234582061 0.5528720140831221
0.582728615872762 0.5834967234377947 0.5553043418158318
0.584886804762903 0.5857338633547544 0.5574121322169755
0.5868870695981009 0.5878144049638043 0.5593623234026701
0.5888329554636873 0.5898360524308573 0.5612358699214023
0.5907984119509583 0.5918770957706407 0.5631274661746705
0.5929384579407975 0.5940823202823834 0.5651885201696132
0.5952393941589588 0.5964477331719044 0.5674087468741424
0.5977684933605015 0.5990363551003792 0.5698840828947717
0.6004939047308812 0.601820921532523 0.5725567774607958
0.6034082165469402 0.6048108384680521 0.5754610533373502
0.6064648834692844 0.6079451348325321 0.5785116295393208
0.6095902745392583 0.6111457414004272 0.5816294174931685
0.6127414967029864 0.614371986641228 0.58477282469607
0.6158355470536959 0.6174914894256066 0.5878037974757877
0.6188667793131144 0.6205405140795875 0.5907638738565295
0.621861878281921 0.6234814595133484 0.5936180042063358
0.6248050185906653 0.6263576672465716 0.5964081601120352
0.6277985788930058 0.6292044373945487 0.5992138557523101
0.6307863064869312 0.6320293188847009 0.6020067884099033
0.6338261880575964 0.6348411237745408 0.6048583143734612
0.6368519437332892 0.6376240613938662 0.6076972498746657
0.6398198662758203 0.6403111061674416 0.6104902440537144
0.642714486297963 0.6429151985270838 0.613213291370462
0.6454810129352926 0.6454099184885004 0.6158505586983917
0.648150355836681 0.6478122760792449 0.6184025983880092
0.6507387487561326 0.6501721665370591 0.620918923711605
0.6532485111503772 0.6524646595345666 0.6233705147552739
0.6556547490037953 0.6546722168608461 0.6256947384559067
0.6579498184500048 0.6567745071162076 0.6279007424815259
0.6600575643891701 0.6586992728017287 0.6298708473390362
0.6620025714636941 0.6604647008889339 0.6316619331855634
0.6638023266553212 0.6621019828242183 0.6332835556202332
0.6654641656744668 0.6636078540615187 0.6347587064328885
0.6669869672819865 0.6649932836116649 0.6361039508926091
0.6683963333084003 0.6662729273053585 0.637339956828075
0.6697343915926924 0.6675015663219238 0.6385429941222704
0.6710516448002818 0.6687183568848616 0.6397420982112726
0.672561271765638 0.6701681519830573 0.6412092580912035
0.6742665713189804 0.6718328882708235 0.6429072985851418
0.6762785565444839 0.6738303642025715 0.6449577908941057
0.6785891519288749 0.6761396767564631 0.6473291868180938
0.6811989052980805 0.6787429598082607 0.6499932675892841
0.6841064988916625 0.6816411118351586 0.652950574064328
0.6873374566165763 0.6848449048048142 0.6561953973761876
0.6908627678347258 0.6883324993663829 0.6597126590796817
0.6945448707381281 0.6919315649751127 0.6633284938252901
0.6983669319365724 0.6956419364312606 0.6670472801610804
0.7021689815329984 0.6992767643859508 0.6706891727869679
0.70594136635396 0.7028444796901832 0.6742632241887025
0.7095474849057462 0.7062107988017265 0.6776350300052042
0.7129925143601583 0.7093907702269605 0.6808202234761384
0.7162812198046558 0.7124177543450501 0.68385496175936
0.7194192376786729 0.7152965811657424 0.6867437342290145
0.7225018880961402 0.7181375040549888 0.6895995833209244
0.7255311539665837 0.7209392506129626 0.692420403372375
0.7286169043258476 0.723812620571954 0.6953025244410032
0.7317588246204022 0.7267552670485071 0.6982449141712908
0.7350346185956432 0.7298562107289149 0.7013335819079489
0.738444475996813 0.7331137917514065 0.7045676940955807
0.7420173323125868 0.736556168602481 0.7079817997301766
0.7457540462358571 0.7401838934308815 0.7115765065508316
0.7495676010581426 0.7439081698405816 0.7152748870923796
0.7534580807990993 0.7477301041830067 0.7190784397807094
0.7573497030041525 0.7515908702624573 0.7229141907003692
0.761239559101571 0.7554920911298457 0.7267829784696477
0.7650642974393412 0.7593681189187536 0.7306058063894368
0.7688173384489587 0.7632200464475021 0.7343797066119349
0.7724765730141954 0.7669928674683418 0.7380647251514575
0.7760316333293246 0.7706800992357876 0.7416516227840236
0.779577064304965 0.7743540341597762 0.7452409115073657
0.783111020950383 0.7780114242636547 0.7488349062599378
0.7867550189122408 0.7817594740718501 0.7525591134526965
0.7905304310389256 0.7856108620708245 0.7564440043071978
0.7943695209100136 0.7895006926916626 0.7604067686404735
0.7982924775681015 0.7934353693635051 0.7644752172579319
0.8021190805240143 0.7972538733683856 0.7684381060834274
0.8058489291893313 0.800942790814066 0.7722882167978342
0.8093618707080741 0.8044144910832092 0.7758996525036473
0.8126383120400004 0.8076489452719597 0.7792346813505177
0.8157036569059972 0.8106899782425486 0.7823418666276589
0.8185344513344656 0.8135296423526668 0.7851813494202391
0.821269843965784 0.8162913303805137 0.7879215855373598
0.8239100138495346 0.8189929385347202 0.7905579381389886
0.8265378973248332 0.8216914787439127 0.7931929451635285
0.8291570051157298 0.8244011886718491 0.7958427785485606
0.8318019189162311 0.8271389937348086 0.7985380021401784
0.8344763218999063 0.8299115264648167 0.8013087138750318
0.8371868128055584 0.8327172777321747 0.804127400816201
0.8399485844612018 0.8355668744946911 0.807027430074877
0.8426907983512139 0.8383935060709381 0.8099046399222275
0.8454090081533904 0.8411865060857905 0.8127481896147244
0.8480464505180185 0.8439082747084479 0.8154988361284294
0.8505697281183938 0.8465438235183149 0.818097814722296
0.8530223915177699 0.8491197474015714 0.8206129537054376
0.8553662679154949 0.8516219739019277 0.8229752434049479
0.8577699814285485 0.8541831508455979 0.8253966527033871
0.8602690055741514 0.8568361452455647 0.8279114551686139
0.8629364716506018 0.8596441647374411 0.8306009911214891
0.8658459455167108 0.8626418623219673 0.8335597321014167
0.8689120967087476 0.8657746547135136 0.8366808541528263
0.8721966247086542 0.8690330738111807 0.8400476331537251
0.875527843253476 0.8723151981087499 0.8434614037011154
0.8789332698875251 0.8755618889521342 0.8469510178593294
0.8822738068289966 0.8787251010009953 0.8503726973283359
0.8855427124677762 0.8817177146434686 0.8537034522998481
0.8887582860537301 0.8846521525438498 0.8569792534755787
0.891939407281778 0.88752409871192 0.860207704687192
0.8951656715769608 0.8904493296682897 0.8634837280025106
0.898380886849761 0.8934224525849948 0.866766695602502
0.9019108466158372 0.8967163279363306 0.8703795514269642
0.9059145684043333 0.9005369783534575 0.8746011245279833
0.9103446942659208 0.9047562648247653 0.8792396137218786
0.9156213875693453 0.909561729023104 0.8846505314053297
0.9206243731609566 0.9140882530970582 0.8897762826545645
0.9247528569942336 0.9176845128525777 0.8938715967382067
0.9281863334507336 0.9206086802739295 0.8972698293579435
0.9303509987092803 0.9225999391980065 0.899307214712652
0.9326219085685822 0.9247151183391367 0.9014487329667916
0.9360128749253971 0.9283113476423469 0.9046754817701025
0.9392983321406703 0.9318451734679024 0.9077881784201848
0.9406978912011796 0.9348074364286517 0.9087473652144373
0.9412816897375994 0.9369546467260189 0.9089885749773898
0.9404880047112151 0.937583175296249 0.9135934333482167
0.9391035077031611 0.9376323669156434 0.9176210857722437
0.2629433247043114 0.27542020999349887 0.26536213579422696
0.26167335592325935 0.27393738944471996 0.2658524737675293
0.26310912462058883 0.2747508738825223 0.26529142929080757
0.2657286431741465 0.2767533599399305 0.2658562026642108
0.26832158498094394 0.27986387379350347 0.26855441289742615
0.2716770568707472 0.2837811286095787 0.27208631044943304
0.27595518721310053 0.2885150347481396 0.27648631153921827
0.2802631081861859 0.2932752312179912 0.2809140897946308
0.2835329603270762 0.29674380352689245 0.28450419763479357
0.286131205685448 0.29951963833879003 0.28743717287409903
0.2882148659015277 0.301681752815044 0.28976304108182255
0.2899997165285253 0.3035347539863007 0.2917825216574742
0.292101868147974 0.3055657987411115 0.29375001836255776
0.2943181012119405 0.3076967351795299 0.29579274195560934
0.2968840136722744 0.3100474484066152 0.2979703655039342
0.29956196707015065 0.31249409487913193 0.30023263488109236
0.30214593633131587 0.31487827964141374 0.30248687464480556
0.30463186001406606 0.3171679540510183 0.30465491255880345
0.3069231804952434 0.31919291110485526 0.3065592530478265
0.30902535729132047 0.32101572524685973 0.30826260963783636
0.3109474809992187 0.32263214864014134 0.3097362249417693
0.3127241455353897 0.3240972429313513 0.3110548066349367
0.31444784435930645 0.32550520973271846 0.31227144464096707
0.31614980989893765 0.3268903309060005 0.31345573733922916
0.31794392146193895 0.32837910154234234 0.3146915386928797
0.3198549631444583 0.3299878205713825 0.3160341448054348
0.32201804338828993 0.33184727520589813 0.31761721265165976
0.3244043861145787 0.3339301396941887 0.3194194951541992
0.3270424670432784 0.3362659002313334 0.32151108640990483
0.3298826444452614 0.3388042187495804 0.3238142436822217
0.3327911076004648 0.34142943219173494 0.3262403491557723
0.33576037261759734 0.34412090041039384 0.32874336560750594
0.33861904652648017 0.3467322425577277 0.3312010774925644
0.34141590516950293 0.3492915692640372 0.3336186045569746
0.3440982995585666 0.351793896753119 0.3359859833380388
0.34673470752874314 0.35427101704181796 0.3383305902960658
0.34942994638611824 0.3568709042459312 0.3407596934566392
0.35220663524324636 0.359577650654143 0.3432798252562029
0.35513884750804336 0.362468486800726 0.34594172759024644
0.3582260688847418 0.3655267770042866 0.34875196211472803
0.3615030805245095 0.36875647640927933 0.3517177488570913
0.3649481500789043 0.3721458990634919 0.3548349556056725
0.36854579784965885 0.37564210410172855 0.35805760541032483
0.372257067945925 0.37922913031994326 0.36136978571416506
0.3759485846566375 0.3827550958432199 0.36463027623204247
0.3796011948369185 0.3862198435442415 0.3678345259818579
0.38303727983977226 0.3894720464669396 0.37081768356335143
0.38627587864075824 0.3925286609053399 0.3736007964095317
0.3892790056143853 0.3953825190841003 0.376167995046836
0.3920682283361988 0.3980421472023541 0.3785333625577777
0.3947169660045536 0.4005947708943762 0.38078894534309965
0.39723122431598684 0.40303456524223225 0.38293010323777915
0.3996619035544159 0.40541567427938685 0.3850004782010034
0.4020092543944331 0.40773068815463515 0.38699642757059854
0.4042898192742123 0.4099722520579123 0.3889438002131443
0.40649759583346806 0.41213601582011694 0.3908319400821686
0.40858884945143376 0.41415450593116204 0.39261547756101417
0.41055617992834353 0.416026260567016 0.394284700470098
0.41227151262572875 0.41762020750726475 0.39572136860968987
0.4137383736431939 0.41894388701024265 0.39692622910878245
0.414953777854504 0.420014096699907 0.3979154617464213
0.41592198295974525 0.42083528381206586 0.3986898159128146
0.41685060439243626 0.4216389176322768 0.3994611880760786
0.4177378961627598 0.42242224075291035 0.4002261924419634
0.4187768074460884 0.42337896089157895 0.4011428868014578
0.41996707318815657 0.424509159753204 0.40221100392218245
0.42131420818284704 0.42579969368961607 0.40341614398090064
0.4228205555712362 0.4272531683847576 0.4047590562422788
0.42440653838347125 0.42878241726130756 0.40616795075763684
0.42607322328008396 0.4303878977401677 0.40764188661960465
0.42775411330985985 0.43200521130728337 0.40912309543991143
0.42945084932933253 0.4336354695247582 0.4106116804371452
0.4310750589880297 0.43518935396743463 0.4120298769249392
0.43261733865755536 0.4366563184921805 0.413368922393248
0.4341379096689602 0.4381019417526761 0.4146914783089399
0.43562534331099145 0.43951497458820477 0.4159882966590377
0.43727644868959364 0.4410950544226898 0.41745669145077974
0.439101399620819 0.442853947149629 0.4191113642566261
0.4411819912235867 0.44487366931315914 0.42102497759185986
0.44353484270380844 0.44717379653085937 0.4232173146210499
0.44609569101822316 0.44968484152713356 0.4256088751426356
0.4488748691258719 0.4524191057446813 0.4282050630711792
0.4517167715755673 0.4552174933975455 0.43087276289651283
0.4546118452715972 0.4580716305019987 0.43361040226892894
0.45744677444874965 0.4608612711187617 0.4362938920611211
0.46019713899727294 0.4635579787813246 0.4389044594799354
0.4628975205741001 0.4661933834467428 0.44145927076772984
0.46553995841678114 0.4687472510250961 0.4439437707735135
0.46824933539947716 0.47135602568685325 0.44648793516649593
0.4710573343263507 0.4740364003064324 0.44911493797947194
0.47399503605647025 0.47683487846641853 0.4518598864629407
0.4771016132640025 0.47977422178784684 0.4547466323826728
0.48028051354901174 0.48278408760996755 0.457692425984254
0.4835215702498787 0.485851891845508 0.460667000252393
0.48680236050623066 0.48896584629086143 0.46367347424371835
0.4901252975815233 0.49214095300668187 0.4667010940291751
0.49341117107901306 0.49528661417179337 0.4696825079611516
0.4966481122849546 0.4984077307919416 0.472587021122262
0.49972115825150415 0.5013720658075311 0.47532666206808155
0.5025718771985292 0.5041388701957067 0.4778389819978857
0.5052253621628514 0.5067112665908868 0.4801578171339093
0.5076513387156939 0.5090671523914329 0.48225979572211536
0.5099376819106954 0.5112890676869933 0.4842345213666503
0.5120802420696948 0.5133906823593724 0.48611332375853705
0.5141713099873653 0.5154480035456032 0.48795794936653397
0.5162217009783454 0.5174974079325081 0.48983945556044356
0.5182681742935079 0.5195475520799868 0.4917330393011566
0.5202966013753223 0.5216031800986989 0.49368999235148964
0.5223684251159517 0.5237013023549367 0.49569421482383363
0.5245000463547695 0.5258539039515545 0.4977821320520945
0.5267146401292515 0.528087415333643 0.49995130158149187
0.5290442273742891 0.5304223422470246 0.5022281999446162
0.5314526218232859 0.5328351711126463 0.5045827687942626
0.5339521449164217 0.5353322525694368 0.5070245572839621
0.5364764093965304 0.5378520524013463 0.509491726225584
0.5390252443956582 0.5403786714627398 0.5119907327053034
0.5414976040053043 0.5428277052435412 0.5144167350231518
0.5438389675343377 0.5451344722045043 0.5167417107256843
0.546037804403538 0.5472978681529194 0.5189263909961374
0.5480314403668004 0.5492457771594902 0.5209187599914353
0.5499723302167524 0.5511407694758054 0.5228594480367186
0.5519149685974495 0.553035525420228 0.5248105773099626
0.554009460820196 0.5550817444860884 0.5269121959366141
0.5564152436916453 0.5574308529847737 0.529321018791911
0.5590792067360506 0.5600375529904431 0.5319848747843242
0.5620776987504147 0.56295759908543 0.5349426310066244
0.5652333936440767 0.566034882851056 0.5380561638464311
0.5684173179076778 0.5691637207978539 0.5411860942605776
0.5715949896443355 0.572286199257982 0.5443098962476659
0.5746623327444258 0.5753433317645151 0.5473348217453992
0.5775970515831554 0.5782681925942749 0.5502284666495425
0.5802695440302896 0.5809884234582061 0.5528720140831221
0.582728615872762 0.5834967234377947 0.5553043418158318
0.584886804762903 0.5857338633547544 0.5574121322169755
0.5868870695981009 0.5878144049638043 0.5593623234026701
0.5888329554636873 0.5898360524308573 0.5612358699214023
0.5907984119509583 0.5918770957706407 0.5631274661746705
0.5929384579407975 0.5940823202823834 0.5651885201696132
0.5952393941589588 0.5964477331719044 0.5674087468741424
0.5977684933605015 0.5990363551003792 0.5698840828947717
0.6004939047308812 0.601820921532523 0.5725567774607958
0.6034082165469402 0.6048108384680521 0.5754610533373502
0.6064648834692844 0.6079451348325321 0.5785116295393208
0.6095902745392583 0.6111457414004272 0.5816294174931685
0.6127414967029864 0.614371986641228 0.58477282469607
0.6158355470536959 0.6174914894256066 0.5878037974757877
0.6188667793131144 0.6205405140795875 0.5907638738565295
0.621861878281921 0.6234814595133484 0.5936180042063358
0.6248050185906653 0.6263576672465716 0.5964081601120352
0.6277985788930058 0.6292044373945487 0.5992138557523101
0.6307863064869312 0.6320293188847009 0.6020067884099033
0.6338261880575964 0.6348411237745408 0.6048583143734612
0.6368519437332892 0.6376240613938662 0.6076972498746657
0.6398198662758203 0.6403111061674416 0.6104902440537144
0.642714486297963 0.6429151985270838 0.613213291370462
0.6454810129352926 0.6454099184885004 0.6158505586983917
0.648150355836681 0.6478122760792449 0.6184025983880092
0.6507387487561326 0.6501721665370591 0.620918923711605
0.6532485111503772 0.6524646595345666 0.6233705147552739
