obsidian/Clippings/写真家活動/技法探求/デジネガ/QTR/プロファイル作成/QTR-DN/QTR-DN/QUAD/20%/PtPd-K50-starter-PX1V-v2-finel-softproof.cube
#Color Lookup Table 
TITLE "QuadToneProfiler Color Lookup Table for 256-step Soft Proof
LUT_1D_SIZE 256
DOMAIN_MIN 0.0 0.0 0.0
DOMAIN_MAX 1.0 1.0 1.0
0.2629433247043113 0.27542020999349875 0.265362135794227
0.2670943756646628 0.27839157382923796 0.2672773251971479
0.2691090731894827 0.28078309028506065 0.2693832437066299
0.27115128113622905 0.2831672414720208 0.271532844542826
0.27326060190282214 0.2855332704218125 0.2737149136224358
0.27539501976965297 0.28789513663521243 0.2759101612930772
0.27753410401278383 0.2902596138816599 0.27810910830053936
0.2796766010292679 0.2926270963302219 0.28031123954977466
0.2818636612120299 0.29497302298800016 0.2826713118687499
0.2840656210315563 0.2973128513027849 0.2851054279665682
0.28626176963719124 0.2996551164801675 0.2875829035138095
0.2885066034314383 0.3019846256274219 0.2900931091106574
0.29080137755695296 0.304309314317489 0.29253284574885585
0.29320218975399237 0.30662379071247936 0.2947642148625121
0.29566364514198984 0.3089294553382863 0.2969347060278607
0.298175870403823 0.3112277484761523 0.2990617333154782
0.30068404965333184 0.31352944931327104 0.30121156429433094
0.3031845608084381 0.3158349363521911 0.3033927137075367
0.30572455282143385 0.31813364508122194 0.3055630847336017
0.3083356331859099 0.3204176758330316 0.30770375537448846
0.3110168706590759 0.32268937066626413 0.3097877254292109
0.31376857015556314 0.32495036084161677 0.31179200407617663
0.3165407420592469 0.32721472860533446 0.31372502638106975
0.3192725385382052 0.3294975336732309 0.315624978311556
0.3219567054588835 0.33179454755740456 0.3175723249969587
0.3245998992120774 0.3341032526342821 0.31957451738546727
0.3272135527945194 0.3364188085221166 0.32164983295702815
0.3298113375137007 0.3387404929554632 0.3237564236146039
0.3323907662550308 0.34106809381750164 0.3259064223735039
0.3349648792269599 0.3433998569044439 0.3280728166191137
0.33752898721999647 0.3457365245282137 0.33026394433754985
0.3400886701834124 0.34807708393037345 0.3324714113388235
0.34263149625620287 0.3504255836756053 0.33469146619703294
0.34515185049707753 0.3527838158382833 0.3369229505289497
0.3476489442723511 0.35515292528568326 0.33915457635485696
0.35011273529314135 0.3575365051425916 0.3413794147208862
0.3525623449744884 0.3599283457733417 0.343602756451229
0.3549977053688966 0.36232933834601827 0.3458136024172005
0.3574275704815549 0.36473576931470764 0.34802513047797623
0.3598663060022375 0.3671433463911856 0.3502364608122325
0.3623120911637004 0.36955243067058235 0.35244979705639684
0.3647627541250917 0.3719635009229523 0.35466721203387797
0.36723768033636117 0.37437089270470886 0.35688588286509715
0.3697220135958466 0.37677896636580854 0.359107381627659
0.3722145683878849 0.37918805475013734 0.361331858637334
0.3747322039732607 0.3815932929305378 0.36355596794806055
0.3772600106086083 0.3839991019489766 0.36578077166408224
0.3797975522560291 0.3864056988130113 0.3680050111224578
0.38234283245555106 0.38881478009526665 0.37021480627274195
0.3848956604791258 0.3912260232547136 0.37241474084827386
0.38744760671638107 0.3936421645890893 0.3746024780544006
0.38999445538662875 0.3960647361870296 0.37677475254704546
0.392536620280217 0.39849354734173575 0.37893225041331496
0.39506353831847857 0.4009310813060867 0.38108410320898806
0.39757991830370515 0.4033761491343827 0.3832271241139977
0.40008214075445253 0.40583012224553866 0.38535782177678074
0.40257832252674003 0.40829002533660064 0.38748237335500374
0.405083071029537 0.4107496919428501 0.3896222281049274
0.4076062456142036 0.4132060957230856 0.3917774782633451
0.41016464293064875 0.41565374894912577 0.3939525036934777
0.4127859530749357 0.41808443850035343 0.3961439314422528
0.415509508910982 0.42048544576823893 0.3983599288610766
0.41823675204896626 0.42288163430466047 0.4006663660093918
0.4208192807829017 0.42532556447793035 0.4029733891075355
0.4233718052966443 0.42778470249220285 0.4052487612533051
0.4259272976908443 0.4302473323015018 0.4075128398635189
0.4284897209142194 0.432712002476805 0.4097684701706832
0.4310625401642104 0.435177377322539 0.41201894625323
0.4336528890744572 0.4376408312183904 0.41426962600110423
0.43624328868187223 0.44010634263248444 0.41653786754559796
0.4388146479994223 0.4425775782783297 0.41885137197191996
0.4413677359635527 0.4450552539119241 0.4211980525225234
0.4439072258666626 0.4475389415156921 0.4235650845962354
0.4464434162405107 0.45002695075252314 0.4259337087495605
0.44897672303716635 0.4525194012168154 0.42830067455634585
0.45151037683602974 0.455014261146312 0.43067902166978184
0.454043595645303 0.4575114210926963 0.4330730571651207
0.45658157105629454 0.46000989661169317 0.4354749106141024
0.45912685023558625 0.4625085788129972 0.43788857471117065
0.46168194364155807 0.4650070656886814 0.4403092258430727
0.46425319279419214 0.46750362768456194 0.44273391951639685
0.46683944434870256 0.469998498988162 0.4451640216206412
0.4694393318333204 0.47249195279486106 0.4476012334078286
0.47205229333216264 0.4749842229676457 0.4500446201128498
0.474673690114411 0.47747701461410247 0.45249052277251206
0.47730753314573754 0.4799691977419341 0.45493745476309205
0.4799430157937094 0.4824645447170593 0.4573796805774683
0.4825826745675405 0.4849632046879418 0.4598053129395812
0.48522186691730934 0.487465747210814 0.462225145388301
0.48785704975839467 0.48997363220484963 0.4646344466528585
0.49048723373299935 0.49248745216956485 0.46702950184869
0.4931172730451741 0.4950052631675968 0.46941584799383945
0.4957391304272088 0.4975312856994734 0.47177140874190265
0.49836213713675687 0.5000611327750908 0.47411510797413164
0.5009827709755278 0.5025965486862457 0.4764385353111637
0.5036019274704205 0.5051374486366641 0.4787391452570566
0.5062246831941399 0.5076817193875175 0.4810236935317476
0.5088480741943796 0.5102301677302503 0.48329343903501115
0.5114618899084759 0.512784148837488 0.48557110417918364
0.5140650046443828 0.5153434141183157 0.4878641749154195
0.5166346838313752 0.5179111314313124 0.4902215881625753
0.5191909379232695 0.5204826877763461 0.49262328619877543
0.5217327814298087 0.5230575884432065 0.49507930921454185
0.5242798794529362 0.5256315694252065 0.4975664771998081
0.5268328146451016 0.5282058606730573 0.5000668022243245
0.5293995808527576 0.5307783499415948 0.5025756085205854
0.531970363740759 0.5333524076710803 0.5050885476769358
0.5345479929834004 0.5359270473416323 0.5076069233977356
0.5371321291765693 0.5385020587882974 0.5101346213105875
0.5397282419053145 0.5410750384882639 0.5126805430271348
0.5423301757382789 0.5436479774351998 0.5152434707873158
0.5449410918822031 0.546218835325488 0.5178367310308182
0.5475627535948702 0.5487878426671027 0.5204503653762834
0.5501929389718925 0.5513559418561886 0.5230810176726497
0.5528257244591195 0.5539252937248412 0.5257244227307428
0.5554595491241032 0.5564976765795406 0.528364105357888
0.5580937895861321 0.5590733225269171 0.530999484368438
0.5607358378433188 0.5616508521661463 0.5336189880234077
0.5633829958894343 0.564230471564129 0.5362304757799484
0.5660268418189873 0.5668146081648402 0.5388361478990227
0.5686631019323627 0.569405237627261 0.5414277083694442
0.571301679219203 0.5719979855361084 0.5440215543967772
0.5739182335680878 0.5746017102585784 0.5466010040061091
0.5765339887415665 0.5772087015104481 0.5491802726095371
0.5791281931676233 0.5798266794625292 0.5517430151433226
0.5817060870004226 0.5824537196048243 0.5542929255058182
0.5842673395317688 0.58509173098422 0.5568071293711169
0.5868148644856834 0.587739301105583 0.5592919253578323
0.5893669364488293 0.5903905642851023 0.5617497833717885
0.5919282159477256 0.5930413043060431 0.5642155662043105
0.5945021372130432 0.5956898118906641 0.566697348885943
0.5970841996620708 0.5983359518921822 0.5692143312116829
0.599672382444322 0.6009815629476498 0.5717511395357138
0.6022565833964986 0.6036293202211818 0.5743133724909264
0.6048400912078912 0.6062790684560639 0.5768900588915853
0.6074269391706856 0.6089303352415395 0.5794713309345831
0.6100174948636106 0.6115831283997593 0.582055570625395
0.6126105073929757 0.6142378772891642 0.5846421576269193
0.6152355999340995 0.616886605493382 0.5872160763063289
0.6178681496810463 0.6195360215783848 0.5897886805864557
0.620534813987801 0.6221783958740491 0.5923534015270016
0.6232275003839526 0.6248160322363756 0.594912644013005
0.6259500365165631 0.6274465527307999 0.5974813253908084
0.6287106741828024 0.6300668323449176 0.6000664880896672
0.6314920876444856 0.6326821616973582 0.6026688398968272
0.6343097235800503 0.6352858671877413 0.605311995664711
0.6371419874478502 0.6378866644151576 0.6079701982091366
0.6400051651220438 0.6404778125561481 0.6106645593617243
0.6428821085405771 0.6430663569448379 0.6133730809478471
0.6457549791834194 0.6456564901224648 0.6161124839410155
0.648628300686336 0.6482480380297745 0.6188672318873332
0.6514785721906916 0.6508479561776721 0.6216415934402946
0.6543250107295983 0.6534522869422955 0.62441031880303
0.6571714245820226 0.6560615071516482 0.6271525532531895
0.6600296718668055 0.6586738022755558 0.629844776321852
0.6629071781336232 0.6612876515591143 0.6324770090631724
0.6657925585535446 0.6639066260309126 0.6350488114846808
0.6686771966601318 0.6665308256335896 0.6375924802830398
0.6715183544404554 0.6691665713449984 0.6401956777458213
0.6742610874616413 0.6718275348764046 0.6429018380182078
0.6769525090026202 0.6745039406606519 0.6456494658656616
0.6796371390226339 0.6771850636484276 0.6483989741954999
0.6823273869620802 0.6798677751423392 0.6511410256928168
0.6850248871048416 0.6825517787541793 0.6538728891804301
0.6877331210967678 0.6852363368057688 0.6565901513913208
0.6904480491253666 0.6879222183451031 0.6592988800153973
0.6931870092659077 0.6906043325751519 0.6619950597481604
0.6959394689275208 0.6932854202568525 0.6646854017984319
0.6987052757716582 0.6959654048912504 0.6673713712423482
0.7015019141097968 0.6986390459722547 0.6700502040857782
0.7043183082980429 0.7013095005115868 0.6727255009951401
0.7071543191464442 0.7039767937785952 0.6753973688081302
0.7100126055305064 0.706640144145186 0.6780650731638352
0.7128935415219873 0.7092994148510617 0.6807287163529611
0.7157824325834617 0.7119586725427925 0.6833946965527067
0.7186794255316664 0.714617889677061 0.6860626884430358
0.7215719926368416 0.7172805422751306 0.6887381080093535
0.7244584338886139 0.719947114992336 0.6914215017595181
0.7273353273010063 0.7226192653644671 0.6941055229835491
0.7302021975264896 0.7252973832990459 0.6967871461554404
0.7330553058139296 0.7279825602266248 0.6994673382725111
0.7358921920617796 0.730675496509255 0.7021469572976171
0.738715786079583 0.7333751968005615 0.7048269492080987
0.7415248924131517 0.7360817177019281 0.7075112401237534
0.7443225345914765 0.7387941434833237 0.7101993946268874
0.747112887520435 0.7415109295228244 0.712894303649909
0.7498969265398461 0.7442316943840802 0.715596851229877
0.752671386574552 0.7469572733671593 0.7183093167450777
0.7554328992720414 0.7496892642609055 0.7210248923972489
0.7581834528885109 0.7524270520761108 0.7237434123285564
0.760919977326081 0.7551715738676931 0.7264651220429627
0.7636396558277807 0.7579243627473756 0.7291818569975969
0.7663464609804276 0.7606840500490396 0.7318950748024913
0.7690408450438049 0.7634504867056632 0.7346047827196762
0.7717287034710625 0.7662217713499356 0.7373115707013536
0.7744098269238932 0.7689979767545867 0.7400152692029937
0.7770899283163674 0.7717767356467431 0.7427229886195387
0.7797726820673386 0.7745564804377131 0.7454398471375956
0.7824588770262224 0.777336490905275 0.7481716674141774
0.7851553844294531 0.7801141458267816 0.7509242398790626
0.7878625207869628 0.7828892503812434 0.7536987019232034
0.7905805639613456 0.7856616569279509 0.7564957503511038
0.7933130056602337 0.7884302033385961 0.7593161891080983
0.7960590225138972 0.7911952327767184 0.7621588900413594
0.7988162144032768 0.7939579947634898 0.7650175898023152
0.8015835802737257 0.7967195034947552 0.7678835161329046
0.8043674668177213 0.799477584035241 0.770758956210863
0.8071577319486032 0.8022362274723879 0.7736336901163625
0.8099517906638658 0.8049968513895325 0.7765001097213985
0.8127503068987751 0.8077600517533877 0.7793482027160246
0.8155418187345083 0.8105294234700771 0.7821778163748118
0.8183158889747101 0.813310394372731 0.7849621133057217
0.8210789406163308 0.8160985908318543 0.7877303417305349
0.8238184311406108 0.8188992237620123 0.7904664867374521
0.8265504189598113 0.8217044333587246 0.7932056134750174
0.829267743774042 0.8245158149663809 0.795955621445422
0.8319843773913683 0.8273281441573461 0.798727026571698
0.8346977077941571 0.8301406895852547 0.8015389310918009
0.8374152946022057 0.8329530218204703 0.8043673137441797
0.8401391332707293 0.8357632864192807 0.8072273536604928
0.842867035326596 0.8385745897628594 0.8100889984092552
0.8456023852065797 0.8413860632472445 0.8129498617344023
0.8483296873411025 0.844204109543088 0.8157905645919593
0.8510374426627615 0.8470350364144155 0.8185774352002455
0.8537307283244298 0.8498759275942637 0.8213268474271016
0.8564055784156381 0.8527293548051277 0.8240221959652255
0.8590880150167356 0.855582377871444 0.8267229984878752
0.8617849642637447 0.8584319696122285 0.8294399458342796
0.8645143711295559 0.8612699012732377 0.8322055957570642
0.8672714962765199 0.8640983886445939 0.8350108251944391
0.8700619512079034 0.8669153682412051 0.8378594856906525
0.872891986162757 0.8697181880315565 0.8407602136498387
0.8757391654546094 0.8725166722642945 0.8436779452502088
0.8786504400355557 0.8752922454503465 0.8466611896461989
0.8815762196945829 0.8780645507606937 0.8496581523511041
0.8845594145217097 0.880817540339102 0.8527015335991044
0.8875658869026488 0.8835640196442224 0.8557645032275757
0.890590458483946 0.8863062726335056 0.85883866820488
0.8936209910057935 0.8890487964599327 0.8619152056041327
0.8966284836293441 0.8918020119755441 0.8649773470091184
0.8996081216191847 0.8945676230273996 0.8680227302528102
0.9025664869435489 0.8973419935502674 0.8710708431456572
0.9054862764866379 0.9001282734410005 0.8741495119817941
0.9084123363906641 0.9029158842003397 0.877216324410761
0.9113740235256815 0.905693697912127 0.8802950926349736
0.9144017497999145 0.9084510400279134 0.8833998314765078
0.9174395808725528 0.9112068035456707 0.8865132959176302
0.9204848268917519 0.9139620009839768 0.8896333069281357
0.9236152738655711 0.9166936120516374 0.8927431351110234
0.9267829754593244 0.9194135195132627 0.8958808591018024
0.9298829098004012 0.9221693526494943 0.8988666500519128
0.9328688736424183 0.9249770263173965 0.9016837386836479
0.9356078136589491 0.9278817570520725 0.9042900378109782
0.9383248912574048 0.9307981204261276 0.9068659263036098
0.9403254373360204 0.934018761558154 0.9084920686289393
0.9391035077031611 0.9376323669156434 0.9176210857722437
0.2629433247043113 0.27542020999349875 0.265362135794227
0.2670943756646628 0.27839157382923796 0.2672773251971479
0.2691090731894827 0.28078309028506065 0.2693832437066299
0.27115128113622905 0.2831672414720208 0.271532844542826
0.27326060190282214 0.2855332704218125 0.2737149136224358
0.27539501976965297 0.28789513663521243 0.2759101612930772
0.27753410401278383 0.2902596138816599 0.27810910830053936
0.2796766010292679 0.2926270963302219 0.28031123954977466
0.2818636612120299 0.29497302298800016 0.2826713118687499
0.2840656210315563 0.2973128513027849 0.2851054279665682
0.28626176963719124 0.2996551164801675 0.2875829035138095
0.2885066034314383 0.3019846256274219 0.2900931091106574
0.29080137755695296 0.304309314317489 0.29253284574885585
0.29320218975399237 0.30662379071247936 0.2947642148625121
0.29566364514198984 0.3089294553382863 0.2969347060278607
0.298175870403823 0.3112277484761523 0.2990617333154782
0.30068404965333184 0.31352944931327104 0.30121156429433094
0.3031845608084381 0.3158349363521911 0.3033927137075367
0.30572455282143385 0.31813364508122194 0.3055630847336017
0.3083356331859099 0.3204176758330316 0.30770375537448846
0.3110168706590759 0.32268937066626413 0.3097877254292109
0.31376857015556314 0.32495036084161677 0.31179200407617663
0.3165407420592469 0.32721472860533446 0.31372502638106975
0.3192725385382052 0.3294975336732309 0.315624978311556
0.3219567054588835 0.33179454755740456 0.3175723249969587
0.3245998992120774 0.3341032526342821 0.31957451738546727
0.3272135527945194 0.3364188085221166 0.32164983295702815
0.3298113375137007 0.3387404929554632 0.3237564236146039
0.3323907662550308 0.34106809381750164 0.3259064223735039
0.3349648792269599 0.3433998569044439 0.3280728166191137
0.33752898721999647 0.3457365245282137 0.33026394433754985
0.3400886701834124 0.34807708393037345 0.3324714113388235
0.34263149625620287 0.3504255836756053 0.33469146619703294
0.34515185049707753 0.3527838158382833 0.3369229505289497
0.3476489442723511 0.35515292528568326 0.33915457635485696
0.35011273529314135 0.3575365051425916 0.3413794147208862
0.3525623449744884 0.3599283457733417 0.343602756451229
0.3549977053688966 0.36232933834601827 0.3458136024172005
0.3574275704815549 0.36473576931470764 0.34802513047797623
0.3598663060022375 0.3671433463911856 0.3502364608122325
0.3623120911637004 0.36955243067058235 0.35244979705639684
0.3647627541250917 0.3719635009229523 0.35466721203387797
0.36723768033636117 0.37437089270470886 0.35688588286509715
0.3697220135958466 0.37677896636580854 0.359107381627659
0.3722145683878849 0.37918805475013734 0.361331858637334
0.3747322039732607 0.3815932929305378 0.36355596794806055
0.3772600106086083 0.3839991019489766 0.36578077166408224
0.3797975522560291 0.3864056988130113 0.3680050111224578
0.38234283245555106 0.38881478009526665 0.37021480627274195
0.3848956604791258 0.3912260232547136 0.37241474084827386
0.38744760671638107 0.3936421645890893 0.3746024780544006
0.38999445538662875 0.3960647361870296 0.37677475254704546
0.392536620280217 0.39849354734173575 0.37893225041331496
0.39506353831847857 0.4009310813060867 0.38108410320898806
0.39757991830370515 0.4033761491343827 0.3832271241139977
0.40008214075445253 0.40583012224553866 0.38535782177678074
0.40257832252674003 0.40829002533660064 0.38748237335500374
0.405083071029537 0.4107496919428501 0.3896222281049274
0.4076062456142036 0.4132060957230856 0.3917774782633451
0.41016464293064875 0.41565374894912577 0.3939525036934777
0.4127859530749357 0.41808443850035343 0.3961439314422528
0.415509508910982 0.42048544576823893 0.3983599288610766
0.41823675204896626 0.42288163430466047 0.4006663660093918
0.4208192807829017 0.42532556447793035 0.4029733891075355
0.4233718052966443 0.42778470249220285 0.4052487612533051
0.4259272976908443 0.4302473323015018 0.4075128398635189
0.4284897209142194 0.432712002476805 0.4097684701706832
0.4310625401642104 0.435177377322539 0.41201894625323
0.4336528890744572 0.4376408312183904 0.41426962600110423
0.43624328868187223 0.44010634263248444 0.41653786754559796
0.4388146479994223 0.4425775782783297 0.41885137197191996
0.4413677359635527 0.4450552539119241 0.4211980525225234
0.4439072258666626 0.4475389415156921 0.4235650845962354
0.4464434162405107 0.45002695075252314 0.4259337087495605
0.44897672303716635 0.4525194012168154 0.42830067455634585
0.45151037683602974 0.455014261146312 0.43067902166978184
0.454043595645303 0.4575114210926963 0.4330730571651207
0.45658157105629454 0.46000989661169317 0.4354749106141024
0.45912685023558625 0.4625085788129972 0.43788857471117065
0.46168194364155807 0.4650070656886814 0.4403092258430727
0.46425319279419214 0.46750362768456194 0.44273391951639685
0.46683944434870256 0.469998498988162 0.4451640216206412
0.4694393318333204 0.47249195279486106 0.4476012334078286
0.47205229333216264 0.4749842229676457 0.4500446201128498
0.474673690114411 0.47747701461410247 0.45249052277251206
0.47730753314573754 0.4799691977419341 0.45493745476309205
0.4799430157937094 0.4824645447170593 0.4573796805774683
0.4825826745675405 0.4849632046879418 0.4598053129395812
0.48522186691730934 0.487465747210814 0.462225145388301
0.48785704975839467 0.48997363220484963 0.4646344466528585
0.49048723373299935 0.49248745216956485 0.46702950184869
0.4931172730451741 0.4950052631675968 0.46941584799383945
0.4957391304272088 0.4975312856994734 0.47177140874190265
0.49836213713675687 0.5000611327750908 0.47411510797413164
0.5009827709755278 0.5025965486862457 0.4764385353111637
0.5036019274704205 0.5051374486366641 0.4787391452570566
0.5062246831941399 0.5076817193875175 0.4810236935317476
0.5088480741943796 0.5102301677302503 0.48329343903501115
0.5114618899084759 0.512784148837488 0.48557110417918364
0.5140650046443828 0.5153434141183157 0.4878641749154195
0.5166346838313752 0.5179111314313124 0.4902215881625753
0.5191909379232695 0.5204826877763461 0.49262328619877543
0.5217327814298087 0.5230575884432065 0.49507930921454185
0.5242798794529362 0.5256315694252065 0.4975664771998081
0.5268328146451016 0.5282058606730573 0.5000668022243245
0.5293995808527576 0.5307783499415948 0.5025756085205854
0.531970363740759 0.5333524076710803 0.5050885476769358
0.5345479929834004 0.5359270473416323 0.5076069233977356
0.5371321291765693 0.5385020587882974 0.5101346213105875
0.5397282419053145 0.5410750384882639 0.5126805430271348
0.5423301757382789 0.5436479774351998 0.5152434707873158
0.5449410918822031 0.546218835325488 0.5178367310308182
0.5475627535948702 0.5487878426671027 0.5204503653762834
0.5501929389718925 0.5513559418561886 0.5230810176726497
0.5528257244591195 0.5539252937248412 0.5257244227307428
0.5554595491241032 0.5564976765795406 0.528364105357888
0.5580937895861321 0.5590733225269171 0.530999484368438
0.5607358378433188 0.5616508521661463 0.5336189880234077
0.5633829958894343 0.564230471564129 0.5362304757799484
0.5660268418189873 0.5668146081648402 0.5388361478990227
0.5686631019323627 0.569405237627261 0.5414277083694442
0.571301679219203 0.5719979855361084 0.5440215543967772
0.5739182335680878 0.5746017102585784 0.5466010040061091
0.5765339887415665 0.5772087015104481 0.5491802726095371
0.5791281931676233 0.5798266794625292 0.5517430151433226
0.5817060870004226 0.5824537196048243 0.5542929255058182
0.5842673395317688 0.58509173098422 0.5568071293711169
0.5868148644856834 0.587739301105583 0.5592919253578323
0.5893669364488293 0.5903905642851023 0.5617497833717885
0.5919282159477256 0.5930413043060431 0.5642155662043105
0.5945021372130432 0.5956898118906641 0.566697348885943
0.5970841996620708 0.5983359518921822 0.5692143312116829
0.599672382444322 0.6009815629476498 0.5717511395357138
0.6022565833964986 0.6036293202211818 0.5743133724909264
0.6048400912078912 0.6062790684560639 0.5768900588915853
0.6074269391706856 0.6089303352415395 0.5794713309345831
0.6100174948636106 0.6115831283997593 0.582055570625395
0.6126105073929757 0.6142378772891642 0.5846421576269193
0.6152355999340995 0.616886605493382 0.5872160763063289
0.6178681496810463 0.6195360215783848 0.5897886805864557
0.620534813987801 0.6221783958740491 0.5923534015270016
0.6232275003839526 0.6248160322363756 0.594912644013005
0.6259500365165631 0.6274465527307999 0.5974813253908084
0.6287106741828024 0.6300668323449176 0.6000664880896672
0.6314920876444856 0.6326821616973582 0.6026688398968272
0.6343097235800503 0.6352858671877413 0.605311995664711
0.6371419874478502 0.6378866644151576 0.6079701982091366
0.6400051651220438 0.6404778125561481 0.6106645593617243
0.6428821085405771 0.6430663569448379 0.6133730809478471
0.6457549791834194 0.6456564901224648 0.6161124839410155
0.648628300686336 0.6482480380297745 0.6188672318873332
0.6514785721906916 0.6508479561776721 0.6216415934402946
0.6543250107295983 0.6534522869422955 0.62441031880303
0.6571714245820226 0.6560615071516482 0.6271525532531895
0.6600296718668055 0.6586738022755558 0.629844776321852
0.6629071781336232 0.6612876515591143 0.6324770090631724
0.6657925585535446 0.6639066260309126 0.6350488114846808
0.6686771966601318 0.6665308256335896 0.6375924802830398
0.6715183544404554 0.6691665713449984 0.6401956777458213
0.6742610874616413 0.6718275348764046 0.6429018380182078
