obsidian/Clippings/写真家活動/技法探求/デジネガ/QTR/プロファイル作成/QTR-DN/QTR-DN/QUAD/20%/PtPd-K50-starter-PX1V-v2-Correction.cube
#Color Lookup Table 
TITLE "QuadToneProfiler Color Lookup Table for 256-step Linearity Correction
LUT_1D_SIZE 256
DOMAIN_MIN 0.0 0.0 0.0
DOMAIN_MAX 1.0 1.0 1.0
0.0 0.0 0.0
0.012808650322396198 0.012808650322396198 0.012808650322396198
0.016847922889996984 0.016847922889996984 0.016847922889996984
0.020076147262125126 0.020076147262125126 0.020076147262125126
0.023243713311478658 0.023243713311478658 0.023243713311478658
0.028298839404345303 0.028298839404345303 0.028298839404345303
0.03297509233016375 0.03297509233016375 0.03297509233016375
0.03637437107805195 0.03637437107805195 0.03637437107805195
0.03932501622257484 0.03932501622257484 0.03932501622257484
0.04171162097910593 0.04171162097910593 0.04171162097910593
0.04404330555441062 0.04404330555441062 0.04404330555441062
0.046293514115395284 0.046293514115395284 0.046293514115395284
0.04876892148836811 0.04876892148836811 0.04876892148836811
0.05139974310010183 0.05139974310010183 0.05139974310010183
0.054259554422264225 0.054259554422264225 0.054259554422264225
0.05745982484290807 0.05745982484290807 0.05745982484290807
0.06096059875527335 0.06096059875527335 0.06096059875527335
0.06462235601743611 0.06462235601743611 0.06462235601743611
0.06832928934421167 0.06832928934421167 0.06832928934421167
0.0720421284772598 0.0720421284772598 0.0720421284772598
0.0756891460786289 0.0756891460786289 0.0756891460786289
0.07925006608177516 0.07925006608177516 0.07925006608177516
0.0826785305624261 0.0826785305624261 0.0826785305624261
0.08603107642492569 0.08603107642492569 0.08603107642492569
0.08937725621031743 0.08937725621031743 0.08937725621031743
0.09274446161006895 0.09274446161006895 0.09274446161006895
0.09621563185596888 0.09621563185596888 0.09621563185596888
0.09983368795494314 0.09983368795494314 0.09983368795494314
0.10365339291790336 0.10365339291790336 0.10365339291790336
0.10773534671189014 0.10773534671189014 0.10773534671189014
0.11202964380995879 0.11202964380995879 0.11202964380995879
0.11646172171551993 0.11646172171551993 0.11646172171551993
0.1208206359482815 0.1208206359482815 0.1208206359482815
0.12504989390145618 0.12504989390145618 0.12504989390145618
0.12912415865652907 0.12912415865652907 0.12912415865652907
0.13307900480597754 0.13307900480597754 0.13307900480597754
0.13698232659686382 0.13698232659686382 0.13698232659686382
0.14085194797726092 0.14085194797726092 0.14085194797726092
0.14477764723248324 0.14477764723248324 0.14477764723248324
0.14875198854790184 0.14875198854790184 0.14875198854790184
0.1527769395319687 0.1527769395319687 0.1527769395319687
0.15684399105806698 0.15684399105806698 0.15684399105806698
0.16092030650474912 0.16092030650474912 0.16092030650474912
0.1649794897472031 0.1649794897472031 0.1649794897472031
0.16893014039549598 0.16893014039549598 0.16893014039549598
0.1727559942789622 0.1727559942789622 0.1727559942789622
0.17632726209101918 0.17632726209101918 0.17632726209101918
0.17968586470274558 0.17968586470274558 0.17968586470274558
0.18285231212908507 0.18285231212908507 0.18285231212908507
0.185870933843076 0.185870933843076 0.185870933843076
0.1887838751729446 0.1887838751729446 0.1887838751729446
0.1916199229843809 0.1916199229843809 0.1916199229843809
0.19438908923749892 0.19438908923749892 0.19438908923749892
0.1971572939451015 0.1971572939451015 0.1971572939451015
0.1999487673312107 0.1999487673312107 0.1999487673312107
0.20277083181772487 0.20277083181772487 0.20277083181772487
0.20564263520808346 0.20564263520808346 0.20564263520808346
0.20856656271024968 0.20856656271024968 0.20856656271024968
0.2115475463987567 0.2115475463987567 0.2115475463987567
0.2145153573702797 0.2145153573702797 0.2145153573702797
0.21747486708756486 0.21747486708756486 0.21747486708756486
0.22040904760838423 0.22040904760838423 0.22040904760838423
0.22328978268837457 0.22328978268837457 0.22328978268837457
0.22611084172050724 0.22611084172050724 0.22611084172050724
0.22891126258688543 0.22891126258688543 0.22891126258688543
0.23169459543019585 0.23169459543019585 0.23169459543019585
0.23445325567552078 0.23445325567552078 0.23445325567552078
0.23722520141856673 0.23722520141856673 0.23722520141856673
0.24000836238843815 0.24000836238843815 0.24000836238843815
0.24280515127405233 0.24280515127405233 0.24280515127405233
0.24566106798275797 0.24566106798275797 0.24566106798275797
0.2485607191137926 0.2485607191137926 0.2485607191137926
0.25152068568073693 0.25152068568073693 0.25152068568073693
0.2546040472970766 0.2546040472970766 0.2546040472970766
0.2578369445902862 0.2578369445902862 0.2578369445902862
0.26119264722318386 0.26119264722318386 0.26119264722318386
0.26468760385866363 0.26468760385866363 0.26468760385866363
0.26829500495328473 0.26829500495328473 0.26829500495328473
0.2719765924457441 0.2719765924457441 0.2719765924457441
0.2756924395738235 0.2756924395738235 0.2756924395738235
0.2793556309148533 0.2793556309148533 0.2793556309148533
0.2829475005614104 0.2829475005614104 0.2829475005614104
0.2863871247769436 0.2863871247769436 0.2863871247769436
0.2896664162255594 0.2896664162255594 0.2896664162255594
0.29279817996683133 0.29279817996683133 0.29279817996683133
0.2958044166028069 0.2958044166028069 0.2958044166028069
0.2987269685485384 0.2987269685485384 0.2987269685485384
0.3016116450513459 0.3016116450513459 0.3016116450513459
0.304450985225082 0.304450985225082 0.304450985225082
0.30732807471567847 0.30732807471567847 0.30732807471567847
0.3102650640705612 0.3102650640705612 0.3102650640705612
0.3132851670145513 0.3132851670145513 0.3132851670145513
0.3165320203187014 0.3165320203187014 0.3165320203187014
0.32004624184769 0.32004624184769 0.32004624184769
0.3239150969873844 0.3239150969873844 0.3239150969873844
0.3282676715976654 0.3282676715976654 0.3282676715976654
0.33334594128308814 0.33334594128308814 0.33334594128308814
0.33996392248438895 0.33996392248438895 0.33996392248438895
0.3481963382981321 0.3481963382981321 0.3481963382981321
0.3560169205017111 0.3560169205017111 0.3560169205017111
0.36273455354044465 0.36273455354044465 0.36273455354044465
0.368679331624377 0.368679331624377 0.368679331624377
0.3738787777884881 0.3738787777884881 0.3738787777884881
0.37863740810154556 0.37863740810154556 0.37863740810154556
0.38315744942752133 0.38315744942752133 0.38315744942752133
0.38751096738584095 0.38751096738584095 0.38751096738584095
0.3917542415217506 0.3917542415217506 0.3917542415217506
0.3958407397966871 0.3958407397966871 0.3958407397966871
0.3997488660730611 0.3997488660730611 0.3997488660730611
0.40353818427556276 0.40353818427556276 0.40353818427556276
0.40721621819276493 0.40721621819276493 0.40721621819276493
0.41085391555855233 0.41085391555855233 0.41085391555855233
0.4144887355766807 0.4144887355766807 0.4144887355766807
0.4181074637401225 0.4181074637401225 0.4181074637401225
0.42170937479693654 0.42170937479693654 0.42170937479693654
0.42526654633060124 0.42526654633060124 0.42526654633060124
0.4287425382369564 0.4287425382369564 0.4287425382369564
0.43213267184552073 0.43213267184552073 0.43213267184552073
0.43545705496177184 0.43545705496177184 0.43545705496177184
0.4386838110459149 0.4386838110459149 0.4386838110459149
0.4419297277496898 0.4419297277496898 0.4419297277496898
0.44522134095900917 0.44522134095900917 0.44522134095900917
0.4486080747946034 0.4486080747946034 0.4486080747946034
0.45216212943986567 0.45216212943986567 0.45216212943986567
0.45596271254441395 0.45596271254441395 0.45596271254441395
0.46007976096299713 0.46007976096299713 0.46007976096299713
0.46459601290143554 0.46459601290143554 0.46459601290143554
0.46952257631037125 0.46952257631037125 0.46952257631037125
0.47465132144281164 0.47465132144281164 0.47465132144281164
0.4795567108052171 0.4795567108052171 0.4795567108052171
0.48398323693844725 0.48398323693844725 0.48398323693844725
0.4879489045252482 0.4879489045252482 0.4879489045252482
0.49161619408383234 0.49161619408383234 0.49161619408383234
0.49506861966137317 0.49506861966137317 0.49506861966137317
0.49840102400420155 0.49840102400420155 0.49840102400420155
0.5016573199356654 0.5016573199356654 0.5016573199356654
0.504904705671333 0.504904705671333 0.504904705671333
0.5081813513029968 0.5081813513029968 0.5081813513029968
0.5115584002709738 0.5115584002709738 0.5115584002709738
0.5151757089739037 0.5151757089739037 0.5151757089739037
0.5192045300203686 0.5192045300203686 0.5192045300203686
0.5237846361563981 0.5237846361563981 0.5237846361563981
0.5289663002159148 0.5289663002159148 0.5289663002159148
0.5342550286978764 0.5342550286978764 0.5342550286978764
0.5392105026462051 0.5392105026462051 0.5392105026462051
0.543703207506031 0.543703207506031 0.543703207506031
0.5479042073867763 0.5479042073867763 0.5479042073867763
0.5519319820154046 0.5519319820154046 0.5519319820154046
0.5559367636777436 0.5559367636777436 0.5559367636777436
0.5599717408322381 0.5599717408322381 0.5599717408322381
0.5641270603635903 0.5641270603635903 0.5641270603635903
0.5684284435208182 0.5684284435208182 0.5684284435208182
0.5729539296368269 0.5729539296368269 0.5729539296368269
0.5776734413616689 0.5776734413616689 0.5776734413616689
0.5825293984324935 0.5825293984324935 0.5825293984324935
0.5874436872212925 0.5874436872212925 0.5874436872212925
0.5923561578214962 0.5923561578214962 0.5923561578214962
0.5972099118041313 0.5972099118041313 0.5972099118041313
0.6018685203179253 0.6018685203179253 0.6018685203179253
0.6062273396934988 0.6062273396934988 0.6062273396934988
0.6102419646469442 0.6102419646469442 0.6102419646469442
0.613950256682065 0.613950256682065 0.613950256682065
0.6174200134553047 0.6174200134553047 0.6174200134553047
0.620708616900364 0.620708616900364 0.620708616900364
0.6238799780792776 0.6238799780792776 0.6238799780792776
0.6270187937092235 0.6270187937092235 0.6270187937092235
0.6301273407484803 0.6301273407484803 0.6301273407484803
0.6332611433102425 0.6332611433102425 0.6332611433102425
0.6364296676687146 0.6364296676687146 0.6364296676687146
0.6396318123636745 0.6396318123636745 0.6396318123636745
0.6428830868342003 0.6428830868342003 0.6428830868342003
0.6462017402719588 0.6462017402719588 0.6462017402719588
0.6496517254955705 0.6496517254955705 0.6496517254955705
0.6532395379070749 0.6532395379070749 0.6532395379070749
0.6569421400936527 0.6569421400936527 0.6569421400936527
0.6607326861323639 0.6607326861323639 0.6607326861323639
0.6645098863117604 0.6645098863117604 0.6645098863117604
0.6681922249075963 0.6681922249075963 0.6681922249075963
0.6717846140931565 0.6717846140931565 0.6717846140931565
0.6752791838400557 0.6752791838400557 0.6752791838400557
0.6787160304936586 0.6787160304936586 0.6787160304936586
0.682212315818488 0.682212315818488 0.682212315818488
0.6857836138454378 0.6857836138454378 0.6857836138454378
0.6896255782736547 0.6896255782736547 0.6896255782736547
0.6938079261122094 0.6938079261122094 0.6938079261122094
0.6986552150335587 0.6986552150335587 0.6986552150335587
0.7044143558001257 0.7044143558001257 0.7044143558001257
0.7110545348568293 0.7110545348568293 0.7110545348568293
0.7176772750096145 0.7176772750096145 0.7176772750096145
0.7237896958694341 0.7237896958694341 0.7237896958694341
0.7297550081133864 0.7297550081133864 0.7297550081133864
0.7358915674433681 0.7358915674433681 0.7358915674433681
0.7426169709983195 0.7426169709983195 0.7426169709983195
0.7510579408870873 0.7510579408870873 0.7510579408870873
0.7624547997810549 0.7624547997810549 0.7624547997810549
0.771173428605849 0.771173428605849 0.771173428605849
0.7772507997486947 0.7772507997486947 0.7772507997486947
0.7822343285249086 0.7822343285249086 0.7822343285249086
0.7868258556096904 0.7868258556096904 0.7868258556096904
0.7911779586944353 0.7911779586944353 0.7911779586944353
0.7953760784702264 0.7953760784702264 0.7953760784702264
0.799437177914004 0.799437177914004 0.799437177914004
0.8033807555759104 0.8033807555759104 0.8033807555759104
0.8071493349268003 0.8071493349268003 0.8071493349268003
0.8107583499330916 0.8107583499330916 0.8107583499330916
0.8141555843956334 0.8141555843956334 0.8141555843956334
0.8173568740735533 0.8173568740735533 0.8173568740735533
0.8203999245685075 0.8203999245685075 0.8203999245685075
0.8233051488898073 0.8233051488898073 0.8233051488898073
0.8260422441738321 0.8260422441738321 0.8260422441738321
0.8287424352078125 0.8287424352078125 0.8287424352078125
0.8314174187546897 0.8314174187546897 0.8314174187546897
0.8340505224363608 0.8340505224363608 0.8340505224363608
0.8367192512280441 0.8367192512280441 0.8367192512280441
0.8394265624310652 0.8394265624310652 0.8394265624310652
0.8422157724281786 0.8422157724281786 0.8422157724281786
0.8450952010196047 0.8450952010196047 0.8450952010196047
0.84807256424062 0.84807256424062 0.84807256424062
0.8511690295287455 0.8511690295287455 0.8511690295287455
0.854425933946842 0.854425933946842 0.854425933946842
0.8578587220483628 0.8578587220483628 0.8578587220483628
0.8614143059645243 0.8614143059645243 0.8614143059645243
0.8650989413219169 0.8650989413219169 0.8650989413219169
0.8688104474413442 0.8688104474413442 0.8688104474413442
0.8724485341093556 0.8724485341093556 0.8724485341093556
0.8760045202769488 0.8760045202769488 0.8760045202769488
0.8794814445818243 0.8794814445818243 0.8794814445818243
0.8828924060660164 0.8828924060660164 0.8828924060660164
0.8863729015013482 0.8863729015013482 0.8863729015013482
0.8899597010383077 0.8899597010383077 0.8899597010383077
0.8938268439514562 0.8938268439514562 0.8938268439514562
0.8981503664557835 0.8981503664557835 0.8981503664557835
0.9031556136541817 0.9031556136541817 0.9031556136541817
0.9089491718769241 0.9089491718769241 0.9089491718769241
0.9152705593779998 0.9152705593779998 0.9152705593779998
0.9214154082081134 0.9214154082081134 0.9214154082081134
0.9267764182339852 0.9267764182339852 0.9267764182339852
0.9314626374085634 0.9314626374085634 0.9314626374085634
0.9356158348097986 0.9356158348097986 0.9356158348097986
0.9394728755622286 0.9394728755622286 0.9394728755622286
0.9432055661435602 0.9432055661435602 0.9432055661435602
0.9469625011555621 0.9469625011555621 0.9469625011555621
0.9509935754398383 0.9509935754398383 0.9509935754398383
0.9553666929197807 0.9553666929197807 0.9553666929197807
0.9601430555673423 0.9601430555673423 0.9601430555673423
0.9644600165033114 0.9644600165033114 0.9644600165033114
0.9678230235839252 0.9678230235839252 0.9678230235839252
0.9706285239283554 0.9706285239283554 0.9706285239283554
0.9730823381091576 0.9730823381091576 0.9730823381091576
0.9750321110650438 0.9750321110650438 0.9750321110650438
0.9769834963440787 0.9769834963440787 0.9769834963440787
0.9789394177255132 0.9789394177255132 0.9789394177255132
0.9810061259229694 0.9810061259229694 0.9810061259229694
0.9833926871068505 0.9833926871068505 0.9833926871068505
0.9861690285960879 0.9861690285960879 0.9861690285960879
1.0 1.0 1.0
0.0 0.0 0.0
0.012808650322396198 0.012808650322396198 0.012808650322396198
0.016847922889996984 0.016847922889996984 0.016847922889996984
0.020076147262125126 0.020076147262125126 0.020076147262125126
0.023243713311478658 0.023243713311478658 0.023243713311478658
0.028298839404345303 0.028298839404345303 0.028298839404345303
0.03297509233016375 0.03297509233016375 0.03297509233016375
0.03637437107805195 0.03637437107805195 0.03637437107805195
0.03932501622257484 0.03932501622257484 0.03932501622257484
0.04171162097910593 0.04171162097910593 0.04171162097910593
0.04404330555441062 0.04404330555441062 0.04404330555441062
0.046293514115395284 0.046293514115395284 0.046293514115395284
0.04876892148836811 0.04876892148836811 0.04876892148836811
0.05139974310010183 0.05139974310010183 0.05139974310010183
0.054259554422264225 0.054259554422264225 0.054259554422264225
0.05745982484290807 0.05745982484290807 0.05745982484290807
0.06096059875527335 0.06096059875527335 0.06096059875527335
0.06462235601743611 0.06462235601743611 0.06462235601743611
0.06832928934421167 0.06832928934421167 0.06832928934421167
0.0720421284772598 0.0720421284772598 0.0720421284772598
0.0756891460786289 0.0756891460786289 0.0756891460786289
0.07925006608177516 0.07925006608177516 0.07925006608177516
0.0826785305624261 0.0826785305624261 0.0826785305624261
0.08603107642492569 0.08603107642492569 0.08603107642492569
0.08937725621031743 0.08937725621031743 0.08937725621031743
0.09274446161006895 0.09274446161006895 0.09274446161006895
0.09621563185596888 0.09621563185596888 0.09621563185596888
0.09983368795494314 0.09983368795494314 0.09983368795494314
0.10365339291790336 0.10365339291790336 0.10365339291790336
0.10773534671189014 0.10773534671189014 0.10773534671189014
0.11202964380995879 0.11202964380995879 0.11202964380995879
0.11646172171551993 0.11646172171551993 0.11646172171551993
0.1208206359482815 0.1208206359482815 0.1208206359482815
0.12504989390145618 0.12504989390145618 0.12504989390145618
0.12912415865652907 0.12912415865652907 0.12912415865652907
0.13307900480597754 0.13307900480597754 0.13307900480597754
0.13698232659686382 0.13698232659686382 0.13698232659686382
0.14085194797726092 0.14085194797726092 0.14085194797726092
0.14477764723248324 0.14477764723248324 0.14477764723248324
0.14875198854790184 0.14875198854790184 0.14875198854790184
0.1527769395319687 0.1527769395319687 0.1527769395319687
0.15684399105806698 0.15684399105806698 0.15684399105806698
0.16092030650474912 0.16092030650474912 0.16092030650474912
0.1649794897472031 0.1649794897472031 0.1649794897472031
0.16893014039549598 0.16893014039549598 0.16893014039549598
0.1727559942789622 0.1727559942789622 0.1727559942789622
0.17632726209101918 0.17632726209101918 0.17632726209101918
0.17968586470274558 0.17968586470274558 0.17968586470274558
0.18285231212908507 0.18285231212908507 0.18285231212908507
0.185870933843076 0.185870933843076 0.185870933843076
0.1887838751729446 0.1887838751729446 0.1887838751729446
0.1916199229843809 0.1916199229843809 0.1916199229843809
0.19438908923749892 0.19438908923749892 0.19438908923749892
0.1971572939451015 0.1971572939451015 0.1971572939451015
0.1999487673312107 0.1999487673312107 0.1999487673312107
0.20277083181772487 0.20277083181772487 0.20277083181772487
0.20564263520808346 0.20564263520808346 0.20564263520808346
0.20856656271024968 0.20856656271024968 0.20856656271024968
0.2115475463987567 0.2115475463987567 0.2115475463987567
0.2145153573702797 0.2145153573702797 0.2145153573702797
0.21747486708756486 0.21747486708756486 0.21747486708756486
0.22040904760838423 0.22040904760838423 0.22040904760838423
0.22328978268837457 0.22328978268837457 0.22328978268837457
0.22611084172050724 0.22611084172050724 0.22611084172050724
0.22891126258688543 0.22891126258688543 0.22891126258688543
0.23169459543019585 0.23169459543019585 0.23169459543019585
0.23445325567552078 0.23445325567552078 0.23445325567552078
0.23722520141856673 0.23722520141856673 0.23722520141856673
0.24000836238843815 0.24000836238843815 0.24000836238843815
0.24280515127405233 0.24280515127405233 0.24280515127405233
0.24566106798275797 0.24566106798275797 0.24566106798275797
0.2485607191137926 0.2485607191137926 0.2485607191137926
0.25152068568073693 0.25152068568073693 0.25152068568073693
0.2546040472970766 0.2546040472970766 0.2546040472970766
0.2578369445902862 0.2578369445902862 0.2578369445902862
0.26119264722318386 0.26119264722318386 0.26119264722318386
0.26468760385866363 0.26468760385866363 0.26468760385866363
0.26829500495328473 0.26829500495328473 0.26829500495328473
0.2719765924457441 0.2719765924457441 0.2719765924457441
0.2756924395738235 0.2756924395738235 0.2756924395738235
0.2793556309148533 0.2793556309148533 0.2793556309148533
0.2829475005614104 0.2829475005614104 0.2829475005614104
0.2863871247769436 0.2863871247769436 0.2863871247769436
0.2896664162255594 0.2896664162255594 0.2896664162255594
0.29279817996683133 0.29279817996683133 0.29279817996683133
0.2958044166028069 0.2958044166028069 0.2958044166028069
0.2987269685485384 0.2987269685485384 0.2987269685485384
0.3016116450513459 0.3016116450513459 0.3016116450513459
0.304450985225082 0.304450985225082 0.304450985225082
0.30732807471567847 0.30732807471567847 0.30732807471567847
0.3102650640705612 0.3102650640705612 0.3102650640705612
0.3132851670145513 0.3132851670145513 0.3132851670145513
0.3165320203187014 0.3165320203187014 0.3165320203187014
0.32004624184769 0.32004624184769 0.32004624184769
0.3239150969873844 0.3239150969873844 0.3239150969873844
0.3282676715976654 0.3282676715976654 0.3282676715976654
0.33334594128308814 0.33334594128308814 0.33334594128308814
0.33996392248438895 0.33996392248438895 0.33996392248438895
0.3481963382981321 0.3481963382981321 0.3481963382981321
0.3560169205017111 0.3560169205017111 0.3560169205017111
0.36273455354044465 0.36273455354044465 0.36273455354044465
0.368679331624377 0.368679331624377 0.368679331624377
0.3738787777884881 0.3738787777884881 0.3738787777884881
0.37863740810154556 0.37863740810154556 0.37863740810154556
0.38315744942752133 0.38315744942752133 0.38315744942752133
0.38751096738584095 0.38751096738584095 0.38751096738584095
0.3917542415217506 0.3917542415217506 0.3917542415217506
0.3958407397966871 0.3958407397966871 0.3958407397966871
0.3997488660730611 0.3997488660730611 0.3997488660730611
0.40353818427556276 0.40353818427556276 0.40353818427556276
0.40721621819276493 0.40721621819276493 0.40721621819276493
0.41085391555855233 0.41085391555855233 0.41085391555855233
0.4144887355766807 0.4144887355766807 0.4144887355766807
0.4181074637401225 0.4181074637401225 0.4181074637401225
0.42170937479693654 0.42170937479693654 0.42170937479693654
0.42526654633060124 0.42526654633060124 0.42526654633060124
0.4287425382369564 0.4287425382369564 0.4287425382369564
0.43213267184552073 0.43213267184552073 0.43213267184552073
0.43545705496177184 0.43545705496177184 0.43545705496177184
0.4386838110459149 0.4386838110459149 0.4386838110459149
0.4419297277496898 0.4419297277496898 0.4419297277496898
0.44522134095900917 0.44522134095900917 0.44522134095900917
0.4486080747946034 0.4486080747946034 0.4486080747946034
0.45216212943986567 0.45216212943986567 0.45216212943986567
0.45596271254441395 0.45596271254441395 0.45596271254441395
0.46007976096299713 0.46007976096299713 0.46007976096299713
0.46459601290143554 0.46459601290143554 0.46459601290143554
0.46952257631037125 0.46952257631037125 0.46952257631037125
0.47465132144281164 0.47465132144281164 0.47465132144281164
0.4795567108052171 0.4795567108052171 0.4795567108052171
0.48398323693844725 0.48398323693844725 0.48398323693844725
0.4879489045252482 0.4879489045252482 0.4879489045252482
0.49161619408383234 0.49161619408383234 0.49161619408383234
0.49506861966137317 0.49506861966137317 0.49506861966137317
0.49840102400420155 0.49840102400420155 0.49840102400420155
0.5016573199356654 0.5016573199356654 0.5016573199356654
0.504904705671333 0.504904705671333 0.504904705671333
0.5081813513029968 0.5081813513029968 0.5081813513029968
0.5115584002709738 0.5115584002709738 0.5115584002709738
0.5151757089739037 0.5151757089739037 0.5151757089739037
0.5192045300203686 0.5192045300203686 0.5192045300203686
0.5237846361563981 0.5237846361563981 0.5237846361563981
0.5289663002159148 0.5289663002159148 0.5289663002159148
0.5342550286978764 0.5342550286978764 0.5342550286978764
0.5392105026462051 0.5392105026462051 0.5392105026462051
0.543703207506031 0.543703207506031 0.543703207506031
0.5479042073867763 0.5479042073867763 0.5479042073867763
0.5519319820154046 0.5519319820154046 0.5519319820154046
0.5559367636777436 0.5559367636777436 0.5559367636777436
0.5599717408322381 0.5599717408322381 0.5599717408322381
0.5641270603635903 0.5641270603635903 0.5641270603635903
0.5684284435208182 0.5684284435208182 0.5684284435208182
0.5729539296368269 0.5729539296368269 0.5729539296368269
0.5776734413616689 0.5776734413616689 0.5776734413616689
0.5825293984324935 0.5825293984324935 0.5825293984324935
