obsidian/Clippings/写真家活動/技法探求/デジタルネガ探究/QTR/プロファイル作成/QTR-DN/QTR-DN/古い/選択項目から作成したフォルダ 2/選択項目から作成したフォルダ/MC4/PtPd-K41-415s-v3-MC4-LUTcorrection.cube
#Color Lookup Table 
TITLE "QuadToneProfiler Color Lookup Table for 256-step Linearity Correction
LUT_1D_SIZE 256
DOMAIN_MIN 0.0 0.0 0.0
DOMAIN_MAX 1.0 1.0 1.0
0.0 0.0 0.0
0.008319573219818856 0.008319573219818856 0.008319573219818856
0.011674932895339616 0.011674932895339616 0.011674932895339616
0.014927331240890353 0.014927331240890353 0.014927331240890353
0.02155867968899975 0.02155867968899975 0.02155867968899975
0.028128069903296627 0.028128069903296627 0.028128069903296627
0.03379743656452276 0.03379743656452276 0.03379743656452276
0.03956958988144914 0.03956958988144914 0.03956958988144914
0.04426100658411729 0.04426100658411729 0.04426100658411729
0.048606101365106624 0.048606101365106624 0.048606101365106624
0.052793787836697914 0.052793787836697914 0.052793787836697914
0.056777580311121394 0.056777580311121394 0.056777580311121394
0.06059319182090237 0.06059319182090237 0.06059319182090237
0.06434095594977308 0.06434095594977308 0.06434095594977308
0.06805627501915515 0.06805627501915515 0.06805627501915515
0.07165038789960718 0.07165038789960718 0.07165038789960718
0.07507816299991263 0.07507816299991263 0.07507816299991263
0.0784485988818433 0.0784485988818433 0.0784485988818433
0.08198732402277134 0.08198732402277134 0.08198732402277134
0.08560045241309572 0.08560045241309572 0.08560045241309572
0.08921852756062469 0.08921852756062469 0.08921852756062469
0.0928611031545386 0.0928611031545386 0.0928611031545386
0.09656523163246038 0.09656523163246038 0.09656523163246038
0.10034407201850769 0.10034407201850769 0.10034407201850769
0.10421560218902083 0.10421560218902083 0.10421560218902083
0.10818395025120786 0.10818395025120786 0.10818395025120786
0.11222082191201958 0.11222082191201958 0.11222082191201958
0.11630998788201324 0.11630998788201324 0.11630998788201324
0.1204871509174716 0.1204871509174716 0.1204871509174716
0.12492766049528789 0.12492766049528789 0.12492766049528789
0.12965179191755372 0.12965179191755372 0.12965179191755372
0.1344798928839689 0.1344798928839689 0.1344798928839689
0.1392633088349886 0.1392633088349886 0.1392633088349886
0.14398056152048874 0.14398056152048874 0.14398056152048874
0.14863768608860334 0.14863768608860334 0.14863768608860334
0.15327495461556584 0.15327495461556584 0.15327495461556584
0.15788808544791244 0.15788808544791244 0.15788808544791244
0.16247076038636454 0.16247076038636454 0.16247076038636454
0.16702505421243688 0.16702505421243688 0.16702505421243688
0.17155430298626848 0.17155430298626848 0.17155430298626848
0.17607570103723763 0.17607570103723763 0.17607570103723763
0.1805869644522341 0.1805869644522341 0.1805869644522341
0.18504909177252793 0.18504909177252793 0.18504909177252793
0.18944249183678027 0.18944249183678027 0.18944249183678027
0.19372244333236652 0.19372244333236652 0.19372244333236652
0.19787592428025644 0.19787592428025644 0.19787592428025644
0.2018886218989626 0.2018886218989626 0.2018886218989626
0.20579323479839226 0.20579323479839226 0.20579323479839226
0.20961666233551557 0.20961666233551557 0.20961666233551557
0.21340908301963424 0.21340908301963424 0.21340908301963424
0.21722383173871368 0.21722383173871368 0.21722383173871368
0.22109359905267564 0.22109359905267564 0.22109359905267564
0.22507482369057766 0.22507482369057766 0.22507482369057766
0.2291871129826999 0.2291871129826999 0.2291871129826999
0.2334621419438165 0.2334621419438165 0.2334621419438165
0.23790656425605694 0.23790656425605694 0.23790656425605694
0.24252779517146156 0.24252779517146156 0.24252779517146156
0.24726048929469016 0.24726048929469016 0.24726048929469016
0.25205737928741667 0.25205737928741667 0.25205737928741667
0.25677221330282834 0.25677221330282834 0.25677221330282834
0.2613363859529766 0.2613363859529766 0.2613363859529766
0.2656902264565231 0.2656902264565231 0.2656902264565231
0.269816315817866 0.269816315817866 0.269816315817866
0.2737268087481524 0.2737268087481524 0.2737268087481524
0.27750055108768634 0.27750055108768634 0.27750055108768634
0.2811612873792567 0.2811612873792567 0.2811612873792567
0.28476736406074943 0.28476736406074943 0.28476736406074943
0.2883385592143187 0.2883385592143187 0.2883385592143187
0.29191900411183763 0.29191900411183763 0.29191900411183763
0.29555080731052874 0.29555080731052874 0.29555080731052874
0.2992512333157856 0.2992512333157856 0.2992512333157856
0.30305032169862833 0.30305032169862833 0.30305032169862833
0.3069604909611985 0.3069604909611985 0.3069604909611985
0.3109939496905031 0.3109939496905031 0.3109939496905031
0.31514937877130356 0.31514937877130356 0.31514937877130356
0.3193989449319647 0.3193989449319647 0.3193989449319647
0.32371255088853085 0.32371255088853085 0.32371255088853085
0.3280439273030845 0.3280439273030845 0.3280439273030845
0.33236420019737045 0.33236420019737045 0.33236420019737045
0.336649913337172 0.336649913337172 0.336649913337172
0.3409160027969784 0.3409160027969784 0.3409160027969784
0.3451605211628527 0.3451605211628527 0.3451605211628527
0.34945604413142756 0.34945604413142756 0.34945604413142756
0.3538255716965955 0.3538255716965955 0.3538255716965955
0.3583895227933245 0.3583895227933245 0.3583895227933245
0.363221980114288 0.363221980114288 0.363221980114288
0.3684428969774241 0.3684428969774241 0.3684428969774241
0.37415863589899423 0.37415863589899423 0.37415863589899423
0.3802706912406979 0.3802706912406979 0.3802706912406979
0.3866630848675179 0.3866630848675179 0.3866630848675179
0.3929745173506473 0.3929745173506473 0.3929745173506473
0.39898872094364535 0.39898872094364535 0.39898872094364535
0.4046096554289466 0.4046096554289466 0.4046096554289466
0.4098156154023907 0.4098156154023907 0.4098156154023907
0.41471169277436737 0.41471169277436737 0.41471169277436737
0.41939020040741737 0.41939020040741737 0.41939020040741737
0.42392271818677024 0.42392271818677024 0.42392271818677024
0.42832963535859647 0.42832963535859647 0.42832963535859647
0.4326293267993945 0.4326293267993945 0.4326293267993945
0.4368484694436458 0.4368484694436458 0.4368484694436458
0.4409913219254033 0.4409913219254033 0.4409913219254033
0.44504273242095477 0.44504273242095477 0.44504273242095477
0.4489979127545414 0.4489979127545414 0.4489979127545414
0.4528540228966628 0.4528540228966628 0.4528540228966628
0.456609166852695 0.456609166852695 0.456609166852695
0.4602600548472768 0.4602600548472768 0.4602600548472768
0.46381057143221804 0.46381057143221804 0.46381057143221804
0.46726906896730397 0.46726906896730397 0.46726906896730397
0.47063845313852964 0.47063845313852964 0.47063845313852964
0.473928354851338 0.473928354851338 0.473928354851338
0.47715908578026417 0.47715908578026417 0.47715908578026417
0.4803476031599477 0.4803476031599477 0.4803476031599477
0.4835049652547855 0.4835049652547855 0.4835049652547855
0.48663900492084605 0.48663900492084605 0.48663900492084605
0.489752720159556 0.489752720159556 0.489752720159556
0.4928495632977009 0.4928495632977009 0.4928495632977009
0.49594696710346203 0.49594696710346203 0.49594696710346203
0.4990545906575932 0.4990545906575932 0.4990545906575932
0.5021817741582947 0.5021817741582947 0.5021817741582947
0.5053540949631206 0.5053540949631206 0.5053540949631206
0.5085945561320458 0.5085945561320458 0.5085945561320458
0.5119009767449378 0.5119009767449378 0.5119009767449378
0.5152832467543813 0.5152832467543813 0.5152832467543813
0.5187519174997308 0.5187519174997308 0.5187519174997308
0.5223147045812092 0.5223147045812092 0.5223147045812092
0.5259828158969855 0.5259828158969855 0.5259828158969855
0.5297658514895447 0.5297658514895447 0.5297658514895447
0.5336738934970578 0.5336738934970578 0.5336738934970578
0.5377289673528569 0.5377289673528569 0.5377289673528569
0.5419602393583443 0.5419602393583443 0.5419602393583443
0.5463744313880899 0.5463744313880899 0.5463744313880899
0.5509715493954918 0.5509715493954918 0.5509715493954918
0.5556886117833616 0.5556886117833616 0.5556886117833616
0.5604616411873244 0.5604616411873244 0.5604616411873244
0.565177270078872 0.565177270078872 0.565177270078872
0.5698225343520575 0.5698225343520575 0.5698225343520575
0.5743845163463807 0.5743845163463807 0.5743845163463807
0.5788929421166842 0.5788929421166842 0.5788929421166842
0.583352806843892 0.583352806843892 0.583352806843892
0.5877471385726356 0.5877471385726356 0.5877471385726356
0.5920589471355828 0.5920589471355828 0.5920589471355828
0.5962429435532106 0.5962429435532106 0.5962429435532106
0.600309554654589 0.600309554654589 0.600309554654589
0.6042483496675075 0.6042483496675075 0.6042483496675075
0.6080914633369725 0.6080914633369725 0.6080914633369725
0.6118767627814141 0.6118767627814141 0.6118767627814141
0.6156131764857915 0.6156131764857915 0.6156131764857915
0.6193459202748944 0.6193459202748944 0.6193459202748944
0.6230682861653456 0.6230682861653456 0.6230682861653456
0.6267827902584778 0.6267827902584778 0.6267827902584778
0.6304963651619631 0.6304963651619631 0.6304963651619631
0.6342259095308767 0.6342259095308767 0.6342259095308767
0.6379865894507676 0.6379865894507676 0.6379865894507676
0.6418322764260748 0.6418322764260748 0.6418322764260748
0.6457911546921017 0.6457911546921017 0.6457911546921017
0.6499149872244585 0.6499149872244585 0.6499149872244585
0.65423538150423 0.65423538150423 0.65423538150423
0.6587521996634461 0.6587521996634461 0.6587521996634461
0.663508901051524 0.663508901051524 0.663508901051524
0.6684728115641215 0.6684728115641215 0.6684728115641215
0.6736485673932562 0.6736485673932562 0.6736485673932562
0.6790613227026457 0.6790613227026457 0.6790613227026457
0.684729922228808 0.684729922228808 0.684729922228808
0.6906166802784928 0.6906166802784928 0.6906166802784928
0.6966914069331993 0.6966914069331993 0.6966914069331993
0.702818849228524 0.702818849228524 0.702818849228524
0.7089238540097513 0.7089238540097513 0.7089238540097513
0.714866085874386 0.714866085874386 0.714866085874386
0.7204843213618553 0.7204843213618553 0.7204843213618553
0.72566165974871 0.72566165974871 0.72566165974871
0.7302954218771454 0.7302954218771454 0.7302954218771454
0.7345452088505421 0.7345452088505421 0.7345452088505421
0.7384718559028114 0.7384718559028114 0.7384718559028114
0.7421489697703093 0.7421489697703093 0.7421489697703093
0.7456418398098762 0.7456418398098762 0.7456418398098762
0.7489755240747286 0.7489755240747286 0.7489755240747286
0.7522030587679831 0.7522030587679831 0.7522030587679831
0.7553490759011596 0.7553490759011596 0.7553490759011596
0.7584530700030784 0.7584530700030784 0.7584530700030784
0.7615314695662725 0.7615314695662725 0.7615314695662725
0.7645837158223762 0.7645837158223762 0.7645837158223762
0.7676569983605873 0.7676569983605873 0.7676569983605873
0.7707451227468287 0.7707451227468287 0.7707451227468287
0.7738572636024909 0.7738572636024909 0.7738572636024909
0.777002040305097 0.777002040305097 0.777002040305097
0.7801867133262924 0.7801867133262924 0.7801867133262924
0.7833753905608839 0.7833753905608839 0.7833753905608839
0.7865670438962894 0.7865670438962894 0.7865670438962894
0.7897378773950432 0.7897378773950432 0.7897378773950432
0.792873312445115 0.792873312445115 0.792873312445115
0.7959718574873358 0.7959718574873358 0.7959718574873358
0.7990328842981971 0.7990328842981971 0.7990328842981971
0.8020633000343791 0.8020633000343791 0.8020633000343791
0.8050821503079245 0.8050821503079245 0.8050821503079245
0.808104621466867 0.808104621466867 0.808104621466867
0.8111315642666784 0.8111315642666784 0.8111315642666784
0.8142149777867057 0.8142149777867057 0.8142149777867057
0.8173531879363765 0.8173531879363765 0.8173531879363765
0.8205695944692742 0.8205695944692742 0.8205695944692742
0.8239068568179378 0.8239068568179378 0.8239068568179378
0.8273927533709435 0.8273927533709435 0.8273927533709435
0.8310972422253653 0.8310972422253653 0.8310972422253653
0.8350542364840118 0.8350542364840118 0.8350542364840118
0.8392726285068853 0.8392726285068853 0.8392726285068853
0.8438315298620799 0.8438315298620799 0.8438315298620799
0.8485214173658818 0.8485214173658818 0.8485214173658818
0.8532152485323989 0.8532152485323989 0.8532152485323989
0.8577079426917582 0.8577079426917582 0.8577079426917582
0.8619616002986531 0.8619616002986531 0.8619616002986531
0.8659644152630929 0.8659644152630929 0.8659644152630929
0.8698132934695133 0.8698132934695133 0.8698132934695133
0.8735414458047116 0.8735414458047116 0.8735414458047116
0.8772061763031609 0.8772061763031609 0.8772061763031609
0.880831267873171 0.880831267873171 0.880831267873171
0.8844370257289689 0.8844370257289689 0.8844370257289689
0.8880366128118431 0.8880366128118431 0.8880366128118431
0.8916388338086284 0.8916388338086284 0.8916388338086284
0.8952537500526829 0.8952537500526829 0.8952537500526829
0.8988839184177428 0.8988839184177428 0.8988839184177428
0.9025197499508181 0.9025197499508181 0.9025197499508181
0.9061619145589204 0.9061619145589204 0.9061619145589204
0.9097695932835792 0.9097695932835792 0.9097695932835792
0.9133371665008226 0.9133371665008226 0.9133371665008226
0.9168122355181691 0.9168122355181691 0.9168122355181691
0.9201866841258325 0.9201866841258325 0.9201866841258325
0.9234416737593647 0.9234416737593647 0.9234416737593647
0.9265692653276187 0.9265692653276187 0.9265692653276187
0.9295728830832237 0.9295728830832237 0.9295728830832237
0.9324515380654659 0.9324515380654659 0.9324515380654659
0.9352173191748813 0.9352173191748813 0.9352173191748813
0.9379136860426214 0.9379136860426214 0.9379136860426214
0.9405758095228015 0.9405758095228015 0.9405758095228015
0.9432233767625904 0.9432233767625904 0.9432233767625904
0.9458745002678435 0.9458745002678435 0.9458745002678435
0.948578295906642 0.948578295906642 0.948578295906642
0.951466106017515 0.951466106017515 0.951466106017515
0.9544147034079067 0.9544147034079067 0.9544147034079067
0.9574117438149156 0.9574117438149156 0.9574117438149156
0.9605071711311872 0.9605071711311872 0.9605071711311872
0.9633408329628805 0.9633408329628805 0.9633408329628805
0.965847462420022 0.965847462420022 0.965847462420022
0.9680613314110491 0.9680613314110491 0.9680613314110491
0.9701905845971821 0.9701905845971821 0.9701905845971821
0.9722580631142838 0.9722580631142838 0.9722580631142838
0.9744089072819988 0.9744089072819988 0.9744089072819988
0.9765311195339272 0.9765311195339272 0.9765311195339272
0.9786642169743079 0.9786642169743079 0.9786642169743079
0.9807569555857459 0.9807569555857459 0.9807569555857459
0.9828517964230583 0.9828517964230583 0.9828517964230583
0.9849042425398155 0.9849042425398155 0.9849042425398155
0.986924576900333 0.986924576900333 0.986924576900333
0.9888345344607591 0.9888345344607591 0.9888345344607591
0.9905752911518673 0.9905752911518673 0.9905752911518673
0.9923187539351852 0.9923187539351852 0.9923187539351852
0.9944017017871828 0.9944017017871828 0.9944017017871828
1.0 1.0 1.0
0.0 0.0 0.0
0.008319573219818856 0.008319573219818856 0.008319573219818856
0.011674932895339616 0.011674932895339616 0.011674932895339616
0.014927331240890353 0.014927331240890353 0.014927331240890353
0.02155867968899975 0.02155867968899975 0.02155867968899975
0.028128069903296627 0.028128069903296627 0.028128069903296627
0.03379743656452276 0.03379743656452276 0.03379743656452276
0.03956958988144914 0.03956958988144914 0.03956958988144914
0.04426100658411729 0.04426100658411729 0.04426100658411729
0.048606101365106624 0.048606101365106624 0.048606101365106624
0.052793787836697914 0.052793787836697914 0.052793787836697914
0.056777580311121394 0.056777580311121394 0.056777580311121394
0.06059319182090237 0.06059319182090237 0.06059319182090237
0.06434095594977308 0.06434095594977308 0.06434095594977308
0.06805627501915515 0.06805627501915515 0.06805627501915515
0.07165038789960718 0.07165038789960718 0.07165038789960718
0.07507816299991263 0.07507816299991263 0.07507816299991263
0.0784485988818433 0.0784485988818433 0.0784485988818433
0.08198732402277134 0.08198732402277134 0.08198732402277134
0.08560045241309572 0.08560045241309572 0.08560045241309572
0.08921852756062469 0.08921852756062469 0.08921852756062469
0.0928611031545386 0.0928611031545386 0.0928611031545386
0.09656523163246038 0.09656523163246038 0.09656523163246038
0.10034407201850769 0.10034407201850769 0.10034407201850769
0.10421560218902083 0.10421560218902083 0.10421560218902083
0.10818395025120786 0.10818395025120786 0.10818395025120786
0.11222082191201958 0.11222082191201958 0.11222082191201958
0.11630998788201324 0.11630998788201324 0.11630998788201324
0.1204871509174716 0.1204871509174716 0.1204871509174716
0.12492766049528789 0.12492766049528789 0.12492766049528789
0.12965179191755372 0.12965179191755372 0.12965179191755372
0.1344798928839689 0.1344798928839689 0.1344798928839689
0.1392633088349886 0.1392633088349886 0.1392633088349886
0.14398056152048874 0.14398056152048874 0.14398056152048874
0.14863768608860334 0.14863768608860334 0.14863768608860334
0.15327495461556584 0.15327495461556584 0.15327495461556584
0.15788808544791244 0.15788808544791244 0.15788808544791244
0.16247076038636454 0.16247076038636454 0.16247076038636454
0.16702505421243688 0.16702505421243688 0.16702505421243688
0.17155430298626848 0.17155430298626848 0.17155430298626848
0.17607570103723763 0.17607570103723763 0.17607570103723763
0.1805869644522341 0.1805869644522341 0.1805869644522341
0.18504909177252793 0.18504909177252793 0.18504909177252793
0.18944249183678027 0.18944249183678027 0.18944249183678027
0.19372244333236652 0.19372244333236652 0.19372244333236652
0.19787592428025644 0.19787592428025644 0.19787592428025644
0.2018886218989626 0.2018886218989626 0.2018886218989626
0.20579323479839226 0.20579323479839226 0.20579323479839226
0.20961666233551557 0.20961666233551557 0.20961666233551557
0.21340908301963424 0.21340908301963424 0.21340908301963424
0.21722383173871368 0.21722383173871368 0.21722383173871368
0.22109359905267564 0.22109359905267564 0.22109359905267564
0.22507482369057766 0.22507482369057766 0.22507482369057766
0.2291871129826999 0.2291871129826999 0.2291871129826999
0.2334621419438165 0.2334621419438165 0.2334621419438165
0.23790656425605694 0.23790656425605694 0.23790656425605694
0.24252779517146156 0.24252779517146156 0.24252779517146156
0.24726048929469016 0.24726048929469016 0.24726048929469016
0.25205737928741667 0.25205737928741667 0.25205737928741667
0.25677221330282834 0.25677221330282834 0.25677221330282834
0.2613363859529766 0.2613363859529766 0.2613363859529766
0.2656902264565231 0.2656902264565231 0.2656902264565231
0.269816315817866 0.269816315817866 0.269816315817866
0.2737268087481524 0.2737268087481524 0.2737268087481524
0.27750055108768634 0.27750055108768634 0.27750055108768634
0.2811612873792567 0.2811612873792567 0.2811612873792567
0.28476736406074943 0.28476736406074943 0.28476736406074943
0.2883385592143187 0.2883385592143187 0.2883385592143187
0.29191900411183763 0.29191900411183763 0.29191900411183763
0.29555080731052874 0.29555080731052874 0.29555080731052874
0.2992512333157856 0.2992512333157856 0.2992512333157856
0.30305032169862833 0.30305032169862833 0.30305032169862833
0.3069604909611985 0.3069604909611985 0.3069604909611985
0.3109939496905031 0.3109939496905031 0.3109939496905031
0.31514937877130356 0.31514937877130356 0.31514937877130356
0.3193989449319647 0.3193989449319647 0.3193989449319647
0.32371255088853085 0.32371255088853085 0.32371255088853085
0.3280439273030845 0.3280439273030845 0.3280439273030845
0.33236420019737045 0.33236420019737045 0.33236420019737045
0.336649913337172 0.336649913337172 0.336649913337172
0.3409160027969784 0.3409160027969784 0.3409160027969784
0.3451605211628527 0.3451605211628527 0.3451605211628527
0.34945604413142756 0.34945604413142756 0.34945604413142756
0.3538255716965955 0.3538255716965955 0.3538255716965955
0.3583895227933245 0.3583895227933245 0.3583895227933245
0.363221980114288 0.363221980114288 0.363221980114288
0.3684428969774241 0.3684428969774241 0.3684428969774241
0.37415863589899423 0.37415863589899423 0.37415863589899423
0.3802706912406979 0.3802706912406979 0.3802706912406979
0.3866630848675179 0.3866630848675179 0.3866630848675179
0.3929745173506473 0.3929745173506473 0.3929745173506473
0.39898872094364535 0.39898872094364535 0.39898872094364535
0.4046096554289466 0.4046096554289466 0.4046096554289466
0.4098156154023907 0.4098156154023907 0.4098156154023907
0.41471169277436737 0.41471169277436737 0.41471169277436737
0.41939020040741737 0.41939020040741737 0.41939020040741737
0.42392271818677024 0.42392271818677024 0.42392271818677024
0.42832963535859647 0.42832963535859647 0.42832963535859647
0.4326293267993945 0.4326293267993945 0.4326293267993945
0.4368484694436458 0.4368484694436458 0.4368484694436458
0.4409913219254033 0.4409913219254033 0.4409913219254033
0.44504273242095477 0.44504273242095477 0.44504273242095477
0.4489979127545414 0.4489979127545414 0.4489979127545414
0.4528540228966628 0.4528540228966628 0.4528540228966628
0.456609166852695 0.456609166852695 0.456609166852695
0.4602600548472768 0.4602600548472768 0.4602600548472768
0.46381057143221804 0.46381057143221804 0.46381057143221804
0.46726906896730397 0.46726906896730397 0.46726906896730397
0.47063845313852964 0.47063845313852964 0.47063845313852964
0.473928354851338 0.473928354851338 0.473928354851338
0.47715908578026417 0.47715908578026417 0.47715908578026417
0.4803476031599477 0.4803476031599477 0.4803476031599477
0.4835049652547855 0.4835049652547855 0.4835049652547855
0.48663900492084605 0.48663900492084605 0.48663900492084605
0.489752720159556 0.489752720159556 0.489752720159556
0.4928495632977009 0.4928495632977009 0.4928495632977009
0.49594696710346203 0.49594696710346203 0.49594696710346203
0.4990545906575932 0.4990545906575932 0.4990545906575932
0.5021817741582947 0.5021817741582947 0.5021817741582947
0.5053540949631206 0.5053540949631206 0.5053540949631206
0.5085945561320458 0.5085945561320458 0.5085945561320458
0.5119009767449378 0.5119009767449378 0.5119009767449378
0.5152832467543813 0.5152832467543813 0.5152832467543813
0.5187519174997308 0.5187519174997308 0.5187519174997308
0.5223147045812092 0.5223147045812092 0.5223147045812092
0.5259828158969855 0.5259828158969855 0.5259828158969855
0.5297658514895447 0.5297658514895447 0.5297658514895447
0.5336738934970578 0.5336738934970578 0.5336738934970578
0.5377289673528569 0.5377289673528569 0.5377289673528569
0.5419602393583443 0.5419602393583443 0.5419602393583443
0.5463744313880899 0.5463744313880899 0.5463744313880899
0.5509715493954918 0.5509715493954918 0.5509715493954918
0.5556886117833616 0.5556886117833616 0.5556886117833616
0.5604616411873244 0.5604616411873244 0.5604616411873244
0.565177270078872 0.565177270078872 0.565177270078872
0.5698225343520575 0.5698225343520575 0.5698225343520575
0.5743845163463807 0.5743845163463807 0.5743845163463807
0.5788929421166842 0.5788929421166842 0.5788929421166842
0.583352806843892 0.583352806843892 0.583352806843892
0.5877471385726356 0.5877471385726356 0.5877471385726356
0.5920589471355828 0.5920589471355828 0.5920589471355828
0.5962429435532106 0.5962429435532106 0.5962429435532106
0.600309554654589 0.600309554654589 0.600309554654589
0.6042483496675075 0.6042483496675075 0.6042483496675075
0.6080914633369725 0.6080914633369725 0.6080914633369725
0.6118767627814141 0.6118767627814141 0.6118767627814141
0.6156131764857915 0.6156131764857915 0.6156131764857915
0.6193459202748944 0.6193459202748944 0.6193459202748944
0.6230682861653456 0.6230682861653456 0.6230682861653456
0.6267827902584778 0.6267827902584778 0.6267827902584778
0.6304963651619631 0.6304963651619631 0.6304963651619631
0.6342259095308767 0.6342259095308767 0.6342259095308767
0.6379865894507676 0.6379865894507676 0.6379865894507676
0.6418322764260748 0.6418322764260748 0.6418322764260748
0.6457911546921017 0.6457911546921017 0.6457911546921017
0.6499149872244585 0.6499149872244585 0.6499149872244585
0.65423538150423 0.65423538150423 0.65423538150423
0.6587521996634461 0.6587521996634461 0.6587521996634461
