obsidian/Clippings/写真家活動/技法探求/デジタルネガ探究/QTR/プロファイル作成/QTR-DN/QTR-DN/古い/選択項目から作成したフォルダ 2/選択項目から作成したフォルダ/MC4/PtPd-K41-415s-v3-MC4measuredLUTsoftproof.cube
#Color Lookup Table 
TITLE "QuadToneProfiler Color Lookup Table for 256-step Soft Proof
LUT_1D_SIZE 256
DOMAIN_MIN 0.0 0.0 0.0
DOMAIN_MAX 1.0 1.0 1.0
0.23841903093829053 0.25422789430093806 0.2481449230222661
0.23935731166568575 0.25491335770656254 0.2508343837589317
0.24044369517005237 0.25739830849550127 0.2527785010163183
0.2420074657972156 0.26039818936382936 0.25519446756107894
0.24422929382753716 0.26287206195759566 0.2571569236908562
0.24650518625814055 0.2653623794078504 0.2591365925984643
0.24925115933724862 0.2678051196180381 0.2613526708654791
0.2520974824088288 0.27032267023319956 0.26365686030883784
0.25512218995660696 0.273055291571954 0.26608967219099894
0.2580928785128864 0.2757350336638818 0.26846327308021073
0.26076157521650584 0.27788333259603626 0.270380128413952
0.26328906706388605 0.2798690863854338 0.27214107791992015
0.26588341929068054 0.2820259137396948 0.27395070015444506
0.26858384071951946 0.28430022117168996 0.2758637612674413
0.2714485897352592 0.28685116262650057 0.2780114966461703
0.2744463893397675 0.28954964858799737 0.28029994894533716
0.2774495136059989 0.29229855393096593 0.28263685714797804
0.2804579515412869 0.2950589199809502 0.2849839112014608
0.2833886693636719 0.2977017797502274 0.28724760898682994
0.28624154170743443 0.3002592593860973 0.28943119152616675
0.2890134238600595 0.3027012331361264 0.29151934028622023
0.29170587082211996 0.3050564138923846 0.2935242345594914
0.29433673997612286 0.307356720521993 0.29547870133446547
0.2969216089662218 0.309611836579027 0.2973885573441824
0.2994802970253608 0.31186680183313176 0.29929229578742805
0.3020306440974564 0.31411916933713635 0.30119148787836353
0.30458043141600155 0.31640482659885716 0.30311965633462384
0.3071449288351221 0.31871373108424034 0.3050692789103735
0.3097122419061741 0.3210606399987007 0.30705647151632326
0.31229573582890163 0.32343354322294393 0.3090688566074536
0.3148654530651383 0.32582774416715277 0.3111015969899261
0.31743467575489837 0.3282321405038487 0.3131436699792636
0.31997469161741976 0.3306288601912054 0.3151915201973609
0.322487822076094 0.3330057025541699 0.31722369733286887
0.3249380120274865 0.3353156995787915 0.31922327919258886
0.3273214761084553 0.3375571459738449 0.3211668758194244
0.32958969549447487 0.3396763345828362 0.32301930482876956
0.33175879211163417 0.34169320629665406 0.3247819592983901
0.333851090805341 0.34363060102751253 0.32648523400784885
0.3358876590301472 0.3455108765035907 0.3281400031733216
0.33797514367684767 0.3474447039136047 0.3298388040355977
0.3401171693299582 0.34943429708330753 0.3315885083311308
0.3424130682674087 0.351581482933493 0.3334648790138069
0.34485382533184206 0.35387552881338097 0.33547190358848133
0.3474665181009344 0.3563490054081728 0.33762827846636756
0.35024444214986783 0.35899185952035145 0.3399370302937982
0.3531594009516394 0.3617807413778721 0.3423773075612871
0.3562089871409858 0.3647094518409397 0.3449482692691323
0.3593384519771966 0.3677226964791986 0.34760594858141686
0.36254729551042103 0.37081813646126666 0.3503465454440894
0.3657739339673103 0.37392551863494794 0.3531216047599929
0.3690189788188983 0.3770473856392151 0.3559255322058363
0.37224128321615707 0.38013040174162427 0.3587179258475546
0.3754415310504865 0.38318000613993763 0.3614958351237947
0.3786194101483241 0.3861873603857505 0.3642561691766083
0.3817750237858614 0.3891575558630054 0.3669976328091585
0.38495798471192216 0.392138265122473 0.3697665435181
0.3881652482471986 0.39512984231652154 0.37255964897492466
0.3914445243815813 0.3981753025057478 0.3754125925346573
0.3947911484118459 0.4012727212321296 0.3783224201213972
0.3981858920410474 0.4044022502004687 0.38126251245476456
0.401626981300844 0.40756366732066457 0.384232782925148
0.405049784785888 0.41070314171185507 0.38717606375334024
0.40845460362700087 0.41382111935712845 0.3900930138413359
0.41176526832240334 0.4168530566337049 0.39291915647071496
0.41498179346577335 0.4197991854816035 0.39565461990462664
0.4180397804400889 0.4225983192186089 0.3982455035239828
0.42093754131460215 0.4252498801778935 0.4006913480888233
0.4236439475901929 0.42772297318257174 0.40297036849863005
0.42615505144178306 0.43001581184905 0.4050823733819661
0.4284867920596392 0.4321405132853283 0.4070409952773175
0.4306335279041214 0.434094190724518 0.4088464449967448
0.4326645377765579 0.43593872084875057 0.41054963690814816
0.4345767857578267 0.43767325847565824 0.41215157757928217
0.4364527431823645 0.4393681851600041 0.4137123283104703
0.4382964711707805 0.4410263567340824 0.41523396163998294
0.44014501641791287 0.4426786450316213 0.4167448144061989
0.44200437429136075 0.4443258898834007 0.4182433203943325
0.44388421377151566 0.44598792041668117 0.41975268672881794
0.4457864665048235 0.4476634131288298 0.42126942483307606
0.44772617354483973 0.44938690321671887 0.4228294692858153
0.44970006858673756 0.4511626928588632 0.42443420897776074
0.4517205123364018 0.4530057102882306 0.4261014792609775
0.453776286644674 0.45492195009965736 0.42783404060487323
0.45588782157991775 0.45691369274945864 0.429638994800707
0.4580403505539941 0.45898520234326895 0.43151851700245314
0.4602660924785383 0.46114181234828283 0.43348520491937753
0.46255433868397605 0.4633860246081642 0.4355450287369584
0.4649428005211303 0.4657300471022671 0.4377094746879776
0.46743328676351686 0.4681752755161705 0.43998758020048717
0.470047461430439 0.47073458366535986 0.4423854379188919
0.4728058925180198 0.47341487193643533 0.4449200246674653
0.47566511108691384 0.4761815690181547 0.4475462759337196
0.4786439939940205 0.4790303468266683 0.4502702052505228
0.48167196598146594 0.48191432088870806 0.4530321689349685
0.48475637823267653 0.4848156254082104 0.4558205886219399
0.48785578036035854 0.48772592279810995 0.45861585509271546
0.49097303930212394 0.4906362861913302 0.46140489005339164
0.4940896109560223 0.4935487716705517 0.46418959455238046
0.4972059704720448 0.4964715451926753 0.46696280358533776
0.5002903653929048 0.4993654515363524 0.4697015469351345
0.5033297601573559 0.5022268365902236 0.4723864917776465
0.506303104956389 0.505024067198194 0.4750054948206724
0.5091887302202859 0.507742197632491 0.4775366563718873
0.512008770161232 0.5103972130609581 0.48000316065568355
0.5147538030705755 0.5129891915875213 0.48239790419154277
0.5174580761845762 0.5155422827409916 0.4847510870861242
0.52012572699227 0.5180690059184027 0.4870633713769273
0.5227719196105003 0.5205740516415979 0.489350588534976
0.5254073881255384 0.5230679754063969 0.4916072547821117
0.5280168611998787 0.5255352643810253 0.4938354241942114
0.5305929415019323 0.5279659369537721 0.4960148945166351
0.5331479436653852 0.5303763277674719 0.4981735584471854
0.5356697439107585 0.532760532872387 0.5003025808791203
0.538212187395358 0.5351687504881621 0.5024550905429608
0.5407728741805601 0.5376264102014181 0.5046564872880528
0.5434100712653095 0.5401644518631084 0.5069387254958027
0.5461217677892595 0.5428203454627488 0.5093546168823048
0.5489409314023627 0.5455861848443065 0.511881822474018
0.5518510212650203 0.5484785974259214 0.5145715766292387
0.5548711596009834 0.551482489735715 0.5173743138840777
0.5579736885036826 0.5545966206596464 0.5203365720120203
0.5611851751217483 0.5578201878144068 0.5234084923037274
0.564493993807725 0.5611559723847074 0.5266290319851923
0.5679119575824461 0.5646006504897394 0.5299577407418512
0.5714452865827271 0.5681537834981835 0.5334140409479989
0.5750794311690121 0.5718075493893326 0.5369698955054725
0.5788275796014177 0.5755620773433018 0.5406239794994063
0.5826432445763713 0.5793840698023511 0.5443448402791424
0.5865100968250149 0.5832437378508949 0.5480908048423557
0.5903945973796079 0.587120940933901 0.5518540491037087
0.5942807900785433 0.5909780268474697 0.5555959892096272
0.5981479211993169 0.5948155185403433 0.5593185406198675
0.602005481476504 0.5986158194545903 0.5630227033298106
0.6058149841616397 0.6023669075293344 0.5666790036871827
0.6095683350297525 0.6060364524020657 0.5702872542682748
0.6132416211314853 0.6096244267717028 0.5738168369122955
0.6168287307485545 0.6131011652257635 0.5772714886941145
0.6203211453784385 0.6164812562848629 0.5806333799731547
0.6237144312230093 0.6197604176506375 0.5839284544992239
0.6270187983469065 0.6229504561154589 0.587138698758721
0.6302349021230315 0.626066048196557 0.5902880255117078
0.6333769322383984 0.6291091269378786 0.5933672662869033
0.6364476419770648 0.6320947070159803 0.5963608823184787
0.639459668472176 0.635023445482734 0.5992945427205987
0.6424298361531178 0.637918373484408 0.6021412780293286
0.645348782678857 0.6407633210491765 0.6049303204862057
0.6482080532156329 0.6435469673496187 0.6076177605967445
0.6510045342473367 0.6462675520434661 0.6102355510482114
0.6537473902781635 0.6489252801923985 0.6127757225505128
0.6564110304819124 0.6515020031029728 0.6152326145602702
0.6589558993112088 0.6539501321941459 0.6175717660857957
0.6613865029021835 0.6562819033734246 0.6197978308462131
0.6636926618735546 0.6584864466051881 0.6219207688190594
0.6658913301499747 0.6605828870171032 0.6239422948107086
0.6680097747381621 0.6626055530270828 0.6259064280977569
0.670064276804838 0.6645660379090367 0.6278132445755666
0.6720919648386038 0.66650907645914 0.6297237641761617
0.6741145620232167 0.6684497389059851 0.6316381720248985
0.6762019202106362 0.6704589537398555 0.6336251745333692
0.6783610294230787 0.6725409881391231 0.635685829888268
0.6806528236372489 0.6747585411409026 0.6378616836488207
0.6830748179695563 0.6771070627905819 0.6401605559932824
0.6856655031792764 0.67962854217234 0.6426006309774938
0.6884085546143608 0.6823037753448107 0.6451814799877897
0.6912827856070799 0.6850974792586113 0.6478712911013882
0.694270409362118 0.6879991519931934 0.6506645543361729
0.6973127262425887 0.6909302452276427 0.6534962405371546
0.7004011063519854 0.6938960458610387 0.6563664160926328
0.7034911200470315 0.6968453872076963 0.659240446425829
0.7065816829819451 0.6997865327576696 0.6621160085745279
0.7096586310439117 0.7027035924188475 0.6649968049789748
0.7127263115492629 0.7056059116756964 0.6678779653280044
0.7158088239007123 0.7085179979133915 0.6708015220805124
0.7189100707519841 0.7114459048902977 0.6737588186177141
0.7220702511971347 0.7144437084850753 0.6768006760832733
0.725292584917845 0.7175099600444108 0.6799194461109903
0.7286064153363712 0.7206866726500158 0.6831410442761049
0.732013084883889 0.723968002681419 0.686462207898045
0.7355106194566015 0.727355658218514 0.6898749744756296
0.7390987743557329 0.7308442074523783 0.6933785280346568
0.742740398863225 0.7343990462691752 0.6969553552502613
0.7464339404041989 0.7380149455724735 0.7005981976540901
0.7500870137838893 0.7415978681555961 0.7042289457902122
0.7537025260948893 0.7451489754147478 0.7078439905194406
0.7572042289317035 0.7485944788523987 0.7113706704560485
0.7605947714013774 0.7519355685392608 0.7148072141213767
0.7638111819921839 0.7551155574010429 0.7180909329592927
0.7668580915100384 0.7581374295348351 0.7212239070461848
0.7697698395967719 0.7610450559499724 0.7242430515691992
0.7725475799186438 0.7638380739008225 0.7271480475729737
0.7752692178976329 0.7666004216933628 0.7300229930211678
0.7779338554394226 0.7693308675181086 0.7328666612850885
0.7806264047355255 0.7721118165482924 0.7357682744644573
0.7833457850411077 0.7749433405064109 0.7387282881523889
0.7861545706344639 0.7778820374422403 0.7418041142285702
0.7890523267710703 0.7809296086851855 0.7449985575694202
0.7920612342533845 0.7840966186364859 0.748321382781765
0.7951817707540557 0.7873851512922064 0.7517765361881957
0.7983997324593006 0.7907722483586102 0.7553367862748598
0.8017183461980134 0.7942614077516541 0.7590075076939532
0.8050690149664904 0.7977755952799959 0.762706932631212
0.8084548387713233 0.8013152839454377 0.7664367528440296
0.8117847472218153 0.8047892469954864 0.7700970138619565
0.8150566847563397 0.8081908197150435 0.7736789493889911
0.8182390052128083 0.8114922324601811 0.7771524994731744
0.8213292450185686 0.8146850144631504 0.7805041331916837
0.8243609415722909 0.8178087928882879 0.7837734657253901
0.8273391712679684 0.8208616075637292 0.7869493618739284
0.8302956359506584 0.8238889574774331 0.7900820177074046
0.8332366680670246 0.8268941708696541 0.7931608252822615
0.836177447905048 0.8299012328265694 0.7962222785366398
0.8391235711389081 0.8329174674655658 0.7992564213119616
0.8420627189736963 0.8359268419744103 0.8022754039474553
0.844993965491697 0.8389283989122791 0.8052695966891574
0.847919079331216 0.8419174885826441 0.8082546357872501
0.8508428118226369 0.8448912279977095 0.8112313512377007
0.8537647617834062 0.8478542013847457 0.8142064276367252
0.8567000971219806 0.8508093358323107 0.8171948069869093
0.8596060302418904 0.8537243753021112 0.8201527933806563
0.8624921248709786 0.8565923450957597 0.8230876614959959
0.8653131471821442 0.8593856439803483 0.8259579405604737
0.8680690304124161 0.8620873366937316 0.8287631025278198
0.8707585517879202 0.8647174725831173 0.83150297280908
0.87338291599096 0.8672668787706023 0.8341793868840947
0.8759732927013418 0.869781388258997 0.8368262548709001
0.8785336924609443 0.8722629794858998 0.8394564841775697
0.8811087897906345 0.8747602605904699 0.8421098790020795
0.8837069293574296 0.8772842956477492 0.8448161386864735
0.8863570897737534 0.8798636694037388 0.8475873832887781
0.8890663601065566 0.8825154331643565 0.85046877650337
0.8918259992272306 0.8852230794072663 0.8534152391314352
0.8946237871935169 0.8879929211155915 0.856463521197062
0.8974439808805698 0.8907902393823893 0.8595466255420106
0.9002401559626649 0.8935878570200713 0.862664534841793
0.9031066164200119 0.8964500692296624 0.8658590148953698
0.9061386232851836 0.8994473068885958 0.8692521414080472
0.9091181956461618 0.9023800924821622 0.872598824892856
0.9119684513879766 0.905110101478007 0.8758478575295426
0.9147587695917225 0.9077783340392577 0.8790324528795401
0.9175612525901522 0.910445319167166 0.8821909342910422
0.9202589388331844 0.9130302914910716 0.8852392017436062
0.9226942593620648 0.9155362224581074 0.8879730535533054
0.9250097279404097 0.9179395878172076 0.8905886860384075
0.9271444254812244 0.9203251325095924 0.8930286352972209
0.9290724465947807 0.9225144965313179 0.8952884918893468
0.9305365530645414 0.9243565376947651 0.8973774335048934
0.9319132218948037 0.9261266156634022 0.8994037799623114
0.9333032780403722 0.9281323655925265 0.9017951880184834
0.9345508880418628 0.9299938590241452 0.9040168858013395
0.9352090081519238 0.9312091091584891 0.9050602308046822
0.9362334813791285 0.9328185200013815 0.906474582011401
0.9383236810482678 0.9363479627508806 0.9091511593559991
0.9403327547713072 0.9397686392186823 0.9117948747967763
0.9421067130669575 0.9410832813841564 0.9170889176280449
0.942822358867119 0.9413450307468428 0.9213362306159963
0.23841903093829053 0.25422789430093806 0.2481449230222661
0.23935731166568575 0.25491335770656254 0.2508343837589317
0.24044369517005237 0.25739830849550127 0.2527785010163183
0.2420074657972156 0.26039818936382936 0.25519446756107894
0.24422929382753716 0.26287206195759566 0.2571569236908562
0.24650518625814055 0.2653623794078504 0.2591365925984643
0.24925115933724862 0.2678051196180381 0.2613526708654791
0.2520974824088288 0.27032267023319956 0.26365686030883784
0.25512218995660696 0.273055291571954 0.26608967219099894
0.2580928785128864 0.2757350336638818 0.26846327308021073
0.26076157521650584 0.27788333259603626 0.270380128413952
0.26328906706388605 0.2798690863854338 0.27214107791992015
0.26588341929068054 0.2820259137396948 0.27395070015444506
0.26858384071951946 0.28430022117168996 0.2758637612674413
0.2714485897352592 0.28685116262650057 0.2780114966461703
0.2744463893397675 0.28954964858799737 0.28029994894533716
0.2774495136059989 0.29229855393096593 0.28263685714797804
0.2804579515412869 0.2950589199809502 0.2849839112014608
0.2833886693636719 0.2977017797502274 0.28724760898682994
0.28624154170743443 0.3002592593860973 0.28943119152616675
0.2890134238600595 0.3027012331361264 0.29151934028622023
0.29170587082211996 0.3050564138923846 0.2935242345594914
0.29433673997612286 0.307356720521993 0.29547870133446547
0.2969216089662218 0.309611836579027 0.2973885573441824
0.2994802970253608 0.31186680183313176 0.29929229578742805
0.3020306440974564 0.31411916933713635 0.30119148787836353
0.30458043141600155 0.31640482659885716 0.30311965633462384
0.3071449288351221 0.31871373108424034 0.3050692789103735
0.3097122419061741 0.3210606399987007 0.30705647151632326
0.31229573582890163 0.32343354322294393 0.3090688566074536
0.3148654530651383 0.32582774416715277 0.3111015969899261
0.31743467575489837 0.3282321405038487 0.3131436699792636
0.31997469161741976 0.3306288601912054 0.3151915201973609
0.322487822076094 0.3330057025541699 0.31722369733286887
0.3249380120274865 0.3353156995787915 0.31922327919258886
0.3273214761084553 0.3375571459738449 0.3211668758194244
0.32958969549447487 0.3396763345828362 0.32301930482876956
0.33175879211163417 0.34169320629665406 0.3247819592983901
0.333851090805341 0.34363060102751253 0.32648523400784885
0.3358876590301472 0.3455108765035907 0.3281400031733216
0.33797514367684767 0.3474447039136047 0.3298388040355977
0.3401171693299582 0.34943429708330753 0.3315885083311308
0.3424130682674087 0.351581482933493 0.3334648790138069
0.34485382533184206 0.35387552881338097 0.33547190358848133
0.3474665181009344 0.3563490054081728 0.33762827846636756
0.35024444214986783 0.35899185952035145 0.3399370302937982
0.3531594009516394 0.3617807413778721 0.3423773075612871
0.3562089871409858 0.3647094518409397 0.3449482692691323
0.3593384519771966 0.3677226964791986 0.34760594858141686
0.36254729551042103 0.37081813646126666 0.3503465454440894
0.3657739339673103 0.37392551863494794 0.3531216047599929
0.3690189788188983 0.3770473856392151 0.3559255322058363
0.37224128321615707 0.38013040174162427 0.3587179258475546
0.3754415310504865 0.38318000613993763 0.3614958351237947
0.3786194101483241 0.3861873603857505 0.3642561691766083
0.3817750237858614 0.3891575558630054 0.3669976328091585
0.38495798471192216 0.392138265122473 0.3697665435181
0.3881652482471986 0.39512984231652154 0.37255964897492466
0.3914445243815813 0.3981753025057478 0.3754125925346573
0.3947911484118459 0.4012727212321296 0.3783224201213972
0.3981858920410474 0.4044022502004687 0.38126251245476456
0.401626981300844 0.40756366732066457 0.384232782925148
0.405049784785888 0.41070314171185507 0.38717606375334024
0.40845460362700087 0.41382111935712845 0.3900930138413359
0.41176526832240334 0.4168530566337049 0.39291915647071496
0.41498179346577335 0.4197991854816035 0.39565461990462664
0.4180397804400889 0.4225983192186089 0.3982455035239828
0.42093754131460215 0.4252498801778935 0.4006913480888233
0.4236439475901929 0.42772297318257174 0.40297036849863005
0.42615505144178306 0.43001581184905 0.4050823733819661
0.4284867920596392 0.4321405132853283 0.4070409952773175
0.4306335279041214 0.434094190724518 0.4088464449967448
0.4326645377765579 0.43593872084875057 0.41054963690814816
0.4345767857578267 0.43767325847565824 0.41215157757928217
0.4364527431823645 0.4393681851600041 0.4137123283104703
0.4382964711707805 0.4410263567340824 0.41523396163998294
0.44014501641791287 0.4426786450316213 0.4167448144061989
0.44200437429136075 0.4443258898834007 0.4182433203943325
0.44388421377151566 0.44598792041668117 0.41975268672881794
0.4457864665048235 0.4476634131288298 0.42126942483307606
0.44772617354483973 0.44938690321671887 0.4228294692858153
0.44970006858673756 0.4511626928588632 0.42443420897776074
0.4517205123364018 0.4530057102882306 0.4261014792609775
0.453776286644674 0.45492195009965736 0.42783404060487323
0.45588782157991775 0.45691369274945864 0.429638994800707
0.4580403505539941 0.45898520234326895 0.43151851700245314
0.4602660924785383 0.46114181234828283 0.43348520491937753
0.46255433868397605 0.4633860246081642 0.4355450287369584
0.4649428005211303 0.4657300471022671 0.4377094746879776
0.46743328676351686 0.4681752755161705 0.43998758020048717
0.470047461430439 0.47073458366535986 0.4423854379188919
0.4728058925180198 0.47341487193643533 0.4449200246674653
0.47566511108691384 0.4761815690181547 0.4475462759337196
0.4786439939940205 0.4790303468266683 0.4502702052505228
0.48167196598146594 0.48191432088870806 0.4530321689349685
0.48475637823267653 0.4848156254082104 0.4558205886219399
0.48785578036035854 0.48772592279810995 0.45861585509271546
0.49097303930212394 0.4906362861913302 0.46140489005339164
0.4940896109560223 0.4935487716705517 0.46418959455238046
0.4972059704720448 0.4964715451926753 0.46696280358533776
0.5002903653929048 0.4993654515363524 0.4697015469351345
0.5033297601573559 0.5022268365902236 0.4723864917776465
0.506303104956389 0.505024067198194 0.4750054948206724
0.5091887302202859 0.507742197632491 0.4775366563718873
0.512008770161232 0.5103972130609581 0.48000316065568355
0.5147538030705755 0.5129891915875213 0.48239790419154277
0.5174580761845762 0.5155422827409916 0.4847510870861242
0.52012572699227 0.5180690059184027 0.4870633713769273
0.5227719196105003 0.5205740516415979 0.489350588534976
0.5254073881255384 0.5230679754063969 0.4916072547821117
0.5280168611998787 0.5255352643810253 0.4938354241942114
0.5305929415019323 0.5279659369537721 0.4960148945166351
0.5331479436653852 0.5303763277674719 0.4981735584471854
0.5356697439107585 0.532760532872387 0.5003025808791203
0.538212187395358 0.5351687504881621 0.5024550905429608
0.5407728741805601 0.5376264102014181 0.5046564872880528
0.5434100712653095 0.5401644518631084 0.5069387254958027
0.5461217677892595 0.5428203454627488 0.5093546168823048
0.5489409314023627 0.5455861848443065 0.511881822474018
0.5518510212650203 0.5484785974259214 0.5145715766292387
0.5548711596009834 0.551482489735715 0.5173743138840777
0.5579736885036826 0.5545966206596464 0.5203365720120203
0.5611851751217483 0.5578201878144068 0.5234084923037274
0.564493993807725 0.5611559723847074 0.5266290319851923
0.5679119575824461 0.5646006504897394 0.5299577407418512
0.5714452865827271 0.5681537834981835 0.5334140409479989
0.5750794311690121 0.5718075493893326 0.5369698955054725
0.5788275796014177 0.5755620773433018 0.5406239794994063
0.5826432445763713 0.5793840698023511 0.5443448402791424
0.5865100968250149 0.5832437378508949 0.5480908048423557
0.5903945973796079 0.587120940933901 0.5518540491037087
0.5942807900785433 0.5909780268474697 0.5555959892096272
0.5981479211993169 0.5948155185403433 0.5593185406198675
0.602005481476504 0.5986158194545903 0.5630227033298106
0.6058149841616397 0.6023669075293344 0.5666790036871827
0.6095683350297525 0.6060364524020657 0.5702872542682748
0.6132416211314853 0.6096244267717028 0.5738168369122955
0.6168287307485545 0.6131011652257635 0.5772714886941145
0.6203211453784385 0.6164812562848629 0.5806333799731547
0.6237144312230093 0.6197604176506375 0.5839284544992239
0.6270187983469065 0.6229504561154589 0.587138698758721
0.6302349021230315 0.626066048196557 0.5902880255117078
0.6333769322383984 0.6291091269378786 0.5933672662869033
0.6364476419770648 0.6320947070159803 0.5963608823184787
0.639459668472176 0.635023445482734 0.5992945427205987
0.6424298361531178 0.637918373484408 0.6021412780293286
0.645348782678857 0.6407633210491765 0.6049303204862057
0.6482080532156329 0.6435469673496187 0.6076177605967445
0.6510045342473367 0.6462675520434661 0.6102355510482114
0.6537473902781635 0.6489252801923985 0.6127757225505128
0.6564110304819124 0.6515020031029728 0.6152326145602702
0.6589558993112088 0.6539501321941459 0.6175717660857957
0.6613865029021835 0.6562819033734246 0.6197978308462131
0.6636926618735546 0.6584864466051881 0.6219207688190594
0.6658913301499747 0.6605828870171032 0.6239422948107086
0.6680097747381621 0.6626055530270828 0.6259064280977569
0.670064276804838 0.6645660379090367 0.6278132445755666
0.6720919648386038 0.66650907645914 0.6297237641761617
0.6741145620232167 0.6684497389059851 0.6316381720248985
