obsidian/Clippings/写真家活動/技法探求/デジネガ/QTR/プロファイル作成/_archive_v18_旧データ_20260315/使用チャート/新デジネガ/v2-補正/precision_edn_v2_measurement_モノクロ1.cube
# Precision EDN v2 - Digital Negative Calibration LUT
# Version: 2.0
# Date: 2026-03-09
# Target: 和紙 Platinum Print
# Printer: EPSON PX-1V
# Media: Pictorico OHP TPS100

LUT_1D_SIZE 256

0.000000 0.000000 0.000000
0.002113 0.002113 0.002113
0.004453 0.004453 0.004453
0.007002 0.007002 0.007002
0.009745 0.009745 0.009745
0.012664 0.012664 0.012664
0.015743 0.015743 0.015743
0.018967 0.018967 0.018967
0.022317 0.022317 0.022317
0.025678 0.025678 0.025678
0.029042 0.029042 0.029042
0.032553 0.032553 0.032553
0.036354 0.036354 0.036354
0.040591 0.040591 0.040591
0.045407 0.045407 0.045407
0.050948 0.050948 0.050948
0.057356 0.057356 0.057356
0.068181 0.068181 0.068181
0.085288 0.085288 0.085288
0.106296 0.106296 0.106296
0.128825 0.128825 0.128825
0.150491 0.150491 0.150491
0.168916 0.168916 0.168916
0.181716 0.181716 0.181716
0.186512 0.186512 0.186512
0.185639 0.185639 0.185639
0.183337 0.183337 0.183337
0.180082 0.180082 0.180082
0.176350 0.176350 0.176350
0.172619 0.172619 0.172619
0.169364 0.169364 0.169364
0.167061 0.167061 0.167061
0.166188 0.166188 0.166188
0.168530 0.168530 0.168530
0.174811 0.174811 0.174811
0.183913 0.183913 0.183913
0.194717 0.194717 0.194717
0.206106 0.206106 0.206106
0.216961 0.216961 0.216961
0.226165 0.226165 0.226165
0.232599 0.232599 0.232599
0.237087 0.237087 0.237087
0.241203 0.241203 0.241203
0.244956 0.244956 0.244956
0.248358 0.248358 0.248358
0.251418 0.251418 0.251418
0.254145 0.254145 0.254145
0.256550 0.256550 0.256550
0.258642 0.258642 0.258642
0.260450 0.260450 0.260450
0.262032 0.262032 0.262032
0.263439 0.263439 0.263439
0.264724 0.264724 0.264724
0.265940 0.265940 0.265940
0.267137 0.267137 0.267137
0.268370 0.268370 0.268370
0.269690 0.269690 0.269690
0.270970 0.270970 0.270970
0.272107 0.272107 0.272107
0.273186 0.273186 0.273186
0.274294 0.274294 0.274294
0.275517 0.275517 0.275517
0.276941 0.276941 0.276941
0.278653 0.278653 0.278653
0.280738 0.280738 0.280738
0.284302 0.284302 0.284302
0.289998 0.289998 0.289998
0.297235 0.297235 0.297235
0.305423 0.305423 0.305423
0.313971 0.313971 0.313971
0.322289 0.322289 0.322289
0.329786 0.329786 0.329786
0.335871 0.335871 0.335871
0.340934 0.340934 0.340934
0.345755 0.345755 0.345755
0.350325 0.350325 0.350325
0.354633 0.354633 0.354633
0.358673 0.358673 0.358673
0.362435 0.362435 0.362435
0.365909 0.365909 0.365909
0.369089 0.369089 0.369089
0.371851 0.371851 0.371851
0.374187 0.374187 0.374187
0.376256 0.376256 0.376256
0.378216 0.378216 0.378216
0.380228 0.380228 0.380228
0.382449 0.382449 0.382449
0.385040 0.385040 0.385040
0.388158 0.388158 0.388158
0.392474 0.392474 0.392474
0.398241 0.398241 0.398241
0.404995 0.404995 0.404995
0.412274 0.412274 0.412274
0.419614 0.419614 0.419614
0.426552 0.426552 0.426552
0.432625 0.432625 0.432625
0.437370 0.437370 0.437370
0.440991 0.440991 0.440991
0.444101 0.444101 0.444101
0.446851 0.446851 0.446851
0.449389 0.449389 0.449389
0.451867 0.451867 0.451867
0.454435 0.454435 0.454435
0.457242 0.457242 0.457242
0.460438 0.460438 0.460438
0.464089 0.464089 0.464089
0.468096 0.468096 0.468096
0.472371 0.472371 0.472371
0.476822 0.476822 0.476822
0.481358 0.481358 0.481358
0.485890 0.485890 0.485890
0.490327 0.490327 0.490327
0.494579 0.494579 0.494579
0.498798 0.498798 0.498798
0.503136 0.503136 0.503136
0.507503 0.507503 0.507503
0.511807 0.511807 0.511807
0.515956 0.515956 0.515956
0.519860 0.519860 0.519860
0.523428 0.523428 0.523428
0.526567 0.526567 0.526567
0.529340 0.529340 0.529340
0.531895 0.531895 0.531895
0.534270 0.534270 0.534270
0.536500 0.536500 0.536500
0.538622 0.538622 0.538622
0.540674 0.540674 0.540674
0.542692 0.542692 0.542692
0.544714 0.544714 0.544714
0.546625 0.546625 0.546625
0.548346 0.548346 0.548346
0.549963 0.549963 0.549963
0.551561 0.551561 0.551561
0.553226 0.553226 0.553226
0.555043 0.555043 0.555043
0.557098 0.557098 0.557098
0.559477 0.559477 0.559477
0.562561 0.562561 0.562561
0.566499 0.566499 0.566499
0.571028 0.571028 0.571028
0.575883 0.575883 0.575883
0.580802 0.580802 0.580802
0.585522 0.585522 0.585522
0.589779 0.589779 0.589779
0.593310 0.593310 0.593310
0.596234 0.596234 0.596234
0.598888 0.598888 0.598888
0.601334 0.601334 0.601334
0.603638 0.603638 0.603638
0.605861 0.605861 0.605861
0.608068 0.608068 0.608068
0.610323 0.610323 0.610323
0.612687 0.612687 0.612687
0.615083 0.615083 0.615083
0.617414 0.617414 0.617414
0.619722 0.619722 0.619722
0.622050 0.622050 0.622050
0.624437 0.624437 0.624437
0.626925 0.626925 0.626925
0.629557 0.629557 0.629557
0.632372 0.632372 0.632372
0.635503 0.635503 0.635503
0.638979 0.638979 0.638979
0.642696 0.642696 0.642696
0.646545 0.646545 0.646545
0.650420 0.650420 0.650420
0.654214 0.654214 0.654214
0.657819 0.657819 0.657819
0.661130 0.661130 0.661130
0.664083 0.664083 0.664083
0.666758 0.666758 0.666758
0.669270 0.669270 0.669270
0.671729 0.671729 0.671729
0.674247 0.674247 0.674247
0.676936 0.676936 0.676936
0.679908 0.679908 0.679908
0.683276 0.683276 0.683276
0.687607 0.687607 0.687607
0.693089 0.693089 0.693089
0.699266 0.699266 0.699266
0.705678 0.705678 0.705678
0.711867 0.711867 0.711867
0.717377 0.717377 0.717377
0.721747 0.721747 0.721747
0.724521 0.724521 0.724521
0.726177 0.726177 0.726177
0.727542 0.727542 0.727542
0.728683 0.728683 0.728683
0.729668 0.729668 0.729668
0.730563 0.730563 0.730563
0.731435 0.731435 0.731435
0.732352 0.732352 0.732352
0.733379 0.733379 0.733379
0.734485 0.734485 0.734485
0.735590 0.735590 0.735590
0.736694 0.736694 0.736694
0.737798 0.737798 0.737798
0.738901 0.738901 0.738901
0.740005 0.740005 0.740005
0.741109 0.741109 0.741109
0.742213 0.742213 0.742213
0.743244 0.743244 0.743244
0.744171 0.744171 0.744171
0.745057 0.745057 0.745057
0.745964 0.745964 0.745964
0.746953 0.746953 0.746953
0.748089 0.748089 0.748089
0.749432 0.749432 0.749432
0.751046 0.751046 0.751046
0.753494 0.753494 0.753494
0.757101 0.757101 0.757101
0.761576 0.761576 0.761576
0.766625 0.766625 0.766625
0.771955 0.771955 0.771955
0.777273 0.777273 0.777273
0.782285 0.782285 0.782285
0.786700 0.786700 0.786700
0.790731 0.790731 0.790731
0.794757 0.794757 0.794757
0.798726 0.798726 0.798726
0.802589 0.802589 0.802589
0.806294 0.806294 0.806294
0.809790 0.809790 0.809790
0.813028 0.813028 0.813028
0.815956 0.815956 0.815956
0.818577 0.818577 0.818577
0.820966 0.820966 0.820966
0.823181 0.823181 0.823181
0.825279 0.825279 0.825279
0.827317 0.827317 0.827317
0.829353 0.829353 0.829353
0.831444 0.831444 0.831444
0.833647 0.833647 0.833647
0.835922 0.835922 0.835922
0.838195 0.838195 0.838195
0.840479 0.840479 0.840479
0.842784 0.842784 0.842784
0.845123 0.845123 0.845123
0.847505 0.847505 0.847505
0.849942 0.849942 0.849942
0.852446 0.852446 0.852446
0.854809 0.854809 0.854809
0.856934 0.856934 0.856934
0.858998 0.858998 0.858998
0.861176 0.861176 0.861176
0.863646 0.863646 0.863646
0.866584 0.866584 0.866584
0.870165 0.870165 0.870165
0.874566 0.874566 0.874566
0.882032 0.882032 0.882032
0.894203 0.894203 0.894203
0.910345 0.910345 0.910345
0.929728 0.929728 0.929728
0.951619 0.951619 0.951619
0.975287 0.975287 0.975287
1.000000 1.000000 1.000000
