obsidian/Clippings/写真家活動/技法探求/デジネガ/QTR/プロファイル作成/QTR-DN/QTR-DN/QUAD/決定/PtPd-K50-starter-PX1V-v4-finel-softproof.cube
#Color Lookup Table 
TITLE "QuadToneProfiler Color Lookup Table for 256-step Soft Proof
LUT_1D_SIZE 256
DOMAIN_MIN 0.0 0.0 0.0
DOMAIN_MAX 1.0 1.0 1.0
0.2537284722528639 0.27601389004150145 0.26385857327253653
0.2606055007762177 0.27863918021835515 0.2665301125300735
0.26411686147105984 0.280624705992298 0.26857261890334694
0.2666094044925344 0.2828774652611379 0.27099375281340793
0.2690738289311529 0.2851428685311214 0.2734121918898482
0.2715244629842782 0.2874165506515406 0.27583074408258157
0.273832812236085 0.28975763880333216 0.2779790344875257
0.2760319018223129 0.2921515513121438 0.27991908562188667
0.2782173536058793 0.29455682410390166 0.2818202857104247
0.2803958535901853 0.2969701316306024 0.28369943221727384
0.28273210572970014 0.29932878143466973 0.2857426364217817
0.28511249658385 0.30167851884568053 0.2877902007874246
0.28762776703059695 0.3039853430451393 0.28993708528919654
0.29023894245207443 0.30626242633726164 0.29215857237129894
0.2928729901829449 0.308536320754221 0.29438717909595924
0.2955083904800693 0.31081342088577196 0.29662104031104947
0.298173070223743 0.3130842198180217 0.29887662530301984
0.30084321042287526 0.31535668775570574 0.30114095734879015
0.30350032931561194 0.3176401653654569 0.30336501833614155
0.3061609310990115 0.3199281234609239 0.3055698327680753
0.30887324492136603 0.3222044569094233 0.30777865492620865
0.311635266748846 0.3244701250059306 0.30998568337268445
0.31444015655924495 0.3267280247303607 0.31217879090299644
0.31724905998114733 0.32898927825054936 0.31436210847896817
0.32002641193474984 0.33126392791852444 0.3165423433453215
0.32271272141917545 0.33357134905814034 0.3186998439266572
0.32534561189405165 0.33589931668976114 0.3208485370482978
0.3279195766870067 0.33825012218325307 0.3229810470739909
0.3304667551868278 0.3406129880969502 0.3251124206106245
0.3329960200388156 0.3429850255398292 0.32724567842225105
0.33551968563589685 0.3453624169773794 0.3293824197002259
0.33804456881727113 0.3477438779326601 0.3315130214701767
0.34056663369358187 0.3501293827636281 0.33365281822209647
0.3430914193824507 0.35251957072544693 0.3357728096606275
0.3456180758677494 0.35491356858346024 0.33788695385463724
0.3481458037622134 0.3573111036928967 0.3400015179862707
0.35066478111137395 0.3597165574428591 0.34209842239966654
0.3531832337711437 0.3621263315270459 0.34419164421402526
0.35570189029421256 0.3645400934418881 0.3462824486266259
0.3582126740536292 0.3669597582314988 0.34837721544173905
0.3607242076138899 0.36938300622395503 0.3504723119717818
0.36323771353588663 0.3718090740230653 0.35257256055795316
0.36575724700690665 0.37423501313547525 0.3546995851907035
0.36828220565456943 0.376662336352332 0.3568364422607074
0.3708194747011178 0.37908831865458925 0.3589911245301267
0.3733696764115607 0.3815127606611326 0.3611635846374869
0.3759291010775642 0.38393727157832486 0.36334745823886777
0.3785070132181944 0.3863589965634174 0.36554320479185876
0.381093406314237 0.38878136747161585 0.3677454827602021
0.3836880080761081 0.3912045831640137 0.3699526273909628
0.3862915260361263 0.39362853773941076 0.3721630712944257
0.3889023911445207 0.39605371580920484 0.37437650960077595
0.391508532467577 0.39848346670723456 0.3765967686583027
0.39411117299778947 0.40091750082795 0.37882272308508835
0.3967121942760231 0.4033553467336221 0.38105299841059587
0.3992936155180986 0.4058012345311645 0.38330321583819615
0.4018678839444147 0.4082522535403745 0.38556223918210736
0.40443702766352074 0.41070633069441925 0.3878484548142643
0.40700354315641873 0.41316234974814753 0.39016628418793403
0.4095718108862419 0.4156180505044261 0.3925273555546644
0.4121463552270797 0.4180708017349113 0.39494740133441353
0.41472499503766846 0.42052187549423753 0.39741851976173115
0.41730529519023896 0.42297278911439934 0.3999306871592369
0.41987963770400116 0.42543004681206886 0.4024307776499632
0.42244827372251886 0.4278955774619331 0.40489331819184216
0.4250119091769933 0.43036975782573306 0.40731074764759073
0.4275676026863846 0.4328519128335363 0.40970291457857266
0.43011684439961106 0.4353409117531538 0.41207827222775106
0.4326639685501944 0.43783251410433077 0.4144736184241183
0.43520942502607635 0.44032663254934606 0.41688818992651516
0.4377705691678619 0.44281807809691814 0.4193203300038566
0.44034871137755627 0.44530640424248774 0.42177043073307313
0.44293772472545284 0.4477943537318177 0.4242273272114199
0.4455369519503439 0.45028224083023843 0.4266894220040705
0.44813274690760746 0.45277561932113547 0.4291391911345202
0.4507215991646197 0.45527594840173163 0.4315716922299972
0.4532984360417182 0.4577853250681185 0.4339799869014845
0.4558579965228708 0.46030596683966446 0.43635634939375584
0.4583989910401864 0.46283832495268357 0.4386999760693481
0.460923024542288 0.46538069321762926 0.4410260958619427
0.4634231009293815 0.46793579859753237 0.44332720413888976
0.4659136155971106 0.4704967282798788 0.4456347639019845
0.46839367130729376 0.473063458979942 0.44795241437101024
0.47086765472530806 0.4756345187887007 0.45028163139691785
0.4733444401019215 0.4782070332225054 0.45262425328112205
0.4758239250661139 0.48078030824489454 0.4549893623523619
0.4783142343935885 0.4833531647282627 0.457360254713246
0.4808182140594172 0.48592462567399103 0.4597381637002647
0.483337952334236 0.48849400976111496 0.46212351724663675
0.48587351244889615 0.49106178959684993 0.46450996898312763
0.48843240741041943 0.49362551390786275 0.46689931239987154
0.4910036338829276 0.4961890723841749 0.4692848238865453
0.49358711679109973 0.4987528503021496 0.4716617773210919
0.49618433985586 0.5013167657385119 0.4740253095030151
0.4987922140968774 0.5038825250088739 0.47636563040897445
0.5014134455483034 0.5064496387167856 0.4786782736926944
0.504050014670165 0.509016799248684 0.48097197056660795
0.5067043814038119 0.5115789193913138 0.48330161276089695
0.5094225118115868 0.5141172131979781 0.4857266190345095
0.51224358482313 0.5166197839746967 0.4882448456134137
0.5150827653545854 0.5191176954658961 0.49079175023690685
0.517886831175703 0.5216300837191501 0.4933319146578791
0.5206415140116645 0.5241632328519366 0.4958415537048562
0.5233695143557836 0.5267095390864736 0.4983287501132368
0.5260654018548844 0.5292713148950066 0.5007854528575758
0.5287273514327717 0.5318479468185143 0.5032266195807515
0.5313682225805264 0.5344347935120002 0.5056608662783265
0.5339856888117837 0.5370324266589117 0.5080899704295612
0.536606242760103 0.5396319217927708 0.5105235115884718
0.539236418133036 0.5422313933204143 0.5129597618733931
0.5418751490176029 0.5448301324925042 0.5154117717043034
0.5445299371035794 0.5474253686809563 0.5178852450387327
0.5471855063798977 0.5500226066628199 0.5203699621041175
0.5498478270245941 0.5526193624993557 0.5228739811907271
0.5525077841546617 0.5552193523689684 0.525385704188697
0.5551629674027265 0.5578232762929367 0.5279055886366208
0.5578144004200261 0.5604308941592946 0.5304325836737752
0.5604659736826422 0.563041112241937 0.5329652440626365
0.5631169392863948 0.5656540612767906 0.5355047404833382
0.5657677932717093 0.568269644639416 0.5380502598329026
0.568421158283457 0.570887280330344 0.540598821387137
0.5710779174461924 0.5735065364838132 0.5431523455816668
0.5737386803378307 0.5761270995223582 0.5457123218030328
0.5764030167385293 0.5787493617555708 0.5482753604948088
0.5790719993891881 0.5813723078656136 0.5508500310881576
0.5817470244647958 0.5839949586000743 0.5534431726180703
0.5844271118746581 0.586618665448445 0.5560413907417026
0.587119594839983 0.5892389293223935 0.558672867444017
0.5898213224447402 0.5918573765886964 0.5613291971274432
0.5925248011647615 0.5944774275654238 0.5639962720704885
0.5952196658900399 0.5970979332325023 0.5667290348506953
0.5979149180204612 0.5997211773921091 0.5694632898847947
0.6005958724559969 0.6023506330087667 0.5722124351959587
0.6032653930465565 0.6049856094983993 0.5749739235139466
0.6059363651110043 0.6076231010147973 0.5777353143302665
0.6085926190974387 0.6102693755535711 0.5804805382754602
0.6112475151874881 0.6129190308967459 0.5832255572827986
0.6139032634248793 0.6155714429352298 0.5859695395032769
0.6165471511053152 0.6182350269172089 0.5886559289199146
0.6191915934686741 0.6209008608826767 0.5913486950869877
0.6218300060155203 0.6235769580079175 0.5939725001422107
0.6244626204269319 0.6262610715050431 0.5965546666747266
0.6270875240445977 0.6289591259350772 0.5990279489631285
0.6296979096431696 0.6316689461670572 0.6014460798496912
0.6322957185054007 0.6343838700470013 0.6038852756795733
0.6348975718142715 0.6370968215521979 0.6063698975575974
0.6375074717318382 0.6398083815632137 0.6088769885315531
0.6401491530351572 0.6425128269709605 0.6113862194090187
0.6428011372986426 0.6452162104797878 0.613904870169532
0.6454944093821966 0.6479114180297103 0.6164019038216175
0.6481937572971412 0.650607314894249 0.6189025823825294
0.6509273766805265 0.6532977298166918 0.6213748056181475
0.6536670381458269 0.6559890706661946 0.6238476252339722
0.6564248887325083 0.6586758640008813 0.6263426683679285
0.6591884817366949 0.6613628478350635 0.6288485785954238
0.6619662558066238 0.664045170205702 0.6313935957051084
0.6647542992003551 0.6667247440331533 0.6339687337158125
0.6675494692041473 0.6694030795843073 0.6365670926575004
0.6703609089949627 0.6720752784789904 0.63921470033545
0.6731761695899418 0.6747479796347224 0.641876242877734
0.676006120122428 0.6774169216252185 0.6445629485380776
0.6788449745087798 0.6800847402857191 0.6472640271948152
0.6816922781446587 0.6827521537545816 0.6499720871720395
0.6845654549639653 0.6854137441787204 0.6526872651164193
0.6874495433923717 0.6880743963631254 0.6554062564191443
0.6903589075575672 0.6907311242998911 0.658110448592156
0.6932887899252924 0.6933850448589076 0.6608041784708168
0.6962358313512573 0.6960370978338714 0.6634885707265248
0.6992018148490076 0.6986870959950744 0.6661588539811769
0.702175771317429 0.7013373946858436 0.6688281146565039
0.7051404763476482 0.7039917501709073 0.67151637195453
0.708104125070679 0.706648486932043 0.6742126229958855
0.7110432276222062 0.7093133384805546 0.6769366651067767
0.7139754432106715 0.7119820101048046 0.6796734123804689
0.7168696290484092 0.7146632791277514 0.6824344707116656
0.7197404291841316 0.717353140109923 0.685212906055186
0.7225587390586171 0.7200600619923136 0.6880163087567498
0.7253378447827789 0.7227803417298464 0.6908391915826871
0.7280847887742861 0.7255116154501499 0.6936836154221449
0.7308149001856279 0.7282497432333082 0.6965414806685315
0.73354652847145 0.7309896732702257 0.699404320244849
0.7362810602559542 0.7337311120522951 0.702270322920739
0.7390304351859731 0.7364723424309225 0.7051143233881818
0.7417899924482284 0.7392139530775655 0.7079470958132045
0.7445666488415617 0.7419535514356551 0.7107715380891461
0.7473538055391866 0.744692887122722 0.7135914327488516
0.7501467224827894 0.7474336092228563 0.7164045731470732
0.752930653282235 0.750180797441752 0.7192048819785613
0.755689989641858 0.752939981061765 0.7219840375325938
0.7584135190427058 0.7557150931619054 0.7247365232399436
0.7611332338749844 0.7584986359629151 0.7274313191449258
0.7638910758974073 0.7612765928063031 0.7300801311007667
0.7667124452310795 0.7640401683651248 0.7326938616454426
0.7695868231284118 0.7667901479410124 0.7353035429387217
0.7724971482125137 0.7695299426698967 0.7379328599426218
0.7754251362906811 0.7722652650581039 0.7405815439766594
0.7783429314732896 0.7750059534699074 0.7432351744485298
0.7812353899309245 0.7777563185591903 0.7458989318844396
0.7840833910401781 0.7805218268051504 0.7485791043756514
0.7868946079670521 0.7832997689717391 0.7512796081391201
0.7896750682457673 0.7860878916931634 0.7540050338089611
0.7924332706358751 0.7888839290882301 0.7567504649378238
0.7951859215207959 0.7916833278868816 0.7595075511107744
0.7979309625922173 0.7944865167496161 0.7622788864365158
0.8006816285845891 0.7972902738475766 0.7650530517644027
0.8034386462814751 0.8000943545608669 0.7678302115577422
0.8062058202834923 0.8028977818081888 0.7706076870714329
0.8089889373075337 0.8056990439088423 0.7733817583867336
0.8117923598005375 0.8084968369751994 0.7761516600278328
0.8146163193087218 0.8112907685247522 0.7789213298530999
0.8174668622242525 0.8140789985576271 0.7816901184625384
0.820322580666803 0.81686803118592 0.7844601454867149
0.823184968781842 0.8196574177970632 0.7872311264253087
0.826033611565363 0.822452894182388 0.7900109280017814
0.8288612699177494 0.8252564557788431 0.7928027911633866
0.8316688858859728 0.8280676492800491 0.7956086422200691
0.8344479667231711 0.8308886719814899 0.7984340578571216
0.8372076975811839 0.8337174324153802 0.8012692867729903
0.8399539468405774 0.8365528756664058 0.8041045674698676
0.842688067306125 0.8393951084454621 0.8069332290494717
0.8454251271966841 0.8422410285532684 0.8097352935342248
0.848168786924803 0.84509080045676 0.8124944496998445
0.8509265015618335 0.8479422735863343 0.8152084890669922
0.8537025382711723 0.8507947239671321 0.8178698173434797
0.8564956176689142 0.8536468691865841 0.8204993276466009
0.859290778242921 0.8564987013656155 0.8231551734146334
0.8620828264298002 0.8593481959063985 0.8258827111028084
0.8648714416477061 0.8621904874080358 0.8287437526152563
0.8676758016115066 0.8650226571713793 0.8317000872825545
0.8704992604920819 0.867846645377896 0.8347144042005343
0.8733640428029659 0.8706565649050215 0.837773656494173
0.8762842643302605 0.8734503296903109 0.8408489210185599
0.8792838143043145 0.8762209245343339 0.8439346324560529
0.8823563823473 0.8789721855282838 0.8470072294809363
0.8854461175598267 0.8817228552356604 0.8500500182656042
0.8885047752426811 0.8844845538968525 0.8531056203251303
0.8915258529798582 0.8872587258475491 0.8561813974508223
0.8945140469703108 0.8900440854830828 0.8592751759476461
0.8974646665900785 0.8928436354992952 0.8623679564749015
0.9004051840189768 0.8956501496779954 0.865442966621199
0.9033376825687152 0.8984685327522929 0.8684314874036406
0.9062868745904905 0.9012858172546918 0.8713984151374593
0.9092857247726356 0.9040968182847449 0.874280366076663
0.9122679404303554 0.906922408723889 0.8770755050647913
0.9152125457618547 0.9097720628018446 0.8797478337874975
0.9180598143239224 0.9126559929648772 0.8824020385218003
0.9208663395267844 0.9155548262087052 0.8850586989882561
0.9235043890188491 0.9185085294732556 0.8877172358031118
0.92621345894161 0.9214383597906589 0.8904252444914879
0.9291288835835754 0.9242949360296906 0.8932707898714376
0.9319517474402373 0.9272000062401526 0.8959031674825609
0.9346625665404655 0.9301627525715012 0.8982836539856569
0.9370975580663499 0.9331731136653292 0.9011693394592494
0.9384597828058376 0.9363291393364098 0.9064140752136025
0.9395396084404958 0.9395317242106263 0.9121705521035569
0.9400660554680592 0.9428338005451058 0.9188012189361398
0.2537284722528639 0.27601389004150145 0.26385857327253653
0.2606055007762177 0.27863918021835515 0.2665301125300735
0.26411686147105984 0.280624705992298 0.26857261890334694
0.2666094044925344 0.2828774652611379 0.27099375281340793
0.2690738289311529 0.2851428685311214 0.2734121918898482
0.2715244629842782 0.2874165506515406 0.27583074408258157
0.273832812236085 0.28975763880333216 0.2779790344875257
0.2760319018223129 0.2921515513121438 0.27991908562188667
0.2782173536058793 0.29455682410390166 0.2818202857104247
0.2803958535901853 0.2969701316306024 0.28369943221727384
0.28273210572970014 0.29932878143466973 0.2857426364217817
0.28511249658385 0.30167851884568053 0.2877902007874246
0.28762776703059695 0.3039853430451393 0.28993708528919654
0.29023894245207443 0.30626242633726164 0.29215857237129894
0.2928729901829449 0.308536320754221 0.29438717909595924
0.2955083904800693 0.31081342088577196 0.29662104031104947
0.298173070223743 0.3130842198180217 0.29887662530301984
0.30084321042287526 0.31535668775570574 0.30114095734879015
0.30350032931561194 0.3176401653654569 0.30336501833614155
0.3061609310990115 0.3199281234609239 0.3055698327680753
0.30887324492136603 0.3222044569094233 0.30777865492620865
0.311635266748846 0.3244701250059306 0.30998568337268445
0.31444015655924495 0.3267280247303607 0.31217879090299644
0.31724905998114733 0.32898927825054936 0.31436210847896817
0.32002641193474984 0.33126392791852444 0.3165423433453215
0.32271272141917545 0.33357134905814034 0.3186998439266572
0.32534561189405165 0.33589931668976114 0.3208485370482978
0.3279195766870067 0.33825012218325307 0.3229810470739909
0.3304667551868278 0.3406129880969502 0.3251124206106245
0.3329960200388156 0.3429850255398292 0.32724567842225105
0.33551968563589685 0.3453624169773794 0.3293824197002259
0.33804456881727113 0.3477438779326601 0.3315130214701767
0.34056663369358187 0.3501293827636281 0.33365281822209647
0.3430914193824507 0.35251957072544693 0.3357728096606275
0.3456180758677494 0.35491356858346024 0.33788695385463724
0.3481458037622134 0.3573111036928967 0.3400015179862707
0.35066478111137395 0.3597165574428591 0.34209842239966654
0.3531832337711437 0.3621263315270459 0.34419164421402526
0.35570189029421256 0.3645400934418881 0.3462824486266259
0.3582126740536292 0.3669597582314988 0.34837721544173905
0.3607242076138899 0.36938300622395503 0.3504723119717818
0.36323771353588663 0.3718090740230653 0.35257256055795316
0.36575724700690665 0.37423501313547525 0.3546995851907035
0.36828220565456943 0.376662336352332 0.3568364422607074
0.3708194747011178 0.37908831865458925 0.3589911245301267
0.3733696764115607 0.3815127606611326 0.3611635846374869
0.3759291010775642 0.38393727157832486 0.36334745823886777
0.3785070132181944 0.3863589965634174 0.36554320479185876
0.381093406314237 0.38878136747161585 0.3677454827602021
0.3836880080761081 0.3912045831640137 0.3699526273909628
0.3862915260361263 0.39362853773941076 0.3721630712944257
0.3889023911445207 0.39605371580920484 0.37437650960077595
0.391508532467577 0.39848346670723456 0.3765967686583027
0.39411117299778947 0.40091750082795 0.37882272308508835
0.3967121942760231 0.4033553467336221 0.38105299841059587
0.3992936155180986 0.4058012345311645 0.38330321583819615
0.4018678839444147 0.4082522535403745 0.38556223918210736
0.40443702766352074 0.41070633069441925 0.3878484548142643
0.40700354315641873 0.41316234974814753 0.39016628418793403
0.4095718108862419 0.4156180505044261 0.3925273555546644
0.4121463552270797 0.4180708017349113 0.39494740133441353
0.41472499503766846 0.42052187549423753 0.39741851976173115
0.41730529519023896 0.42297278911439934 0.3999306871592369
0.41987963770400116 0.42543004681206886 0.4024307776499632
0.42244827372251886 0.4278955774619331 0.40489331819184216
0.4250119091769933 0.43036975782573306 0.40731074764759073
0.4275676026863846 0.4328519128335363 0.40970291457857266
0.43011684439961106 0.4353409117531538 0.41207827222775106
0.4326639685501944 0.43783251410433077 0.4144736184241183
0.43520942502607635 0.44032663254934606 0.41688818992651516
0.4377705691678619 0.44281807809691814 0.4193203300038566
0.44034871137755627 0.44530640424248774 0.42177043073307313
0.44293772472545284 0.4477943537318177 0.4242273272114199
0.4455369519503439 0.45028224083023843 0.4266894220040705
0.44813274690760746 0.45277561932113547 0.4291391911345202
0.4507215991646197 0.45527594840173163 0.4315716922299972
0.4532984360417182 0.4577853250681185 0.4339799869014845
0.4558579965228708 0.46030596683966446 0.43635634939375584
0.4583989910401864 0.46283832495268357 0.4386999760693481
0.460923024542288 0.46538069321762926 0.4410260958619427
0.4634231009293815 0.46793579859753237 0.44332720413888976
0.4659136155971106 0.4704967282798788 0.4456347639019845
0.46839367130729376 0.473063458979942 0.44795241437101024
0.47086765472530806 0.4756345187887007 0.45028163139691785
0.4733444401019215 0.4782070332225054 0.45262425328112205
0.4758239250661139 0.48078030824489454 0.4549893623523619
0.4783142343935885 0.4833531647282627 0.457360254713246
0.4808182140594172 0.48592462567399103 0.4597381637002647
0.483337952334236 0.48849400976111496 0.46212351724663675
0.48587351244889615 0.49106178959684993 0.46450996898312763
0.48843240741041943 0.49362551390786275 0.46689931239987154
0.4910036338829276 0.4961890723841749 0.4692848238865453
0.49358711679109973 0.4987528503021496 0.4716617773210919
0.49618433985586 0.5013167657385119 0.4740253095030151
0.4987922140968774 0.5038825250088739 0.47636563040897445
0.5014134455483034 0.5064496387167856 0.4786782736926944
0.504050014670165 0.509016799248684 0.48097197056660795
0.5067043814038119 0.5115789193913138 0.48330161276089695
0.5094225118115868 0.5141172131979781 0.4857266190345095
0.51224358482313 0.5166197839746967 0.4882448456134137
0.5150827653545854 0.5191176954658961 0.49079175023690685
0.517886831175703 0.5216300837191501 0.4933319146578791
0.5206415140116645 0.5241632328519366 0.4958415537048562
0.5233695143557836 0.5267095390864736 0.4983287501132368
0.5260654018548844 0.5292713148950066 0.5007854528575758
0.5287273514327717 0.5318479468185143 0.5032266195807515
0.5313682225805264 0.5344347935120002 0.5056608662783265
0.5339856888117837 0.5370324266589117 0.5080899704295612
0.536606242760103 0.5396319217927708 0.5105235115884718
0.539236418133036 0.5422313933204143 0.5129597618733931
0.5418751490176029 0.5448301324925042 0.5154117717043034
0.5445299371035794 0.5474253686809563 0.5178852450387327
0.5471855063798977 0.5500226066628199 0.5203699621041175
0.5498478270245941 0.5526193624993557 0.5228739811907271
0.5525077841546617 0.5552193523689684 0.525385704188697
0.5551629674027265 0.5578232762929367 0.5279055886366208
0.5578144004200261 0.5604308941592946 0.5304325836737752
0.5604659736826422 0.563041112241937 0.5329652440626365
0.5631169392863948 0.5656540612767906 0.5355047404833382
0.5657677932717093 0.568269644639416 0.5380502598329026
0.568421158283457 0.570887280330344 0.540598821387137
0.5710779174461924 0.5735065364838132 0.5431523455816668
0.5737386803378307 0.5761270995223582 0.5457123218030328
0.5764030167385293 0.5787493617555708 0.5482753604948088
0.5790719993891881 0.5813723078656136 0.5508500310881576
0.5817470244647958 0.5839949586000743 0.5534431726180703
0.5844271118746581 0.586618665448445 0.5560413907417026
0.587119594839983 0.5892389293223935 0.558672867444017
0.5898213224447402 0.5918573765886964 0.5613291971274432
0.5925248011647615 0.5944774275654238 0.5639962720704885
0.5952196658900399 0.5970979332325023 0.5667290348506953
0.5979149180204612 0.5997211773921091 0.5694632898847947
0.6005958724559969 0.6023506330087667 0.5722124351959587
0.6032653930465565 0.6049856094983993 0.5749739235139466
0.6059363651110043 0.6076231010147973 0.5777353143302665
0.6085926190974387 0.6102693755535711 0.5804805382754602
0.6112475151874881 0.6129190308967459 0.5832255572827986
0.6139032634248793 0.6155714429352298 0.5859695395032769
0.6165471511053152 0.6182350269172089 0.5886559289199146
0.6191915934686741 0.6209008608826767 0.5913486950869877
0.6218300060155203 0.6235769580079175 0.5939725001422107
0.6244626204269319 0.6262610715050431 0.5965546666747266
0.6270875240445977 0.6289591259350772 0.5990279489631285
0.6296979096431696 0.6316689461670572 0.6014460798496912
0.6322957185054007 0.6343838700470013 0.6038852756795733
0.6348975718142715 0.6370968215521979 0.6063698975575974
0.6375074717318382 0.6398083815632137 0.6088769885315531
0.6401491530351572 0.6425128269709605 0.6113862194090187
0.6428011372986426 0.6452162104797878 0.613904870169532
0.6454944093821966 0.6479114180297103 0.6164019038216175
0.6481937572971412 0.650607314894249 0.6189025823825294
0.6509273766805265 0.6532977298166918 0.6213748056181475
0.6536670381458269 0.6559890706661946 0.6238476252339722
0.6564248887325083 0.6586758640008813 0.6263426683679285
0.6591884817366949 0.6613628478350635 0.6288485785954238
0.6619662558066238 0.664045170205702 0.6313935957051084
0.6647542992003551 0.6667247440331533 0.6339687337158125
0.6675494692041473 0.6694030795843073 0.6365670926575004
0.6703609089949627 0.6720752784789904 0.63921470033545
