obsidian/Clippings/写真家活動/技法探求/デジタルネガ探究/QTR/プロファイル作成/QTRカーブ_アーカイブ/v2-補正/旧測定データ_アーカイブ/precision_edn_v2.cube
# Precision EDN v2 - Digital Negative Calibration LUT
# Version: 2.0
# Date: 2026-03-09
# Target: 和紙 Platinum Print
# Printer: EPSON PX-1V
# Media: Pictorico OHP TPS100

LUT_1D_SIZE 256

0.000000 0.000000 0.000000
0.004709 0.004709 0.004709
0.009303 0.009303 0.009303
0.013776 0.013776 0.013776
0.018121 0.018121 0.018121
0.022331 0.022331 0.022331
0.026402 0.026402 0.026402
0.030326 0.030326 0.030326
0.034097 0.034097 0.034097
0.037577 0.037577 0.037577
0.040721 0.040721 0.040721
0.043666 0.043666 0.043666
0.046548 0.046548 0.046548
0.049502 0.049502 0.049502
0.052664 0.052664 0.052664
0.056169 0.056169 0.056169
0.060155 0.060155 0.060155
0.064730 0.064730 0.064730
0.069878 0.069878 0.069878
0.075544 0.075544 0.075544
0.081674 0.081674 0.081674
0.088213 0.088213 0.088213
0.095107 0.095107 0.095107
0.102302 0.102302 0.102302
0.109742 0.109742 0.109742
0.118832 0.118832 0.118832
0.130279 0.130279 0.130279
0.142984 0.142984 0.142984
0.155845 0.155845 0.155845
0.167762 0.167762 0.167762
0.177637 0.177637 0.177637
0.184369 0.184369 0.184369
0.186857 0.186857 0.186857
0.186857 0.186857 0.186857
0.186857 0.186857 0.186857
0.186857 0.186857 0.186857
0.186857 0.186857 0.186857
0.186857 0.186857 0.186857
0.186857 0.186857 0.186857
0.186857 0.186857 0.186857
0.186857 0.186857 0.186857
0.187429 0.187429 0.187429
0.189013 0.189013 0.189013
0.191412 0.191412 0.191412
0.194428 0.194428 0.194428
0.197863 0.197863 0.197863
0.201520 0.201520 0.201520
0.205201 0.205201 0.205201
0.208707 0.208707 0.208707
0.212409 0.212409 0.212409
0.216678 0.216678 0.216678
0.221323 0.221323 0.221323
0.226151 0.226151 0.226151
0.230971 0.230971 0.230971
0.235590 0.235590 0.235590
0.239817 0.239817 0.239817
0.243459 0.243459 0.243459
0.246622 0.246622 0.246622
0.249564 0.249564 0.249564
0.252320 0.252320 0.252320
0.254928 0.254928 0.254928
0.257423 0.257423 0.257423
0.259842 0.259842 0.259842
0.262221 0.262221 0.262221
0.264596 0.264596 0.264596
0.266931 0.266931 0.266931
0.269181 0.269181 0.269181
0.271364 0.271364 0.271364
0.273501 0.273501 0.273501
0.275612 0.275612 0.275612
0.277716 0.277716 0.277716
0.279833 0.279833 0.279833
0.281984 0.281984 0.281984
0.284163 0.284163 0.284163
0.286349 0.286349 0.286349
0.288539 0.288539 0.288539
0.290726 0.290726 0.290726
0.292908 0.292908 0.292908
0.295080 0.295080 0.295080
0.297236 0.297236 0.297236
0.299372 0.299372 0.299372
0.301514 0.301514 0.301514
0.303676 0.303676 0.303676
0.305839 0.305839 0.305839
0.307985 0.307985 0.307985
0.310093 0.310093 0.310093
0.312144 0.312144 0.312144
0.314120 0.314120 0.314120
0.316002 0.316002 0.316002
0.317783 0.317783 0.317783
0.319484 0.319484 0.319484
0.321123 0.321123 0.321123
0.322719 0.322719 0.322719
0.324291 0.324291 0.324291
0.325856 0.325856 0.325856
0.327434 0.327434 0.327434
0.329043 0.329043 0.329043
0.330581 0.330581 0.330581
0.331989 0.331989 0.331989
0.333345 0.333345 0.333345
0.334727 0.334727 0.334727
0.336214 0.336214 0.336214
0.337883 0.337883 0.337883
0.339814 0.339814 0.339814
0.342084 0.342084 0.342084
0.345442 0.345442 0.345442
0.350260 0.350260 0.350260
0.356052 0.356052 0.356052
0.362330 0.362330 0.362330
0.368608 0.368608 0.368608
0.374399 0.374399 0.374399
0.379218 0.379218 0.379218
0.382576 0.382576 0.382576
0.384847 0.384847 0.384847
0.386780 0.386780 0.386780
0.388453 0.388453 0.388453
0.389943 0.389943 0.389943
0.391326 0.391326 0.391326
0.392682 0.392682 0.392682
0.394086 0.394086 0.394086
0.395617 0.395617 0.395617
0.397253 0.397253 0.397253
0.398911 0.398911 0.398911
0.400577 0.400577 0.400577
0.402235 0.402235 0.402235
0.403871 0.403871 0.403871
0.405469 0.405469 0.405469
0.407016 0.407016 0.407016
0.408495 0.408495 0.408495
0.409904 0.409904 0.409904
0.411257 0.411257 0.411257
0.412568 0.412568 0.412568
0.413848 0.413848 0.413848
0.415112 0.415112 0.415112
0.416371 0.416371 0.416371
0.417639 0.417639 0.417639
0.418928 0.418928 0.418928
0.420233 0.420233 0.420233
0.421538 0.421538 0.421538
0.422843 0.422843 0.422843
0.424148 0.424148 0.424148
0.425453 0.425453 0.425453
0.426756 0.426756 0.426756
0.428059 0.428059 0.428059
0.429361 0.429361 0.429361
0.430667 0.430667 0.430667
0.431982 0.431982 0.431982
0.433299 0.433299 0.433299
0.434613 0.434613 0.434613
0.435920 0.435920 0.435920
0.437213 0.437213 0.437213
0.438489 0.438489 0.438489
0.439741 0.439741 0.439741
0.440968 0.440968 0.440968
0.442173 0.442173 0.442173
0.443361 0.443361 0.443361
0.444537 0.444537 0.444537
0.445707 0.445707 0.445707
0.446875 0.446875 0.446875
0.448046 0.448046 0.448046
0.449226 0.449226 0.449226
0.450411 0.450411 0.450411
0.451597 0.451597 0.451597
0.452782 0.452782 0.452782
0.453968 0.453968 0.453968
0.455154 0.455154 0.455154
0.456339 0.456339 0.456339
0.457525 0.457525 0.457525
0.458710 0.458710 0.458710
0.459873 0.459873 0.459873
0.461003 0.461003 0.461003
0.462120 0.462120 0.462120
0.463244 0.463244 0.463244
0.464394 0.464394 0.464394
0.465589 0.465589 0.465589
0.466849 0.466849 0.466849
0.468195 0.468195 0.468195
0.469650 0.469650 0.469650
0.471213 0.471213 0.471213
0.472865 0.472865 0.472865
0.474584 0.474584 0.474584
0.476350 0.476350 0.476350
0.478144 0.478144 0.478144
0.479944 0.479944 0.479944
0.481731 0.481731 0.481731
0.483435 0.483435 0.483435
0.485045 0.485045 0.485045
0.486632 0.486632 0.486632
0.488264 0.488264 0.488264
0.490011 0.490011 0.490011
0.491943 0.491943 0.491943
0.494127 0.494127 0.494127
0.496635 0.496635 0.496635
0.499916 0.499916 0.499916
0.504193 0.504193 0.504193
0.509191 0.509191 0.509191
0.514639 0.514639 0.514639
0.520263 0.520263 0.520263
0.525790 0.525790 0.525790
0.530947 0.530947 0.530947
0.535461 0.535461 0.535461
0.539271 0.539271 0.539271
0.542624 0.542624 0.542624
0.545711 0.545711 0.545711
0.548725 0.548725 0.548725
0.551857 0.551857 0.551857
0.555298 0.555298 0.555298
0.559241 0.559241 0.559241
0.563877 0.563877 0.563877
0.570154 0.570154 0.570154
0.578452 0.578452 0.578452
0.588107 0.588107 0.588107
0.598458 0.598458 0.598458
0.608841 0.608841 0.608841
0.618594 0.618594 0.618594
0.627054 0.627054 0.627054
0.633559 0.633559 0.633559
0.638318 0.638318 0.638318
0.642191 0.642191 0.642191
0.645486 0.645486 0.645486
0.648510 0.648510 0.648510
0.651573 0.651573 0.651573
0.654983 0.654983 0.654983
0.659048 0.659048 0.659048
0.664076 0.664076 0.664076
0.670801 0.670801 0.670801
0.679472 0.679472 0.679472
0.689673 0.689673 0.689673
0.700985 0.700985 0.700985
0.712992 0.712992 0.712992
0.725275 0.725275 0.725275
0.737418 0.737418 0.737418
0.749003 0.749003 0.749003
0.760544 0.760544 0.760544
0.772665 0.772665 0.772665
0.785109 0.785109 0.785109
0.797620 0.797620 0.797620
0.809943 0.809943 0.809943
0.821821 0.821821 0.821821
0.832998 0.832998 0.832998
0.843219 0.843219 0.843219
0.852319 0.852319 0.852319
0.860521 0.860521 0.860521
0.868142 0.868142 0.868142
0.875500 0.875500 0.875500
0.882915 0.882915 0.882915
0.890706 0.890706 0.890706
0.899190 0.899190 0.899190
0.908686 0.908686 0.908686
0.919296 0.919296 0.919296
0.930854 0.930854 0.930854
0.943278 0.943278 0.943278
0.956486 0.956486 0.956486
0.970397 0.970397 0.970397
0.984929 0.984929 0.984929
1.000000 1.000000 1.000000
